(G-CODE GENERATED BY FLATCAM v8.991 - www.flatcam.org - Version Date: 2019/12/27)

(Name: raceMini1-PTH.drl_cnc)
(Type: G-code from Excellon)
(Units: MM)

(Created on Friday, 10 April 2020 at 09:35)

(Feedrate: 120.0 mm/min)
(Feedrate rapids 1200.0 mm/min)

(Z_Cut: -1.7 mm)
(Z_Move: 2.0 mm)
(Z Toolchange: 25.0 mm)
(X,Y Toolchange: 0.0000, 0.0000 mm)
(Z Start: None mm)
(Z End: 0.5 mm)
(Steps per circle: 64)
(Preprocessor Excellon: default)

(X range:  -66.4002 ...   -3.0704  mm)
(Y range:    0.3005 ...   53.8704  mm)

(Spindle Speed: 12000.0 RPM)
G21
G90
G94




G01 F120.00
G00 Z2.0000

M03 S12000.0
G00 X-3.5200 Y44.4800
G01 Z-1.7000
G01 Z0
G00 Z2.0000
G00 X-3.5200 Y41.9400
G01 Z-1.7000
G01 Z0
G00 Z2.0000
G00 X-3.5200 Y39.4000
G01 Z-1.7000
G01 Z0
G00 Z2.0000
G00 X-3.5200 Y36.8600
G01 Z-1.7000
G01 Z0
G00 Z2.0000
G00 X-3.5200 Y34.3200
G01 Z-1.7000
G01 Z0
G00 Z2.0000
G00 X-3.5200 Y31.7800
G01 Z-1.7000
G01 Z0
G00 Z2.0000
G00 X-3.5200 Y29.2400
G01 Z-1.7000
G01 Z0
G00 Z2.0000
G00 X-3.5200 Y26.7000
G01 Z-1.7000
G01 Z0
G00 Z2.0000
G00 X-3.5200 Y24.1600
G01 Z-1.7000
G01 Z0
G00 Z2.0000
G00 X-3.5200 Y21.6200
G01 Z-1.7000
G01 Z0
G00 Z2.0000
G00 X-3.5200 Y19.0800
G01 Z-1.7000
G01 Z0
G00 Z2.0000
G00 X-3.5200 Y16.5400
G01 Z-1.7000
G01 Z0
G00 Z2.0000
G00 X-3.5200 Y14.0000
G01 Z-1.7000
G01 Z0
G00 Z2.0000
G00 X-3.5200 Y11.4600
G01 Z-1.7000
G01 Z0
G00 Z2.0000
G00 X-3.5200 Y8.9200
G01 Z-1.7000
G01 Z0
G00 Z2.0000
G00 X-28.9200 Y8.9200
G01 Z-1.7000
G01 Z0
G00 Z2.0000
G00 X-28.9200 Y11.4600
G01 Z-1.7000
G01 Z0
G00 Z2.0000
G00 X-28.9200 Y14.0000
G01 Z-1.7000
G01 Z0
G00 Z2.0000
G00 X-28.9200 Y16.5400
G01 Z-1.7000
G01 Z0
G00 Z2.0000
G00 X-28.9200 Y19.0800
G01 Z-1.7000
G01 Z0
G00 Z2.0000
G00 X-28.9200 Y21.6200
G01 Z-1.7000
G01 Z0
G00 Z2.0000
G00 X-28.9200 Y24.1600
G01 Z-1.7000
G01 Z0
G00 Z2.0000
G00 X-28.9200 Y26.7000
G01 Z-1.7000
G01 Z0
G00 Z2.0000
G00 X-28.9200 Y29.2400
G01 Z-1.7000
G01 Z0
G00 Z2.0000
G00 X-28.9200 Y31.7800
G01 Z-1.7000
G01 Z0
G00 Z2.0000
G00 X-28.9200 Y34.3200
G01 Z-1.7000
G01 Z0
G00 Z2.0000
G00 X-28.9200 Y36.8600
G01 Z-1.7000
G01 Z0
G00 Z2.0000
G00 X-28.9200 Y39.4000
G01 Z-1.7000
G01 Z0
G00 Z2.0000
G00 X-28.9200 Y41.9400
G01 Z-1.7000
G01 Z0
G00 Z2.0000
M03 S12000.0
G00 X-32.7300 Y50.8300
G01 Z-1.7000
G01 Z0
G00 Z2.0000
G00 X-35.2700 Y50.8300
G01 Z-1.7000
G01 Z0
G00 Z2.0000
G00 X-37.8100 Y50.8300
G01 Z-1.7000
G01 Z0
G00 Z2.0000
G00 X-40.3500 Y50.8300
G01 Z-1.7000
G01 Z0
G00 Z2.0000
G00 X-39.0800 Y43.2100
G01 Z-1.7000
G01 Z0
G00 Z2.0000
G00 X-56.8600 Y43.2100
G01 Z-1.7000
G01 Z0
G00 Z2.0000
G00 X-56.8600 Y2.5700
G01 Z-1.7000
G01 Z0
G00 Z2.0000
G00 X-39.0800 Y2.5700
G01 Z-1.7000
G01 Z0
G00 Z2.0000
G00 X-34.0000 Y19.0800
G01 Z-1.7000
G01 Z0
G00 Z2.0000
G00 X-34.0000 Y21.6200
G01 Z-1.7000
G01 Z0
G00 Z2.0000
G00 X-34.0000 Y24.1600
G01 Z-1.7000
G01 Z0
G00 Z2.0000
G00 X-34.0000 Y26.7000
G01 Z-1.7000
G01 Z0
G00 Z2.0000
G00 X-34.0000 Y31.7800
G01 Z-1.7000
G01 Z0
G00 Z2.0000
G00 X-34.0000 Y34.3200
G01 Z-1.7000
G01 Z0
G00 Z2.0000
G00 X-34.0000 Y36.8600
G01 Z-1.7000
G01 Z0
G00 Z2.0000
G00 X-28.9200 Y44.4800
G01 Z-1.7000
G01 Z0
G00 Z2.0000
G00 X-12.4100 Y53.3700
G01 Z-1.7000
G01 Z0
G00 Z2.0000
G00 X-14.9500 Y53.3700
G01 Z-1.7000
G01 Z0
G00 Z2.0000
G00 X-17.4900 Y53.3700
G01 Z-1.7000
G01 Z0
G00 Z2.0000
G00 X-20.0300 Y53.3700
G01 Z-1.7000
G01 Z0
G00 Z2.0000
G00 X-22.5700 Y53.3700
G01 Z-1.7000
G01 Z0
G00 Z2.0000
M03 S12000.0
G00 X-65.7500 Y39.3594
G01 Z-1.7000
G01 Z0
G00 Z2.0000
G00 X-65.7500 Y34.3606
G01 Z-1.7000
G01 Z0
G00 Z2.0000
M03 S12000.0
G00 X-4.7900 Y1.3000
G01 Z-1.7000
G01 Z0
G00 Z2.0000
G00 X-27.6500 Y1.3000
G01 Z-1.7000
G01 Z0
G00 Z2.0000
G00 X-61.9400 Y7.6500
G01 Z-1.7000
G01 Z0
G00 Z2.0000
M05
G00 Z0.50
G00 X0.0 Y0.0

