(G-CODE GENERATED BY FLATCAM v8.991 - www.flatcam.org - Version Date: 2019/12/27)

(Name: raceMini1-B_Cu.gbr_iso_cnc)
(Type: G-code from Geometry)
(Units: MM)

(Created on Friday, 10 April 2020 at 09:35)

(TOOL DIAMETER: 0.14 mm)
(Feedrate: 600.0 mm/min)
(Feedrate_Z: 100.0 mm/min)
(Feedrate rapids 1200.0 mm/min)

(Z_Cut: -0.0746 mm)
(Z_Move: 1.5 mm)
(Z Toolchange: 15.0 mm)
(X,Y Toolchange: 0.0000, 0.0000 mm)
(Z Start: None mm)
(Z End: 15.0 mm)
(Steps per circle: 64)
(Preprocessor Geometry: default)

(X range:  -67.2936 ...    0.5841  mm)
(Y range:   -0.9936 ...   57.0044  mm)

(Spindle Speed: 12000 RPM)
G21
G90
G94




G01 F600.00
G00 Z1.5000

M03 S12000
G00 X-2.8102 Y0.6958
G01 F100.00
G01 Z-0.0746
G01 F600.00
G01 X-2.8082 Y0.7024
G01 X-2.7605 Y0.8928
G01 X-2.7592 Y0.8995
G01 X-2.7304 Y1.0937
G01 X-2.7297 Y1.1005
G01 X-2.7201 Y1.2966
G01 X-2.7201 Y1.3034
G01 X-2.7297 Y1.4995
G01 X-2.7304 Y1.5063
G01 X-2.7592 Y1.7005
G01 X-2.7605 Y1.7072
G01 X-2.8082 Y1.8976
G01 X-2.8102 Y1.9042
G01 X-2.8763 Y2.0889
G01 X-2.8790 Y2.0953
G01 X-2.9629 Y2.2727
G01 X-2.9661 Y2.2788
G01 X-3.0670 Y2.4471
G01 X-3.0708 Y2.4528
G01 X-3.1878 Y2.6105
G01 X-3.1921 Y2.6158
G01 X-3.3239 Y2.7612
G01 X-3.3288 Y2.7661
G01 X-3.4742 Y2.8979
G01 X-3.4795 Y2.9022
G01 X-3.6372 Y3.0192
G01 X-3.6429 Y3.0230
G01 X-3.8112 Y3.1239
G01 X-3.8173 Y3.1271
G01 X-3.9947 Y3.2110
G01 X-4.0011 Y3.2137
G01 X-4.1858 Y3.2798
G01 X-4.1924 Y3.2818
G01 X-4.3828 Y3.3295
G01 X-4.3895 Y3.3308
G01 X-4.5837 Y3.3596
G01 X-4.5905 Y3.3603
G01 X-4.7866 Y3.3699
G01 X-4.7934 Y3.3699
G01 X-4.9895 Y3.3603
G01 X-4.9963 Y3.3596
G01 X-5.1905 Y3.3308
G01 X-5.1972 Y3.3295
G01 X-5.3876 Y3.2818
G01 X-5.3942 Y3.2798
G01 X-5.5789 Y3.2137
G01 X-5.5853 Y3.2110
G01 X-5.7627 Y3.1271
G01 X-5.7688 Y3.1239
G01 X-5.9371 Y3.0230
G01 X-5.9428 Y3.0192
G01 X-6.1005 Y2.9022
G01 X-6.1058 Y2.8979
G01 X-6.2512 Y2.7661
G01 X-6.2561 Y2.7612
G01 X-6.3879 Y2.6158
G01 X-6.3922 Y2.6105
G01 X-6.5092 Y2.4528
G01 X-6.5130 Y2.4471
G01 X-6.6139 Y2.2788
G01 X-6.6171 Y2.2727
G01 X-6.7010 Y2.0953
G01 X-6.7037 Y2.0889
G01 X-6.7698 Y1.9042
G01 X-6.7718 Y1.8976
G01 X-6.8195 Y1.7072
G01 X-6.8208 Y1.7005
G01 X-6.8496 Y1.5063
G01 X-6.8503 Y1.4995
G01 X-6.8599 Y1.3034
G01 X-6.8599 Y1.2966
G01 X-6.8503 Y1.1005
G01 X-6.8496 Y1.0937
G01 X-6.8208 Y0.8995
G01 X-6.8195 Y0.8928
G01 X-6.7718 Y0.7024
G01 X-6.7698 Y0.6958
G01 X-6.7037 Y0.5111
G01 X-6.7010 Y0.5047
G01 X-6.6171 Y0.3273
G01 X-6.6139 Y0.3212
G01 X-6.5130 Y0.1529
G01 X-6.5092 Y0.1472
G01 X-6.3922 Y-0.0105
G01 X-6.3879 Y-0.0158
G01 X-6.2561 Y-0.1612
G01 X-6.2512 Y-0.1661
G01 X-6.1058 Y-0.2979
G01 X-6.1005 Y-0.3022
G01 X-5.9428 Y-0.4192
G01 X-5.9371 Y-0.4230
G01 X-5.7688 Y-0.5239
G01 X-5.7627 Y-0.5271
G01 X-5.5853 Y-0.6110
G01 X-5.5789 Y-0.6137
G01 X-5.3942 Y-0.6798
G01 X-5.3876 Y-0.6818
G01 X-5.1972 Y-0.7295
G01 X-5.1905 Y-0.7308
G01 X-4.9963 Y-0.7596
G01 X-4.9895 Y-0.7603
G01 X-4.7934 Y-0.7699
G01 X-4.7866 Y-0.7699
G01 X-4.5905 Y-0.7603
G01 X-4.5837 Y-0.7596
G01 X-4.3895 Y-0.7308
G01 X-4.3828 Y-0.7295
G01 X-4.1924 Y-0.6818
G01 X-4.1858 Y-0.6798
G01 X-4.0011 Y-0.6137
G01 X-3.9947 Y-0.6110
G01 X-3.8173 Y-0.5271
G01 X-3.8112 Y-0.5239
G01 X-3.6429 Y-0.4230
G01 X-3.6372 Y-0.4192
G01 X-3.4795 Y-0.3022
G01 X-3.4742 Y-0.2979
G01 X-3.3288 Y-0.1661
G01 X-3.3239 Y-0.1612
G01 X-3.1921 Y-0.0158
G01 X-3.1878 Y-0.0105
G01 X-3.0708 Y0.1472
G01 X-3.0670 Y0.1529
G01 X-2.9661 Y0.3212
G01 X-2.9629 Y0.3273
G01 X-2.8790 Y0.5047
G01 X-2.8763 Y0.5111
G01 X-2.8102 Y0.6958
G00 Z1.5000
G00 X-2.4907 Y8.6497
G01 F100.00
G01 Z-0.0746
G01 F600.00
G01 X-2.4887 Y8.6562
G01 X-2.4684 Y8.7372
G01 X-2.4671 Y8.7439
G01 X-2.4549 Y8.8264
G01 X-2.4542 Y8.8333
G01 X-2.4501 Y8.9166
G01 X-2.4501 Y8.9234
G01 X-2.4542 Y9.0067
G01 X-2.4549 Y9.0136
G01 X-2.4671 Y9.0961
G01 X-2.4684 Y9.1028
G01 X-2.4887 Y9.1838
G01 X-2.4907 Y9.1903
G01 X-2.5188 Y9.2689
G01 X-2.5214 Y9.2752
G01 X-2.5571 Y9.3506
G01 X-2.5603 Y9.3567
G01 X-2.6032 Y9.4282
G01 X-2.6070 Y9.4339
G01 X-2.6567 Y9.5009
G01 X-2.6611 Y9.5062
G01 X-2.7171 Y9.5680
G01 X-2.7220 Y9.5729
G01 X-2.7838 Y9.6289
G01 X-2.7891 Y9.6333
G01 X-2.8561 Y9.6830
G01 X-2.8618 Y9.6868
G01 X-2.9333 Y9.7297
G01 X-2.9394 Y9.7329
G01 X-3.0148 Y9.7686
G01 X-3.0211 Y9.7712
G01 X-3.0997 Y9.7993
G01 X-3.1062 Y9.8013
G01 X-3.1872 Y9.8216
G01 X-3.1939 Y9.8229
G01 X-3.2764 Y9.8351
G01 X-3.2833 Y9.8358
G01 X-3.3700 Y9.8400
G01 X-3.6700 Y9.8400
G01 X-3.7567 Y9.8358
G01 X-3.7636 Y9.8351
G01 X-3.8461 Y9.8229
G01 X-3.8528 Y9.8216
G01 X-3.9338 Y9.8013
G01 X-3.9403 Y9.7993
G01 X-3.9652 Y9.7904
G01 X-23.8400 Y9.7904
G01 X-23.9219 Y9.7865
G01 X-23.9287 Y9.7858
G01 X-24.0064 Y9.7743
G01 X-24.0132 Y9.7729
G01 X-24.0894 Y9.7538
G01 X-24.0959 Y9.7518
G01 X-24.1699 Y9.7254
G01 X-24.1762 Y9.7228
G01 X-24.2472 Y9.6892
G01 X-24.2533 Y9.6859
G01 X-24.3207 Y9.6455
G01 X-24.3264 Y9.6417
G01 X-24.3895 Y9.5949
G01 X-24.3948 Y9.5906
G01 X-24.4555 Y9.5355
G01 X-26.7405 Y7.2504
G01 X-29.8295 Y7.2504
G01 X-39.4796 Y16.9005
G01 X-39.4796 Y34.3200
G01 X-39.4835 Y34.4019
G01 X-39.4842 Y34.4087
G01 X-39.4957 Y34.4864
G01 X-39.4971 Y34.4932
G01 X-39.5162 Y34.5694
G01 X-39.5182 Y34.5759
G01 X-39.5446 Y34.6499
G01 X-39.5472 Y34.6562
G01 X-39.5808 Y34.7272
G01 X-39.5841 Y34.7333
G01 X-39.6245 Y34.8007
G01 X-39.6283 Y34.8064
G01 X-39.6751 Y34.8695
G01 X-39.6794 Y34.8748
G01 X-39.7322 Y34.9330
G01 X-43.2896 Y38.4905
G01 X-43.2896 Y42.7398
G01 X-42.3518 Y42.7398
G01 X-42.3417 Y42.7236
G01 X-42.2949 Y42.6605
G01 X-42.2906 Y42.6552
G01 X-42.2378 Y42.5970
G01 X-42.2330 Y42.5922
G01 X-42.1748 Y42.5394
G01 X-42.1695 Y42.5351
G01 X-42.1064 Y42.4883
G01 X-42.1007 Y42.4845
G01 X-42.0333 Y42.4441
G01 X-42.0272 Y42.4408
G01 X-41.9562 Y42.4072
G01 X-41.9499 Y42.4046
G01 X-41.8759 Y42.3782
G01 X-41.8694 Y42.3762
G01 X-41.7932 Y42.3571
G01 X-41.7864 Y42.3557
G01 X-41.7087 Y42.3442
G01 X-41.7019 Y42.3435
G01 X-41.6200 Y42.3396
G01 X-39.7006 Y42.3396
G01 X-39.6773 Y42.3223
G01 X-39.6716 Y42.3185
G01 X-39.5874 Y42.2680
G01 X-39.5813 Y42.2648
G01 X-39.4926 Y42.2228
G01 X-39.4863 Y42.2202
G01 X-39.3939 Y42.1872
G01 X-39.3873 Y42.1852
G01 X-39.2921 Y42.1613
G01 X-39.2854 Y42.1600
G01 X-39.1883 Y42.1456
G01 X-39.1815 Y42.1449
G01 X-39.0834 Y42.1401
G01 X-39.0766 Y42.1401
G01 X-38.9785 Y42.1449
G01 X-38.9717 Y42.1456
G01 X-38.8746 Y42.1600
G01 X-38.8679 Y42.1613
G01 X-38.7727 Y42.1852
G01 X-38.7661 Y42.1872
G01 X-38.6737 Y42.2202
G01 X-38.6674 Y42.2228
G01 X-38.5787 Y42.2648
G01 X-38.5726 Y42.2680
G01 X-38.4884 Y42.3185
G01 X-38.4827 Y42.3223
G01 X-38.4039 Y42.3808
G01 X-38.3986 Y42.3851
G01 X-38.3259 Y42.4510
G01 X-38.3210 Y42.4559
G01 X-38.2551 Y42.5286
G01 X-38.2508 Y42.5339
G01 X-38.1923 Y42.6127
G01 X-38.1885 Y42.6184
G01 X-38.1380 Y42.7026
G01 X-38.1348 Y42.7087
G01 X-38.0928 Y42.7974
G01 X-38.0902 Y42.8037
G01 X-38.0572 Y42.8961
G01 X-38.0552 Y42.9027
G01 X-38.0313 Y42.9979
G01 X-38.0300 Y43.0046
G01 X-38.0156 Y43.1017
G01 X-38.0149 Y43.1085
G01 X-38.0101 Y43.2066
G01 X-38.0101 Y43.2134
G01 X-38.0149 Y43.3115
G01 X-38.0156 Y43.3183
G01 X-38.0300 Y43.4154
G01 X-38.0313 Y43.4221
G01 X-38.0552 Y43.5173
G01 X-38.0572 Y43.5239
G01 X-38.0902 Y43.6163
G01 X-38.0928 Y43.6226
G01 X-38.1348 Y43.7113
G01 X-38.1380 Y43.7174
G01 X-38.1885 Y43.8016
G01 X-38.1923 Y43.8073
G01 X-38.2508 Y43.8861
G01 X-38.2551 Y43.8914
G01 X-38.3210 Y43.9641
G01 X-38.3259 Y43.9690
G01 X-38.3986 Y44.0349
G01 X-38.4039 Y44.0392
G01 X-38.4827 Y44.0977
G01 X-38.4884 Y44.1015
G01 X-38.5726 Y44.1520
G01 X-38.5787 Y44.1552
G01 X-38.6674 Y44.1972
G01 X-38.6737 Y44.1998
G01 X-38.7661 Y44.2328
G01 X-38.7727 Y44.2348
G01 X-38.8679 Y44.2587
G01 X-38.8746 Y44.2600
G01 X-38.9717 Y44.2744
G01 X-38.9785 Y44.2751
G01 X-39.0766 Y44.2799
G01 X-39.0834 Y44.2799
G01 X-39.1815 Y44.2751
G01 X-39.1883 Y44.2744
G01 X-39.2854 Y44.2600
G01 X-39.2921 Y44.2587
G01 X-39.3873 Y44.2348
G01 X-39.3939 Y44.2328
G01 X-39.4863 Y44.1998
G01 X-39.4926 Y44.1972
G01 X-39.5813 Y44.1552
G01 X-39.5874 Y44.1520
G01 X-39.6716 Y44.1015
G01 X-39.6773 Y44.0977
G01 X-39.7006 Y44.0804
G01 X-41.6200 Y44.0804
G01 X-41.7019 Y44.0765
G01 X-41.7087 Y44.0758
G01 X-41.7864 Y44.0643
G01 X-41.7932 Y44.0629
G01 X-41.8694 Y44.0438
G01 X-41.8759 Y44.0418
G01 X-41.9499 Y44.0154
G01 X-41.9562 Y44.0128
G01 X-42.0272 Y43.9792
G01 X-42.0333 Y43.9759
G01 X-42.1007 Y43.9355
G01 X-42.1064 Y43.9317
G01 X-42.1695 Y43.8849
G01 X-42.1748 Y43.8806
G01 X-42.2330 Y43.8278
G01 X-42.2378 Y43.8230
G01 X-42.2906 Y43.7648
G01 X-42.2949 Y43.7595
G01 X-42.3417 Y43.6964
G01 X-42.3518 Y43.6802
G01 X-43.4282 Y43.6802
G01 X-43.4383 Y43.6964
G01 X-43.4851 Y43.7595
G01 X-43.4894 Y43.7648
G01 X-43.5422 Y43.8230
G01 X-43.5470 Y43.8278
G01 X-43.6052 Y43.8806
G01 X-43.6105 Y43.8849
G01 X-43.6736 Y43.9317
G01 X-43.6793 Y43.9355
G01 X-43.7467 Y43.9759
G01 X-43.7528 Y43.9792
G01 X-43.8238 Y44.0128
G01 X-43.8301 Y44.0154
G01 X-43.9041 Y44.0418
G01 X-43.9106 Y44.0438
G01 X-43.9868 Y44.0629
G01 X-43.9936 Y44.0643
G01 X-44.0713 Y44.0758
G01 X-44.0781 Y44.0765
G01 X-44.1566 Y44.0803
G01 X-44.1634 Y44.0803
G01 X-44.2419 Y44.0765
G01 X-44.2487 Y44.0758
G01 X-44.3264 Y44.0643
G01 X-44.3332 Y44.0629
G01 X-44.4094 Y44.0438
G01 X-44.4159 Y44.0418
G01 X-44.4899 Y44.0154
G01 X-44.4962 Y44.0128
G01 X-44.5672 Y43.9792
G01 X-44.5733 Y43.9759
G01 X-44.6407 Y43.9355
G01 X-44.6464 Y43.9317
G01 X-44.7095 Y43.8849
G01 X-44.7148 Y43.8806
G01 X-44.7730 Y43.8278
G01 X-44.7778 Y43.8230
G01 X-44.8306 Y43.7648
G01 X-44.8349 Y43.7595
G01 X-44.8817 Y43.6964
G01 X-44.8855 Y43.6907
G01 X-44.9259 Y43.6233
G01 X-44.9292 Y43.6172
G01 X-44.9628 Y43.5462
G01 X-44.9654 Y43.5399
G01 X-44.9918 Y43.4659
G01 X-44.9938 Y43.4594
G01 X-45.0129 Y43.3832
G01 X-45.0143 Y43.3764
G01 X-45.0258 Y43.2987
G01 X-45.0265 Y43.2919
G01 X-45.0304 Y43.2100
G01 X-45.0304 Y38.1300
G01 X-45.0265 Y38.0481
G01 X-45.0258 Y38.0413
G01 X-45.0143 Y37.9636
G01 X-45.0129 Y37.9568
G01 X-44.9938 Y37.8806
G01 X-44.9918 Y37.8741
G01 X-44.9654 Y37.8001
G01 X-44.9628 Y37.7938
G01 X-44.9292 Y37.7228
G01 X-44.9259 Y37.7167
G01 X-44.8855 Y37.6493
G01 X-44.8817 Y37.6436
G01 X-44.8349 Y37.5805
G01 X-44.8306 Y37.5752
G01 X-44.7755 Y37.5145
G01 X-41.2204 Y33.9595
G01 X-41.2204 Y16.5400
G01 X-41.2165 Y16.4581
G01 X-41.2158 Y16.4513
G01 X-41.2043 Y16.3736
G01 X-41.2029 Y16.3668
G01 X-41.1838 Y16.2906
G01 X-41.1818 Y16.2841
G01 X-41.1554 Y16.2101
G01 X-41.1528 Y16.2038
G01 X-41.1192 Y16.1328
G01 X-41.1159 Y16.1267
G01 X-41.0755 Y16.0593
G01 X-41.0717 Y16.0536
G01 X-41.0249 Y15.9905
G01 X-41.0206 Y15.9852
G01 X-40.9655 Y15.9245
G01 X-30.8055 Y5.7645
G01 X-30.7448 Y5.7094
G01 X-30.7395 Y5.7051
G01 X-30.6764 Y5.6583
G01 X-30.6707 Y5.6545
G01 X-30.6033 Y5.6141
G01 X-30.5972 Y5.6108
G01 X-30.5262 Y5.5772
G01 X-30.5199 Y5.5746
G01 X-30.4459 Y5.5482
G01 X-30.4394 Y5.5462
G01 X-30.3632 Y5.5271
G01 X-30.3564 Y5.5257
G01 X-30.2787 Y5.5142
G01 X-30.2719 Y5.5135
G01 X-30.1934 Y5.5097
G01 X-26.3800 Y5.5096
G01 X-26.2981 Y5.5135
G01 X-26.2913 Y5.5142
G01 X-26.2136 Y5.5257
G01 X-26.2068 Y5.5271
G01 X-26.1306 Y5.5462
G01 X-26.1241 Y5.5482
G01 X-26.0501 Y5.5746
G01 X-26.0438 Y5.5772
G01 X-25.9728 Y5.6108
G01 X-25.9667 Y5.6141
G01 X-25.8993 Y5.6545
G01 X-25.8936 Y5.6583
G01 X-25.8305 Y5.7051
G01 X-25.8252 Y5.7094
G01 X-25.7670 Y5.7622
G01 X-23.4795 Y8.0496
G01 X-3.9652 Y8.0496
G01 X-3.9403 Y8.0407
G01 X-3.9338 Y8.0387
G01 X-3.8528 Y8.0184
G01 X-3.8461 Y8.0171
G01 X-3.7636 Y8.0049
G01 X-3.7567 Y8.0042
G01 X-3.6700 Y8.0000
G01 X-3.3666 Y8.0001
G01 X-3.2833 Y8.0042
G01 X-3.2764 Y8.0049
G01 X-3.1939 Y8.0171
G01 X-3.1872 Y8.0184
G01 X-3.1062 Y8.0387
G01 X-3.0997 Y8.0407
G01 X-3.0211 Y8.0688
G01 X-3.0148 Y8.0714
G01 X-2.9394 Y8.1071
G01 X-2.9333 Y8.1103
G01 X-2.8618 Y8.1532
G01 X-2.8561 Y8.1570
G01 X-2.7891 Y8.2067
G01 X-2.7838 Y8.2111
G01 X-2.7220 Y8.2671
G01 X-2.7171 Y8.2720
G01 X-2.6611 Y8.3338
G01 X-2.6567 Y8.3391
G01 X-2.6070 Y8.4061
G01 X-2.6032 Y8.4118
G01 X-2.5603 Y8.4833
G01 X-2.5571 Y8.4894
G01 X-2.5214 Y8.5648
G01 X-2.5188 Y8.5711
G01 X-2.4907 Y8.6497
G00 Z1.5000
G00 X-3.3700 Y12.8560
G01 F100.00
G01 Z-0.0746
G01 F600.00
G01 X-3.3556 Y12.8564
G01 X-3.2723 Y12.8604
G01 X-3.2435 Y12.8633
G01 X-3.1610 Y12.8755
G01 X-3.1327 Y12.8811
G01 X-3.0518 Y12.9014
G01 X-3.0242 Y12.9098
G01 X-2.9457 Y12.9379
G01 X-2.9190 Y12.9489
G01 X-2.8436 Y12.9846
G01 X-2.8182 Y12.9982
G01 X-2.7466 Y13.0411
G01 X-2.7226 Y13.0571
G01 X-2.6556 Y13.1068
G01 X-2.6333 Y13.1251
G01 X-2.5715 Y13.1811
G01 X-2.5511 Y13.2015
G01 X-2.4951 Y13.2633
G01 X-2.4768 Y13.2856
G01 X-2.4271 Y13.3526
G01 X-2.4111 Y13.3766
G01 X-2.3682 Y13.4482
G01 X-2.3546 Y13.4736
G01 X-2.3189 Y13.5490
G01 X-2.3079 Y13.5757
G01 X-2.2798 Y13.6542
G01 X-2.2714 Y13.6818
G01 X-2.2511 Y13.7627
G01 X-2.2455 Y13.7910
G01 X-2.2333 Y13.8735
G01 X-2.2304 Y13.9023
G01 X-2.2264 Y13.9856
G01 X-2.2264 Y14.0144
G01 X-2.2304 Y14.0977
G01 X-2.2333 Y14.1265
G01 X-2.2455 Y14.2090
G01 X-2.2511 Y14.2373
G01 X-2.2714 Y14.3182
G01 X-2.2798 Y14.3458
G01 X-2.3079 Y14.4243
G01 X-2.3189 Y14.4510
G01 X-2.3546 Y14.5264
G01 X-2.3682 Y14.5518
G01 X-2.4111 Y14.6234
G01 X-2.4271 Y14.6474
G01 X-2.4768 Y14.7144
G01 X-2.4951 Y14.7367
G01 X-2.5511 Y14.7985
G01 X-2.5715 Y14.8189
G01 X-2.6333 Y14.8749
G01 X-2.6556 Y14.8932
G01 X-2.7226 Y14.9429
G01 X-2.7466 Y14.9589
G01 X-2.8182 Y15.0018
G01 X-2.8436 Y15.0154
G01 X-2.9190 Y15.0511
G01 X-2.9457 Y15.0621
G01 X-3.0242 Y15.0902
G01 X-3.0518 Y15.0986
G01 X-3.1327 Y15.1189
G01 X-3.1610 Y15.1245
G01 X-3.2435 Y15.1367
G01 X-3.2723 Y15.1396
G01 X-3.3556 Y15.1436
G01 X-3.3700 Y15.1440
G01 X-3.6700 Y15.1440
G01 X-3.6844 Y15.1436
G01 X-3.7677 Y15.1396
G01 X-3.7965 Y15.1367
G01 X-3.8790 Y15.1245
G01 X-3.9073 Y15.1189
G01 X-3.9882 Y15.0986
G01 X-4.0158 Y15.0902
G01 X-4.0943 Y15.0621
G01 X-4.1210 Y15.0511
G01 X-4.1964 Y15.0154
G01 X-4.2218 Y15.0018
G01 X-4.2934 Y14.9589
G01 X-4.3174 Y14.9429
G01 X-4.3844 Y14.8932
G01 X-4.4067 Y14.8749
G01 X-4.4685 Y14.8189
G01 X-4.4889 Y14.7985
G01 X-4.5449 Y14.7367
G01 X-4.5632 Y14.7144
G01 X-4.6129 Y14.6474
G01 X-4.6289 Y14.6234
G01 X-4.6718 Y14.5518
G01 X-4.6854 Y14.5264
G01 X-4.7211 Y14.4510
G01 X-4.7321 Y14.4243
G01 X-4.7602 Y14.3458
G01 X-4.7686 Y14.3182
G01 X-4.7889 Y14.2373
G01 X-4.7945 Y14.2090
G01 X-4.8067 Y14.1265
G01 X-4.8096 Y14.0977
G01 X-4.8136 Y14.0144
G01 X-4.8136 Y13.9856
G01 X-4.8096 Y13.9023
G01 X-4.8067 Y13.8735
G01 X-4.7945 Y13.7910
G01 X-4.7889 Y13.7627
G01 X-4.7686 Y13.6818
G01 X-4.7602 Y13.6542
G01 X-4.7321 Y13.5757
G01 X-4.7211 Y13.5490
G01 X-4.6854 Y13.4736
G01 X-4.6718 Y13.4482
G01 X-4.6289 Y13.3766
G01 X-4.6129 Y13.3526
G01 X-4.5632 Y13.2856
G01 X-4.5449 Y13.2633
G01 X-4.4889 Y13.2015
G01 X-4.4685 Y13.1811
G01 X-4.4067 Y13.1251
G01 X-4.3844 Y13.1068
G01 X-4.3174 Y13.0571
G01 X-4.2934 Y13.0411
G01 X-4.2218 Y12.9982
G01 X-4.1964 Y12.9846
G01 X-4.1210 Y12.9489
G01 X-4.0943 Y12.9379
G01 X-4.0158 Y12.9098
G01 X-3.9882 Y12.9014
G01 X-3.9073 Y12.8811
G01 X-3.8790 Y12.8755
G01 X-3.7965 Y12.8633
G01 X-3.7677 Y12.8604
G01 X-3.6844 Y12.8564
G01 X-3.6700 Y12.8560
G01 X-3.3700 Y12.8560
G00 Z1.5000
G00 X-3.3700 Y12.9680
G01 F100.00
G01 Z-0.0746
G01 F600.00
G01 X-3.2778 Y12.9723
G01 X-3.2600 Y12.9741
G01 X-3.1775 Y12.9863
G01 X-3.1600 Y12.9898
G01 X-3.0790 Y13.0101
G01 X-3.0619 Y13.0152
G01 X-2.9834 Y13.0433
G01 X-2.9669 Y13.0502
G01 X-2.8915 Y13.0858
G01 X-2.8757 Y13.0943
G01 X-2.8042 Y13.1371
G01 X-2.7893 Y13.1471
G01 X-2.7223 Y13.1968
G01 X-2.7085 Y13.2081
G01 X-2.6467 Y13.2641
G01 X-2.6341 Y13.2767
G01 X-2.5781 Y13.3385
G01 X-2.5668 Y13.3523
G01 X-2.5171 Y13.4193
G01 X-2.5071 Y13.4342
G01 X-2.4643 Y13.5057
G01 X-2.4558 Y13.5215
G01 X-2.4202 Y13.5969
G01 X-2.4133 Y13.6134
G01 X-2.3852 Y13.6919
G01 X-2.3801 Y13.7090
G01 X-2.3598 Y13.7900
G01 X-2.3563 Y13.8075
G01 X-2.3441 Y13.8900
G01 X-2.3423 Y13.9078
G01 X-2.3382 Y13.9911
G01 X-2.3382 Y14.0089
G01 X-2.3423 Y14.0922
G01 X-2.3441 Y14.1100
G01 X-2.3563 Y14.1925
G01 X-2.3598 Y14.2100
G01 X-2.3801 Y14.2910
G01 X-2.3852 Y14.3081
G01 X-2.4133 Y14.3866
G01 X-2.4202 Y14.4031
G01 X-2.4558 Y14.4785
G01 X-2.4643 Y14.4943
G01 X-2.5071 Y14.5658
G01 X-2.5171 Y14.5807
G01 X-2.5668 Y14.6477
G01 X-2.5781 Y14.6615
G01 X-2.6341 Y14.7233
G01 X-2.6467 Y14.7359
G01 X-2.7085 Y14.7919
G01 X-2.7223 Y14.8032
G01 X-2.7893 Y14.8529
G01 X-2.8042 Y14.8629
G01 X-2.8757 Y14.9057
G01 X-2.8915 Y14.9142
G01 X-2.9669 Y14.9498
G01 X-2.9834 Y14.9567
G01 X-3.0619 Y14.9848
G01 X-3.0790 Y14.9899
G01 X-3.1600 Y15.0102
G01 X-3.1775 Y15.0137
G01 X-3.2600 Y15.0259
G01 X-3.2778 Y15.0277
G01 X-3.3611 Y15.0318
G01 X-3.6700 Y15.0320
G01 X-3.7622 Y15.0277
G01 X-3.7800 Y15.0259
G01 X-3.8625 Y15.0137
G01 X-3.8800 Y15.0102
G01 X-3.9610 Y14.9899
G01 X-3.9781 Y14.9848
G01 X-4.0566 Y14.9567
G01 X-4.0731 Y14.9498
G01 X-4.1485 Y14.9142
G01 X-4.1643 Y14.9057
G01 X-4.2358 Y14.8629
G01 X-4.2507 Y14.8529
G01 X-4.3177 Y14.8032
G01 X-4.3315 Y14.7919
G01 X-4.3933 Y14.7359
G01 X-4.4059 Y14.7233
G01 X-4.4619 Y14.6615
G01 X-4.4732 Y14.6477
G01 X-4.5229 Y14.5807
G01 X-4.5329 Y14.5658
G01 X-4.5757 Y14.4943
G01 X-4.5842 Y14.4785
G01 X-4.6198 Y14.4031
G01 X-4.6267 Y14.3866
G01 X-4.6548 Y14.3081
G01 X-4.6599 Y14.2910
G01 X-4.6802 Y14.2100
G01 X-4.6837 Y14.1925
G01 X-4.6959 Y14.1100
G01 X-4.6977 Y14.0922
G01 X-4.7018 Y14.0089
G01 X-4.7018 Y13.9911
G01 X-4.6977 Y13.9078
G01 X-4.6959 Y13.8900
G01 X-4.6837 Y13.8075
G01 X-4.6802 Y13.7900
G01 X-4.6599 Y13.7090
G01 X-4.6548 Y13.6919
G01 X-4.6267 Y13.6134
G01 X-4.6198 Y13.5969
G01 X-4.5842 Y13.5215
G01 X-4.5757 Y13.5057
G01 X-4.5329 Y13.4342
G01 X-4.5229 Y13.4193
G01 X-4.4732 Y13.3523
G01 X-4.4619 Y13.3385
G01 X-4.4059 Y13.2767
G01 X-4.3933 Y13.2641
G01 X-4.3315 Y13.2081
G01 X-4.3177 Y13.1968
G01 X-4.2507 Y13.1471
G01 X-4.2358 Y13.1371
G01 X-4.1643 Y13.0943
G01 X-4.1485 Y13.0858
G01 X-4.0731 Y13.0502
G01 X-4.0566 Y13.0433
G01 X-3.9781 Y13.0152
G01 X-3.9610 Y13.0101
G01 X-3.8800 Y12.9898
G01 X-3.8625 Y12.9863
G01 X-3.7800 Y12.9741
G01 X-3.7622 Y12.9723
G01 X-3.6789 Y12.9682
G01 X-3.3700 Y12.9680
G00 Z1.5000
G00 X-3.3700 Y13.0800
G01 F100.00
G01 Z-0.0746
G01 F600.00
G01 X-3.2833 Y13.0842
G01 X-3.2764 Y13.0849
G01 X-3.1939 Y13.0971
G01 X-3.1872 Y13.0984
G01 X-3.1062 Y13.1187
G01 X-3.0997 Y13.1207
G01 X-3.0211 Y13.1488
G01 X-3.0148 Y13.1514
G01 X-2.9394 Y13.1871
G01 X-2.9333 Y13.1903
G01 X-2.8618 Y13.2332
G01 X-2.8561 Y13.2370
G01 X-2.7891 Y13.2867
G01 X-2.7838 Y13.2911
G01 X-2.7220 Y13.3471
G01 X-2.7171 Y13.3520
G01 X-2.6611 Y13.4138
G01 X-2.6567 Y13.4191
G01 X-2.6070 Y13.4861
G01 X-2.6032 Y13.4918
G01 X-2.5603 Y13.5633
G01 X-2.5571 Y13.5694
G01 X-2.5214 Y13.6448
G01 X-2.5188 Y13.6511
G01 X-2.4907 Y13.7297
G01 X-2.4887 Y13.7362
G01 X-2.4684 Y13.8172
G01 X-2.4671 Y13.8239
G01 X-2.4549 Y13.9064
G01 X-2.4542 Y13.9133
G01 X-2.4501 Y13.9966
G01 X-2.4501 Y14.0034
G01 X-2.4542 Y14.0867
G01 X-2.4549 Y14.0936
G01 X-2.4671 Y14.1761
G01 X-2.4684 Y14.1828
G01 X-2.4887 Y14.2638
G01 X-2.4907 Y14.2703
G01 X-2.5188 Y14.3489
G01 X-2.5214 Y14.3552
G01 X-2.5571 Y14.4306
G01 X-2.5603 Y14.4367
G01 X-2.6032 Y14.5082
G01 X-2.6070 Y14.5139
G01 X-2.6567 Y14.5809
G01 X-2.6611 Y14.5862
G01 X-2.7171 Y14.6480
G01 X-2.7220 Y14.6529
G01 X-2.7838 Y14.7089
G01 X-2.7891 Y14.7133
G01 X-2.8561 Y14.7630
G01 X-2.8618 Y14.7668
G01 X-2.9333 Y14.8097
G01 X-2.9394 Y14.8129
G01 X-3.0148 Y14.8486
G01 X-3.0211 Y14.8512
G01 X-3.0997 Y14.8793
G01 X-3.1062 Y14.8813
G01 X-3.1872 Y14.9016
G01 X-3.1939 Y14.9029
G01 X-3.2764 Y14.9151
G01 X-3.2833 Y14.9158
G01 X-3.3666 Y14.9199
G01 X-3.6700 Y14.9200
G01 X-3.7567 Y14.9158
G01 X-3.7636 Y14.9151
G01 X-3.8461 Y14.9029
G01 X-3.8528 Y14.9016
G01 X-3.9338 Y14.8813
G01 X-3.9403 Y14.8793
G01 X-4.0189 Y14.8512
G01 X-4.0252 Y14.8486
G01 X-4.1006 Y14.8129
G01 X-4.1067 Y14.8097
G01 X-4.1782 Y14.7668
G01 X-4.1839 Y14.7630
G01 X-4.2509 Y14.7133
G01 X-4.2562 Y14.7089
G01 X-4.3180 Y14.6529
G01 X-4.3229 Y14.6480
G01 X-4.3789 Y14.5862
G01 X-4.3833 Y14.5809
G01 X-4.4330 Y14.5139
G01 X-4.4368 Y14.5082
G01 X-4.4797 Y14.4367
G01 X-4.4829 Y14.4306
G01 X-4.5186 Y14.3552
G01 X-4.5212 Y14.3489
G01 X-4.5493 Y14.2703
G01 X-4.5513 Y14.2638
G01 X-4.5716 Y14.1828
G01 X-4.5729 Y14.1761
G01 X-4.5851 Y14.0936
G01 X-4.5858 Y14.0867
G01 X-4.5899 Y14.0034
G01 X-4.5899 Y13.9966
G01 X-4.5858 Y13.9133
G01 X-4.5851 Y13.9064
G01 X-4.5729 Y13.8239
G01 X-4.5716 Y13.8172
G01 X-4.5513 Y13.7362
G01 X-4.5493 Y13.7297
G01 X-4.5212 Y13.6511
G01 X-4.5186 Y13.6448
G01 X-4.4829 Y13.5694
G01 X-4.4797 Y13.5633
G01 X-4.4368 Y13.4918
G01 X-4.4330 Y13.4861
G01 X-4.3833 Y13.4191
G01 X-4.3789 Y13.4138
G01 X-4.3229 Y13.3520
G01 X-4.3180 Y13.3471
G01 X-4.2562 Y13.2911
G01 X-4.2509 Y13.2867
G01 X-4.1839 Y13.2370
G01 X-4.1782 Y13.2332
G01 X-4.1067 Y13.1903
G01 X-4.1006 Y13.1871
G01 X-4.0252 Y13.1514
G01 X-4.0189 Y13.1488
G01 X-3.9403 Y13.1207
G01 X-3.9338 Y13.1187
G01 X-3.8528 Y13.0984
G01 X-3.8461 Y13.0971
G01 X-3.7636 Y13.0849
G01 X-3.7567 Y13.0842
G01 X-3.6734 Y13.0801
G01 X-3.3700 Y13.0800
G00 Z1.5000
G00 X-3.3700 Y15.3960
G01 F100.00
G01 Z-0.0746
G01 F600.00
G01 X-3.3556 Y15.3964
G01 X-3.2723 Y15.4004
G01 X-3.2435 Y15.4033
G01 X-3.1610 Y15.4155
G01 X-3.1327 Y15.4211
G01 X-3.0518 Y15.4414
G01 X-3.0242 Y15.4498
G01 X-2.9457 Y15.4779
G01 X-2.9190 Y15.4889
G01 X-2.8436 Y15.5246
G01 X-2.8182 Y15.5382
G01 X-2.7466 Y15.5811
G01 X-2.7226 Y15.5971
G01 X-2.6556 Y15.6468
G01 X-2.6333 Y15.6651
G01 X-2.5715 Y15.7211
G01 X-2.5511 Y15.7415
G01 X-2.4951 Y15.8033
G01 X-2.4768 Y15.8256
G01 X-2.4271 Y15.8926
G01 X-2.4111 Y15.9166
G01 X-2.3682 Y15.9882
G01 X-2.3546 Y16.0136
G01 X-2.3189 Y16.0890
G01 X-2.3079 Y16.1157
G01 X-2.2798 Y16.1942
G01 X-2.2714 Y16.2218
G01 X-2.2511 Y16.3027
G01 X-2.2455 Y16.3310
G01 X-2.2333 Y16.4135
G01 X-2.2304 Y16.4423
G01 X-2.2264 Y16.5256
G01 X-2.2264 Y16.5544
G01 X-2.2304 Y16.6377
G01 X-2.2333 Y16.6665
G01 X-2.2455 Y16.7490
G01 X-2.2511 Y16.7773
G01 X-2.2714 Y16.8582
G01 X-2.2798 Y16.8858
G01 X-2.3079 Y16.9643
G01 X-2.3189 Y16.9910
G01 X-2.3546 Y17.0664
G01 X-2.3682 Y17.0918
G01 X-2.4111 Y17.1634
G01 X-2.4271 Y17.1874
G01 X-2.4768 Y17.2544
G01 X-2.4951 Y17.2767
G01 X-2.5511 Y17.3385
G01 X-2.5715 Y17.3589
G01 X-2.6333 Y17.4149
G01 X-2.6556 Y17.4332
G01 X-2.7226 Y17.4829
G01 X-2.7466 Y17.4989
G01 X-2.8182 Y17.5418
G01 X-2.8436 Y17.5554
G01 X-2.9190 Y17.5911
G01 X-2.9457 Y17.6021
G01 X-3.0242 Y17.6302
G01 X-3.0518 Y17.6386
G01 X-3.1327 Y17.6589
G01 X-3.1610 Y17.6645
G01 X-3.2435 Y17.6767
G01 X-3.2723 Y17.6796
G01 X-3.3556 Y17.6836
G01 X-3.3700 Y17.6840
G01 X-3.6700 Y17.6840
G01 X-3.6844 Y17.6836
G01 X-3.7677 Y17.6796
G01 X-3.7965 Y17.6767
G01 X-3.8790 Y17.6645
G01 X-3.9073 Y17.6589
G01 X-3.9882 Y17.6386
G01 X-4.0158 Y17.6302
G01 X-4.0943 Y17.6021
G01 X-4.1210 Y17.5911
G01 X-4.1964 Y17.5554
G01 X-4.2218 Y17.5418
G01 X-4.2934 Y17.4989
G01 X-4.3174 Y17.4829
G01 X-4.3844 Y17.4332
G01 X-4.4067 Y17.4149
G01 X-4.4685 Y17.3589
G01 X-4.4889 Y17.3385
G01 X-4.5449 Y17.2767
G01 X-4.5632 Y17.2544
G01 X-4.6129 Y17.1874
G01 X-4.6289 Y17.1634
G01 X-4.6718 Y17.0918
G01 X-4.6854 Y17.0664
G01 X-4.7211 Y16.9910
G01 X-4.7321 Y16.9643
G01 X-4.7602 Y16.8858
G01 X-4.7686 Y16.8582
G01 X-4.7889 Y16.7773
G01 X-4.7945 Y16.7490
G01 X-4.8067 Y16.6665
G01 X-4.8096 Y16.6377
G01 X-4.8136 Y16.5544
G01 X-4.8136 Y16.5256
G01 X-4.8096 Y16.4423
G01 X-4.8067 Y16.4135
G01 X-4.7945 Y16.3310
G01 X-4.7889 Y16.3027
G01 X-4.7686 Y16.2218
G01 X-4.7602 Y16.1942
G01 X-4.7321 Y16.1157
G01 X-4.7211 Y16.0890
G01 X-4.6854 Y16.0136
G01 X-4.6718 Y15.9882
G01 X-4.6289 Y15.9166
G01 X-4.6129 Y15.8926
G01 X-4.5632 Y15.8256
G01 X-4.5449 Y15.8033
G01 X-4.4889 Y15.7415
G01 X-4.4685 Y15.7211
G01 X-4.4067 Y15.6651
G01 X-4.3844 Y15.6468
G01 X-4.3174 Y15.5971
G01 X-4.2934 Y15.5811
G01 X-4.2218 Y15.5382
G01 X-4.1964 Y15.5246
G01 X-4.1210 Y15.4889
G01 X-4.0943 Y15.4779
G01 X-4.0158 Y15.4498
G01 X-3.9882 Y15.4414
G01 X-3.9073 Y15.4211
G01 X-3.8790 Y15.4155
G01 X-3.7965 Y15.4033
G01 X-3.7677 Y15.4004
G01 X-3.6844 Y15.3964
G01 X-3.6700 Y15.3960
G01 X-3.3700 Y15.3960
G00 Z1.5000
G00 X-3.3700 Y15.5080
G01 F100.00
G01 Z-0.0746
G01 F600.00
G01 X-3.2778 Y15.5123
G01 X-3.2600 Y15.5141
G01 X-3.1775 Y15.5263
G01 X-3.1600 Y15.5298
G01 X-3.0790 Y15.5501
G01 X-3.0619 Y15.5552
G01 X-2.9834 Y15.5833
G01 X-2.9669 Y15.5902
G01 X-2.8915 Y15.6258
G01 X-2.8757 Y15.6343
G01 X-2.8042 Y15.6771
G01 X-2.7893 Y15.6871
G01 X-2.7223 Y15.7368
G01 X-2.7085 Y15.7481
G01 X-2.6467 Y15.8041
G01 X-2.6341 Y15.8167
G01 X-2.5781 Y15.8785
G01 X-2.5668 Y15.8923
G01 X-2.5171 Y15.9593
G01 X-2.5071 Y15.9742
G01 X-2.4643 Y16.0457
G01 X-2.4558 Y16.0615
G01 X-2.4202 Y16.1369
G01 X-2.4133 Y16.1534
G01 X-2.3852 Y16.2319
G01 X-2.3801 Y16.2490
G01 X-2.3598 Y16.3300
G01 X-2.3563 Y16.3475
G01 X-2.3441 Y16.4300
G01 X-2.3423 Y16.4478
G01 X-2.3382 Y16.5311
G01 X-2.3382 Y16.5489
G01 X-2.3423 Y16.6322
G01 X-2.3441 Y16.6500
G01 X-2.3563 Y16.7325
G01 X-2.3598 Y16.7500
G01 X-2.3801 Y16.8310
G01 X-2.3852 Y16.8481
G01 X-2.4133 Y16.9266
G01 X-2.4202 Y16.9431
G01 X-2.4558 Y17.0185
G01 X-2.4643 Y17.0343
G01 X-2.5071 Y17.1058
G01 X-2.5171 Y17.1207
G01 X-2.5668 Y17.1877
G01 X-2.5781 Y17.2015
G01 X-2.6341 Y17.2633
G01 X-2.6467 Y17.2759
G01 X-2.7085 Y17.3319
G01 X-2.7223 Y17.3432
G01 X-2.7893 Y17.3929
G01 X-2.8042 Y17.4029
G01 X-2.8757 Y17.4457
G01 X-2.8915 Y17.4542
G01 X-2.9669 Y17.4898
G01 X-2.9834 Y17.4967
G01 X-3.0619 Y17.5248
G01 X-3.0790 Y17.5299
G01 X-3.1600 Y17.5502
G01 X-3.1775 Y17.5537
G01 X-3.2600 Y17.5659
G01 X-3.2778 Y17.5677
G01 X-3.3611 Y17.5718
G01 X-3.6700 Y17.5720
G01 X-3.7622 Y17.5677
G01 X-3.7800 Y17.5659
G01 X-3.8625 Y17.5537
G01 X-3.8800 Y17.5502
G01 X-3.9610 Y17.5299
G01 X-3.9781 Y17.5248
G01 X-4.0566 Y17.4967
G01 X-4.0731 Y17.4898
G01 X-4.1485 Y17.4542
G01 X-4.1643 Y17.4457
G01 X-4.2358 Y17.4029
G01 X-4.2507 Y17.3929
G01 X-4.3177 Y17.3432
G01 X-4.3315 Y17.3319
G01 X-4.3933 Y17.2759
G01 X-4.4059 Y17.2633
G01 X-4.4619 Y17.2015
G01 X-4.4732 Y17.1877
G01 X-4.5229 Y17.1207
G01 X-4.5329 Y17.1058
G01 X-4.5757 Y17.0343
G01 X-4.5842 Y17.0185
G01 X-4.6198 Y16.9431
G01 X-4.6267 Y16.9266
G01 X-4.6548 Y16.8481
G01 X-4.6599 Y16.8310
G01 X-4.6802 Y16.7500
G01 X-4.6837 Y16.7325
G01 X-4.6959 Y16.6500
G01 X-4.6977 Y16.6322
G01 X-4.7018 Y16.5489
G01 X-4.7018 Y16.5311
G01 X-4.6977 Y16.4478
G01 X-4.6959 Y16.4300
G01 X-4.6837 Y16.3475
G01 X-4.6802 Y16.3300
G01 X-4.6599 Y16.2490
G01 X-4.6548 Y16.2319
G01 X-4.6267 Y16.1534
G01 X-4.6198 Y16.1369
G01 X-4.5842 Y16.0615
G01 X-4.5757 Y16.0457
G01 X-4.5329 Y15.9742
G01 X-4.5229 Y15.9593
G01 X-4.4732 Y15.8923
G01 X-4.4619 Y15.8785
G01 X-4.4059 Y15.8167
G01 X-4.3933 Y15.8041
G01 X-4.3315 Y15.7481
G01 X-4.3177 Y15.7368
G01 X-4.2507 Y15.6871
G01 X-4.2358 Y15.6771
G01 X-4.1643 Y15.6343
G01 X-4.1485 Y15.6258
G01 X-4.0731 Y15.5902
G01 X-4.0566 Y15.5833
G01 X-3.9781 Y15.5552
G01 X-3.9610 Y15.5501
G01 X-3.8800 Y15.5298
G01 X-3.8625 Y15.5263
G01 X-3.7800 Y15.5141
G01 X-3.7622 Y15.5123
G01 X-3.6789 Y15.5082
G01 X-3.3700 Y15.5080
G00 Z1.5000
G00 X-3.3700 Y15.6200
G01 F100.00
G01 Z-0.0746
G01 F600.00
G01 X-3.2833 Y15.6242
G01 X-3.2764 Y15.6249
G01 X-3.1939 Y15.6371
G01 X-3.1872 Y15.6384
G01 X-3.1062 Y15.6587
G01 X-3.0997 Y15.6607
G01 X-3.0211 Y15.6888
G01 X-3.0148 Y15.6914
G01 X-2.9394 Y15.7271
G01 X-2.9333 Y15.7303
G01 X-2.8618 Y15.7732
G01 X-2.8561 Y15.7770
G01 X-2.7891 Y15.8267
G01 X-2.7838 Y15.8311
G01 X-2.7220 Y15.8871
G01 X-2.7171 Y15.8920
G01 X-2.6611 Y15.9538
G01 X-2.6567 Y15.9591
G01 X-2.6070 Y16.0261
G01 X-2.6032 Y16.0318
G01 X-2.5603 Y16.1033
G01 X-2.5571 Y16.1094
G01 X-2.5214 Y16.1848
G01 X-2.5188 Y16.1911
G01 X-2.4907 Y16.2697
G01 X-2.4887 Y16.2762
G01 X-2.4684 Y16.3572
G01 X-2.4671 Y16.3639
G01 X-2.4549 Y16.4464
G01 X-2.4542 Y16.4533
G01 X-2.4501 Y16.5366
G01 X-2.4501 Y16.5434
G01 X-2.4542 Y16.6267
G01 X-2.4549 Y16.6336
G01 X-2.4671 Y16.7161
G01 X-2.4684 Y16.7228
G01 X-2.4887 Y16.8038
G01 X-2.4907 Y16.8103
G01 X-2.5188 Y16.8889
G01 X-2.5214 Y16.8952
G01 X-2.5571 Y16.9706
G01 X-2.5603 Y16.9767
G01 X-2.6032 Y17.0482
G01 X-2.6070 Y17.0539
G01 X-2.6567 Y17.1209
G01 X-2.6611 Y17.1262
G01 X-2.7171 Y17.1880
G01 X-2.7220 Y17.1929
G01 X-2.7838 Y17.2489
G01 X-2.7891 Y17.2533
G01 X-2.8561 Y17.3030
G01 X-2.8618 Y17.3068
G01 X-2.9333 Y17.3497
G01 X-2.9394 Y17.3529
G01 X-3.0148 Y17.3886
G01 X-3.0211 Y17.3912
G01 X-3.0997 Y17.4193
G01 X-3.1062 Y17.4213
G01 X-3.1872 Y17.4416
G01 X-3.1939 Y17.4429
G01 X-3.2764 Y17.4551
G01 X-3.2833 Y17.4558
G01 X-3.3666 Y17.4599
G01 X-3.6700 Y17.4600
G01 X-3.7567 Y17.4558
G01 X-3.7636 Y17.4551
G01 X-3.8461 Y17.4429
G01 X-3.8528 Y17.4416
G01 X-3.9338 Y17.4213
G01 X-3.9403 Y17.4193
G01 X-4.0189 Y17.3912
G01 X-4.0252 Y17.3886
G01 X-4.1006 Y17.3529
G01 X-4.1067 Y17.3497
G01 X-4.1782 Y17.3068
G01 X-4.1839 Y17.3030
G01 X-4.2509 Y17.2533
G01 X-4.2562 Y17.2489
G01 X-4.3180 Y17.1929
G01 X-4.3229 Y17.1880
G01 X-4.3789 Y17.1262
G01 X-4.3833 Y17.1209
G01 X-4.4330 Y17.0539
G01 X-4.4368 Y17.0482
G01 X-4.4797 Y16.9767
G01 X-4.4829 Y16.9706
G01 X-4.5186 Y16.8952
G01 X-4.5212 Y16.8889
G01 X-4.5493 Y16.8103
G01 X-4.5513 Y16.8038
G01 X-4.5716 Y16.7228
G01 X-4.5729 Y16.7161
G01 X-4.5851 Y16.6336
G01 X-4.5858 Y16.6267
G01 X-4.5899 Y16.5434
G01 X-4.5899 Y16.5366
G01 X-4.5858 Y16.4533
G01 X-4.5851 Y16.4464
G01 X-4.5729 Y16.3639
G01 X-4.5716 Y16.3572
G01 X-4.5513 Y16.2762
G01 X-4.5493 Y16.2697
G01 X-4.5212 Y16.1911
G01 X-4.5186 Y16.1848
G01 X-4.4829 Y16.1094
G01 X-4.4797 Y16.1033
G01 X-4.4368 Y16.0318
G01 X-4.4330 Y16.0261
G01 X-4.3833 Y15.9591
G01 X-4.3789 Y15.9538
G01 X-4.3229 Y15.8920
G01 X-4.3180 Y15.8871
G01 X-4.2562 Y15.8311
G01 X-4.2509 Y15.8267
G01 X-4.1839 Y15.7770
G01 X-4.1782 Y15.7732
G01 X-4.1067 Y15.7303
G01 X-4.1006 Y15.7271
G01 X-4.0252 Y15.6914
G01 X-4.0189 Y15.6888
G01 X-3.9403 Y15.6607
G01 X-3.9338 Y15.6587
G01 X-3.8528 Y15.6384
G01 X-3.8461 Y15.6371
G01 X-3.7636 Y15.6249
G01 X-3.7567 Y15.6242
G01 X-3.6734 Y15.6201
G01 X-3.3700 Y15.6200
G00 Z1.5000
G00 X-3.3700 Y17.9360
G01 F100.00
G01 Z-0.0746
G01 F600.00
G01 X-3.3556 Y17.9364
G01 X-3.2723 Y17.9404
G01 X-3.2435 Y17.9433
G01 X-3.1610 Y17.9555
G01 X-3.1327 Y17.9611
G01 X-3.0518 Y17.9814
G01 X-3.0242 Y17.9898
G01 X-2.9457 Y18.0179
G01 X-2.9190 Y18.0289
G01 X-2.8436 Y18.0646
G01 X-2.8182 Y18.0782
G01 X-2.7466 Y18.1211
G01 X-2.7226 Y18.1371
G01 X-2.6556 Y18.1868
G01 X-2.6333 Y18.2051
G01 X-2.5715 Y18.2611
G01 X-2.5511 Y18.2815
G01 X-2.4951 Y18.3433
G01 X-2.4768 Y18.3656
G01 X-2.4271 Y18.4326
G01 X-2.4111 Y18.4566
G01 X-2.3682 Y18.5282
G01 X-2.3546 Y18.5536
G01 X-2.3189 Y18.6290
G01 X-2.3079 Y18.6557
G01 X-2.2798 Y18.7342
G01 X-2.2714 Y18.7618
G01 X-2.2511 Y18.8427
G01 X-2.2455 Y18.8710
G01 X-2.2333 Y18.9535
G01 X-2.2304 Y18.9823
G01 X-2.2264 Y19.0656
G01 X-2.2264 Y19.0944
G01 X-2.2304 Y19.1777
G01 X-2.2333 Y19.2065
G01 X-2.2455 Y19.2890
G01 X-2.2511 Y19.3173
G01 X-2.2714 Y19.3982
G01 X-2.2798 Y19.4258
G01 X-2.3079 Y19.5043
G01 X-2.3189 Y19.5310
G01 X-2.3546 Y19.6064
G01 X-2.3682 Y19.6318
G01 X-2.4111 Y19.7034
G01 X-2.4271 Y19.7274
G01 X-2.4768 Y19.7944
G01 X-2.4951 Y19.8167
G01 X-2.5511 Y19.8785
G01 X-2.5715 Y19.8989
G01 X-2.6333 Y19.9549
G01 X-2.6556 Y19.9732
G01 X-2.7226 Y20.0229
G01 X-2.7466 Y20.0389
G01 X-2.8182 Y20.0818
G01 X-2.8436 Y20.0954
G01 X-2.9190 Y20.1311
G01 X-2.9457 Y20.1421
G01 X-3.0242 Y20.1702
G01 X-3.0518 Y20.1786
G01 X-3.1327 Y20.1989
G01 X-3.1610 Y20.2045
G01 X-3.2435 Y20.2167
G01 X-3.2723 Y20.2196
G01 X-3.3556 Y20.2236
G01 X-3.3700 Y20.2240
G01 X-3.6700 Y20.2240
G01 X-3.6844 Y20.2236
G01 X-3.7677 Y20.2196
G01 X-3.7965 Y20.2167
G01 X-3.8790 Y20.2045
G01 X-3.9073 Y20.1989
G01 X-3.9882 Y20.1786
G01 X-4.0158 Y20.1702
G01 X-4.0943 Y20.1421
G01 X-4.1210 Y20.1311
G01 X-4.1964 Y20.0954
G01 X-4.2218 Y20.0818
G01 X-4.2934 Y20.0389
G01 X-4.3174 Y20.0229
G01 X-4.3844 Y19.9732
G01 X-4.4067 Y19.9549
G01 X-4.4685 Y19.8989
G01 X-4.4889 Y19.8785
G01 X-4.5449 Y19.8167
G01 X-4.5632 Y19.7944
G01 X-4.6129 Y19.7274
G01 X-4.6289 Y19.7034
G01 X-4.6718 Y19.6318
G01 X-4.6854 Y19.6064
G01 X-4.7211 Y19.5310
G01 X-4.7321 Y19.5043
G01 X-4.7602 Y19.4258
G01 X-4.7686 Y19.3982
G01 X-4.7889 Y19.3173
G01 X-4.7945 Y19.2890
G01 X-4.8067 Y19.2065
G01 X-4.8096 Y19.1777
G01 X-4.8136 Y19.0944
G01 X-4.8136 Y19.0656
G01 X-4.8096 Y18.9823
G01 X-4.8067 Y18.9535
G01 X-4.7945 Y18.8710
G01 X-4.7889 Y18.8427
G01 X-4.7686 Y18.7618
G01 X-4.7602 Y18.7342
G01 X-4.7321 Y18.6557
G01 X-4.7211 Y18.6290
G01 X-4.6854 Y18.5536
G01 X-4.6718 Y18.5282
G01 X-4.6289 Y18.4566
G01 X-4.6129 Y18.4326
G01 X-4.5632 Y18.3656
G01 X-4.5449 Y18.3433
G01 X-4.4889 Y18.2815
G01 X-4.4685 Y18.2611
G01 X-4.4067 Y18.2051
G01 X-4.3844 Y18.1868
G01 X-4.3174 Y18.1371
G01 X-4.2934 Y18.1211
G01 X-4.2218 Y18.0782
G01 X-4.1964 Y18.0646
G01 X-4.1210 Y18.0289
G01 X-4.0943 Y18.0179
G01 X-4.0158 Y17.9898
G01 X-3.9882 Y17.9814
G01 X-3.9073 Y17.9611
G01 X-3.8790 Y17.9555
G01 X-3.7965 Y17.9433
G01 X-3.7677 Y17.9404
G01 X-3.6844 Y17.9364
G01 X-3.6700 Y17.9360
G01 X-3.3700 Y17.9360
G00 Z1.5000
G00 X-3.3700 Y18.0480
G01 F100.00
G01 Z-0.0746
G01 F600.00
G01 X-3.2778 Y18.0523
G01 X-3.2600 Y18.0541
G01 X-3.1775 Y18.0663
G01 X-3.1600 Y18.0698
G01 X-3.0790 Y18.0901
G01 X-3.0619 Y18.0952
G01 X-2.9834 Y18.1233
G01 X-2.9669 Y18.1302
G01 X-2.8915 Y18.1658
G01 X-2.8757 Y18.1743
G01 X-2.8042 Y18.2171
G01 X-2.7893 Y18.2271
G01 X-2.7223 Y18.2768
G01 X-2.7085 Y18.2881
G01 X-2.6467 Y18.3441
G01 X-2.6341 Y18.3567
G01 X-2.5781 Y18.4185
G01 X-2.5668 Y18.4323
G01 X-2.5171 Y18.4993
G01 X-2.5071 Y18.5142
G01 X-2.4643 Y18.5857
G01 X-2.4558 Y18.6015
G01 X-2.4202 Y18.6769
G01 X-2.4133 Y18.6934
G01 X-2.3852 Y18.7719
G01 X-2.3801 Y18.7890
G01 X-2.3598 Y18.8700
G01 X-2.3563 Y18.8875
G01 X-2.3441 Y18.9700
G01 X-2.3423 Y18.9878
G01 X-2.3382 Y19.0711
G01 X-2.3382 Y19.0889
G01 X-2.3423 Y19.1722
G01 X-2.3441 Y19.1900
G01 X-2.3563 Y19.2725
G01 X-2.3598 Y19.2900
G01 X-2.3801 Y19.3710
G01 X-2.3852 Y19.3881
G01 X-2.4133 Y19.4666
G01 X-2.4202 Y19.4831
G01 X-2.4558 Y19.5585
G01 X-2.4643 Y19.5743
G01 X-2.5071 Y19.6458
G01 X-2.5171 Y19.6607
G01 X-2.5668 Y19.7277
G01 X-2.5781 Y19.7415
G01 X-2.6341 Y19.8033
G01 X-2.6467 Y19.8159
G01 X-2.7085 Y19.8719
G01 X-2.7223 Y19.8832
G01 X-2.7893 Y19.9329
G01 X-2.8042 Y19.9429
G01 X-2.8757 Y19.9857
G01 X-2.8915 Y19.9942
G01 X-2.9669 Y20.0298
G01 X-2.9834 Y20.0367
G01 X-3.0619 Y20.0648
G01 X-3.0790 Y20.0699
G01 X-3.1600 Y20.0902
G01 X-3.1775 Y20.0937
G01 X-3.2600 Y20.1059
G01 X-3.2778 Y20.1077
G01 X-3.3611 Y20.1118
G01 X-3.6700 Y20.1120
G01 X-3.7622 Y20.1077
G01 X-3.7800 Y20.1059
G01 X-3.8625 Y20.0937
G01 X-3.8800 Y20.0902
G01 X-3.9610 Y20.0699
G01 X-3.9781 Y20.0648
G01 X-4.0566 Y20.0367
G01 X-4.0731 Y20.0298
G01 X-4.1485 Y19.9942
G01 X-4.1643 Y19.9857
G01 X-4.2358 Y19.9429
G01 X-4.2507 Y19.9329
G01 X-4.3177 Y19.8832
G01 X-4.3315 Y19.8719
G01 X-4.3933 Y19.8159
G01 X-4.4059 Y19.8033
G01 X-4.4619 Y19.7415
G01 X-4.4732 Y19.7277
G01 X-4.5229 Y19.6607
G01 X-4.5329 Y19.6458
G01 X-4.5757 Y19.5743
G01 X-4.5842 Y19.5585
G01 X-4.6198 Y19.4831
G01 X-4.6267 Y19.4666
G01 X-4.6548 Y19.3881
G01 X-4.6599 Y19.3710
G01 X-4.6802 Y19.2900
G01 X-4.6837 Y19.2725
G01 X-4.6959 Y19.1900
G01 X-4.6977 Y19.1722
G01 X-4.7018 Y19.0889
G01 X-4.7018 Y19.0711
G01 X-4.6977 Y18.9878
G01 X-4.6959 Y18.9700
G01 X-4.6837 Y18.8875
G01 X-4.6802 Y18.8700
G01 X-4.6599 Y18.7890
G01 X-4.6548 Y18.7719
G01 X-4.6267 Y18.6934
G01 X-4.6198 Y18.6769
G01 X-4.5842 Y18.6015
G01 X-4.5757 Y18.5857
G01 X-4.5329 Y18.5142
G01 X-4.5229 Y18.4993
G01 X-4.4732 Y18.4323
G01 X-4.4619 Y18.4185
G01 X-4.4059 Y18.3567
G01 X-4.3933 Y18.3441
G01 X-4.3315 Y18.2881
G01 X-4.3177 Y18.2768
G01 X-4.2507 Y18.2271
G01 X-4.2358 Y18.2171
G01 X-4.1643 Y18.1743
G01 X-4.1485 Y18.1658
G01 X-4.0731 Y18.1302
G01 X-4.0566 Y18.1233
G01 X-3.9781 Y18.0952
G01 X-3.9610 Y18.0901
G01 X-3.8800 Y18.0698
G01 X-3.8625 Y18.0663
G01 X-3.7800 Y18.0541
G01 X-3.7622 Y18.0523
G01 X-3.6789 Y18.0482
G01 X-3.3700 Y18.0480
G00 Z1.5000
G00 X-3.3700 Y18.1600
G01 F100.00
G01 Z-0.0746
G01 F600.00
G01 X-3.2833 Y18.1642
G01 X-3.2764 Y18.1649
G01 X-3.1939 Y18.1771
G01 X-3.1872 Y18.1784
G01 X-3.1062 Y18.1987
G01 X-3.0997 Y18.2007
G01 X-3.0211 Y18.2288
G01 X-3.0148 Y18.2314
G01 X-2.9394 Y18.2671
G01 X-2.9333 Y18.2703
G01 X-2.8618 Y18.3132
G01 X-2.8561 Y18.3170
G01 X-2.7891 Y18.3667
G01 X-2.7838 Y18.3711
G01 X-2.7220 Y18.4271
G01 X-2.7171 Y18.4320
G01 X-2.6611 Y18.4938
G01 X-2.6567 Y18.4991
G01 X-2.6070 Y18.5661
G01 X-2.6032 Y18.5718
G01 X-2.5603 Y18.6433
G01 X-2.5571 Y18.6494
G01 X-2.5214 Y18.7248
G01 X-2.5188 Y18.7311
G01 X-2.4907 Y18.8097
G01 X-2.4887 Y18.8162
G01 X-2.4684 Y18.8972
G01 X-2.4671 Y18.9039
G01 X-2.4549 Y18.9864
G01 X-2.4542 Y18.9933
G01 X-2.4501 Y19.0766
G01 X-2.4501 Y19.0834
G01 X-2.4542 Y19.1667
G01 X-2.4549 Y19.1736
G01 X-2.4671 Y19.2561
G01 X-2.4684 Y19.2628
G01 X-2.4887 Y19.3438
G01 X-2.4907 Y19.3503
G01 X-2.5188 Y19.4289
G01 X-2.5214 Y19.4352
G01 X-2.5571 Y19.5106
G01 X-2.5603 Y19.5167
G01 X-2.6032 Y19.5882
G01 X-2.6070 Y19.5939
G01 X-2.6567 Y19.6609
G01 X-2.6611 Y19.6662
G01 X-2.7171 Y19.7280
G01 X-2.7220 Y19.7329
G01 X-2.7838 Y19.7889
G01 X-2.7891 Y19.7933
G01 X-2.8561 Y19.8430
G01 X-2.8618 Y19.8468
G01 X-2.9333 Y19.8897
G01 X-2.9394 Y19.8929
G01 X-3.0148 Y19.9286
G01 X-3.0211 Y19.9312
G01 X-3.0997 Y19.9593
G01 X-3.1062 Y19.9613
G01 X-3.1872 Y19.9816
G01 X-3.1939 Y19.9829
G01 X-3.2764 Y19.9951
G01 X-3.2833 Y19.9958
G01 X-3.3666 Y19.9999
G01 X-3.6700 Y20.0000
G01 X-3.7567 Y19.9958
G01 X-3.7636 Y19.9951
G01 X-3.8461 Y19.9829
G01 X-3.8528 Y19.9816
G01 X-3.9338 Y19.9613
G01 X-3.9403 Y19.9593
G01 X-4.0189 Y19.9312
G01 X-4.0252 Y19.9286
G01 X-4.1006 Y19.8929
G01 X-4.1067 Y19.8897
G01 X-4.1782 Y19.8468
G01 X-4.1839 Y19.8430
G01 X-4.2509 Y19.7933
G01 X-4.2562 Y19.7889
G01 X-4.3180 Y19.7329
G01 X-4.3229 Y19.7280
G01 X-4.3789 Y19.6662
G01 X-4.3833 Y19.6609
G01 X-4.4330 Y19.5939
G01 X-4.4368 Y19.5882
G01 X-4.4797 Y19.5167
G01 X-4.4829 Y19.5106
G01 X-4.5186 Y19.4352
G01 X-4.5212 Y19.4289
G01 X-4.5493 Y19.3503
G01 X-4.5513 Y19.3438
G01 X-4.5716 Y19.2628
G01 X-4.5729 Y19.2561
G01 X-4.5851 Y19.1736
G01 X-4.5858 Y19.1667
G01 X-4.5899 Y19.0834
G01 X-4.5899 Y19.0766
G01 X-4.5858 Y18.9933
G01 X-4.5851 Y18.9864
G01 X-4.5729 Y18.9039
G01 X-4.5716 Y18.8972
G01 X-4.5513 Y18.8162
G01 X-4.5493 Y18.8097
G01 X-4.5212 Y18.7311
G01 X-4.5186 Y18.7248
G01 X-4.4829 Y18.6494
G01 X-4.4797 Y18.6433
G01 X-4.4368 Y18.5718
G01 X-4.4330 Y18.5661
G01 X-4.3833 Y18.4991
G01 X-4.3789 Y18.4938
G01 X-4.3229 Y18.4320
G01 X-4.3180 Y18.4271
G01 X-4.2562 Y18.3711
G01 X-4.2509 Y18.3667
G01 X-4.1839 Y18.3170
G01 X-4.1782 Y18.3132
G01 X-4.1067 Y18.2703
G01 X-4.1006 Y18.2671
G01 X-4.0252 Y18.2314
G01 X-4.0189 Y18.2288
G01 X-3.9403 Y18.2007
G01 X-3.9338 Y18.1987
G01 X-3.8528 Y18.1784
G01 X-3.8461 Y18.1771
G01 X-3.7636 Y18.1649
G01 X-3.7567 Y18.1642
G01 X-3.6734 Y18.1601
G01 X-3.3700 Y18.1600
G00 Z1.5000
G00 X-3.3700 Y20.4760
G01 F100.00
G01 Z-0.0746
G01 F600.00
G01 X-3.3556 Y20.4764
G01 X-3.2723 Y20.4804
G01 X-3.2435 Y20.4833
G01 X-3.1610 Y20.4955
G01 X-3.1327 Y20.5011
G01 X-3.0518 Y20.5214
G01 X-3.0242 Y20.5298
G01 X-2.9457 Y20.5579
G01 X-2.9190 Y20.5689
G01 X-2.8436 Y20.6046
G01 X-2.8182 Y20.6182
G01 X-2.7466 Y20.6611
G01 X-2.7226 Y20.6771
G01 X-2.6556 Y20.7268
G01 X-2.6333 Y20.7451
G01 X-2.5715 Y20.8011
G01 X-2.5511 Y20.8215
G01 X-2.4951 Y20.8833
G01 X-2.4768 Y20.9056
G01 X-2.4271 Y20.9726
G01 X-2.4111 Y20.9966
G01 X-2.3682 Y21.0682
G01 X-2.3546 Y21.0936
G01 X-2.3189 Y21.1690
G01 X-2.3079 Y21.1957
G01 X-2.2798 Y21.2742
G01 X-2.2714 Y21.3018
G01 X-2.2511 Y21.3827
G01 X-2.2455 Y21.4110
G01 X-2.2333 Y21.4935
G01 X-2.2304 Y21.5223
G01 X-2.2264 Y21.6056
G01 X-2.2264 Y21.6344
G01 X-2.2304 Y21.7177
G01 X-2.2333 Y21.7465
G01 X-2.2455 Y21.8290
G01 X-2.2511 Y21.8573
G01 X-2.2714 Y21.9382
G01 X-2.2798 Y21.9658
G01 X-2.3079 Y22.0443
G01 X-2.3189 Y22.0710
G01 X-2.3546 Y22.1464
G01 X-2.3682 Y22.1718
G01 X-2.4111 Y22.2434
G01 X-2.4271 Y22.2674
G01 X-2.4768 Y22.3344
G01 X-2.4951 Y22.3567
G01 X-2.5511 Y22.4185
G01 X-2.5715 Y22.4389
G01 X-2.6333 Y22.4949
G01 X-2.6556 Y22.5132
G01 X-2.7226 Y22.5629
G01 X-2.7466 Y22.5789
G01 X-2.8182 Y22.6218
G01 X-2.8436 Y22.6354
G01 X-2.9190 Y22.6711
G01 X-2.9457 Y22.6821
G01 X-3.0242 Y22.7102
G01 X-3.0518 Y22.7186
G01 X-3.1327 Y22.7389
G01 X-3.1610 Y22.7445
G01 X-3.2435 Y22.7567
G01 X-3.2723 Y22.7596
G01 X-3.3556 Y22.7636
G01 X-3.3700 Y22.7640
G01 X-3.6700 Y22.7640
G01 X-3.6844 Y22.7636
G01 X-3.7677 Y22.7596
G01 X-3.7965 Y22.7567
G01 X-3.8790 Y22.7445
G01 X-3.9073 Y22.7389
G01 X-3.9882 Y22.7186
G01 X-4.0158 Y22.7102
G01 X-4.0943 Y22.6821
G01 X-4.1210 Y22.6711
G01 X-4.1964 Y22.6354
G01 X-4.2218 Y22.6218
G01 X-4.2934 Y22.5789
G01 X-4.3174 Y22.5629
G01 X-4.3844 Y22.5132
G01 X-4.4067 Y22.4949
G01 X-4.4685 Y22.4389
G01 X-4.4889 Y22.4185
G01 X-4.5449 Y22.3567
G01 X-4.5632 Y22.3344
G01 X-4.6129 Y22.2674
G01 X-4.6289 Y22.2434
G01 X-4.6718 Y22.1718
G01 X-4.6854 Y22.1464
G01 X-4.7211 Y22.0710
G01 X-4.7321 Y22.0443
G01 X-4.7602 Y21.9658
G01 X-4.7686 Y21.9382
G01 X-4.7889 Y21.8573
G01 X-4.7945 Y21.8290
G01 X-4.8067 Y21.7465
G01 X-4.8096 Y21.7177
G01 X-4.8136 Y21.6344
G01 X-4.8136 Y21.6056
G01 X-4.8096 Y21.5223
G01 X-4.8067 Y21.4935
G01 X-4.7945 Y21.4110
G01 X-4.7889 Y21.3827
G01 X-4.7686 Y21.3018
G01 X-4.7602 Y21.2742
G01 X-4.7321 Y21.1957
G01 X-4.7211 Y21.1690
G01 X-4.6854 Y21.0936
G01 X-4.6718 Y21.0682
G01 X-4.6289 Y20.9966
G01 X-4.6129 Y20.9726
G01 X-4.5632 Y20.9056
G01 X-4.5449 Y20.8833
G01 X-4.4889 Y20.8215
G01 X-4.4685 Y20.8011
G01 X-4.4067 Y20.7451
G01 X-4.3844 Y20.7268
G01 X-4.3174 Y20.6771
G01 X-4.2934 Y20.6611
G01 X-4.2218 Y20.6182
G01 X-4.1964 Y20.6046
G01 X-4.1210 Y20.5689
G01 X-4.0943 Y20.5579
G01 X-4.0158 Y20.5298
G01 X-3.9882 Y20.5214
G01 X-3.9073 Y20.5011
G01 X-3.8790 Y20.4955
G01 X-3.7965 Y20.4833
G01 X-3.7677 Y20.4804
G01 X-3.6844 Y20.4764
G01 X-3.6700 Y20.4760
G01 X-3.3700 Y20.4760
G00 Z1.5000
G00 X-3.3700 Y20.5880
G01 F100.00
G01 Z-0.0746
G01 F600.00
G01 X-3.2778 Y20.5923
G01 X-3.2600 Y20.5941
G01 X-3.1775 Y20.6063
G01 X-3.1600 Y20.6098
G01 X-3.0790 Y20.6301
G01 X-3.0619 Y20.6352
G01 X-2.9834 Y20.6633
G01 X-2.9669 Y20.6702
G01 X-2.8915 Y20.7058
G01 X-2.8757 Y20.7143
G01 X-2.8042 Y20.7571
G01 X-2.7893 Y20.7671
G01 X-2.7223 Y20.8168
G01 X-2.7085 Y20.8281
G01 X-2.6467 Y20.8841
G01 X-2.6341 Y20.8967
G01 X-2.5781 Y20.9585
G01 X-2.5668 Y20.9723
G01 X-2.5171 Y21.0393
G01 X-2.5071 Y21.0542
G01 X-2.4643 Y21.1257
G01 X-2.4558 Y21.1415
G01 X-2.4202 Y21.2169
G01 X-2.4133 Y21.2334
G01 X-2.3852 Y21.3119
G01 X-2.3801 Y21.3290
G01 X-2.3598 Y21.4100
G01 X-2.3563 Y21.4275
G01 X-2.3441 Y21.5100
G01 X-2.3423 Y21.5278
G01 X-2.3382 Y21.6111
G01 X-2.3382 Y21.6289
G01 X-2.3423 Y21.7122
G01 X-2.3441 Y21.7300
G01 X-2.3563 Y21.8125
G01 X-2.3598 Y21.8300
G01 X-2.3801 Y21.9110
G01 X-2.3852 Y21.9281
G01 X-2.4133 Y22.0066
G01 X-2.4202 Y22.0231
G01 X-2.4558 Y22.0985
G01 X-2.4643 Y22.1143
G01 X-2.5071 Y22.1858
G01 X-2.5171 Y22.2007
G01 X-2.5668 Y22.2677
G01 X-2.5781 Y22.2815
G01 X-2.6341 Y22.3433
G01 X-2.6467 Y22.3559
G01 X-2.7085 Y22.4119
G01 X-2.7223 Y22.4232
G01 X-2.7893 Y22.4729
G01 X-2.8042 Y22.4829
G01 X-2.8757 Y22.5257
G01 X-2.8915 Y22.5342
G01 X-2.9669 Y22.5698
G01 X-2.9834 Y22.5767
G01 X-3.0619 Y22.6048
G01 X-3.0790 Y22.6099
G01 X-3.1600 Y22.6302
G01 X-3.1775 Y22.6337
G01 X-3.2600 Y22.6459
G01 X-3.2778 Y22.6477
G01 X-3.3611 Y22.6518
G01 X-3.6700 Y22.6520
G01 X-3.7622 Y22.6477
G01 X-3.7800 Y22.6459
G01 X-3.8625 Y22.6337
G01 X-3.8800 Y22.6302
G01 X-3.9610 Y22.6099
G01 X-3.9781 Y22.6048
G01 X-4.0566 Y22.5767
G01 X-4.0731 Y22.5698
G01 X-4.1485 Y22.5342
G01 X-4.1643 Y22.5257
G01 X-4.2358 Y22.4829
G01 X-4.2507 Y22.4729
G01 X-4.3177 Y22.4232
G01 X-4.3315 Y22.4119
G01 X-4.3933 Y22.3559
G01 X-4.4059 Y22.3433
G01 X-4.4619 Y22.2815
G01 X-4.4732 Y22.2677
G01 X-4.5229 Y22.2007
G01 X-4.5329 Y22.1858
G01 X-4.5757 Y22.1143
G01 X-4.5842 Y22.0985
G01 X-4.6198 Y22.0231
G01 X-4.6267 Y22.0066
G01 X-4.6548 Y21.9281
G01 X-4.6599 Y21.9110
G01 X-4.6802 Y21.8300
G01 X-4.6837 Y21.8125
G01 X-4.6959 Y21.7300
G01 X-4.6977 Y21.7122
G01 X-4.7018 Y21.6289
G01 X-4.7018 Y21.6111
G01 X-4.6977 Y21.5278
G01 X-4.6959 Y21.5100
G01 X-4.6837 Y21.4275
G01 X-4.6802 Y21.4100
G01 X-4.6599 Y21.3290
G01 X-4.6548 Y21.3119
G01 X-4.6267 Y21.2334
G01 X-4.6198 Y21.2169
G01 X-4.5842 Y21.1415
G01 X-4.5757 Y21.1257
G01 X-4.5329 Y21.0542
G01 X-4.5229 Y21.0393
G01 X-4.4732 Y20.9723
G01 X-4.4619 Y20.9585
G01 X-4.4059 Y20.8967
G01 X-4.3933 Y20.8841
G01 X-4.3315 Y20.8281
G01 X-4.3177 Y20.8168
G01 X-4.2507 Y20.7671
G01 X-4.2358 Y20.7571
G01 X-4.1643 Y20.7143
G01 X-4.1485 Y20.7058
G01 X-4.0731 Y20.6702
G01 X-4.0566 Y20.6633
G01 X-3.9781 Y20.6352
G01 X-3.9610 Y20.6301
G01 X-3.8800 Y20.6098
G01 X-3.8625 Y20.6063
G01 X-3.7800 Y20.5941
G01 X-3.7622 Y20.5923
G01 X-3.6789 Y20.5882
G01 X-3.3700 Y20.5880
G00 Z1.5000
G00 X-3.3700 Y20.7000
G01 F100.00
G01 Z-0.0746
G01 F600.00
G01 X-3.2833 Y20.7042
G01 X-3.2764 Y20.7049
G01 X-3.1939 Y20.7171
G01 X-3.1872 Y20.7184
G01 X-3.1062 Y20.7387
G01 X-3.0997 Y20.7407
G01 X-3.0211 Y20.7688
G01 X-3.0148 Y20.7714
G01 X-2.9394 Y20.8071
G01 X-2.9333 Y20.8103
G01 X-2.8618 Y20.8532
G01 X-2.8561 Y20.8570
G01 X-2.7891 Y20.9067
G01 X-2.7838 Y20.9111
G01 X-2.7220 Y20.9671
G01 X-2.7171 Y20.9720
G01 X-2.6611 Y21.0338
G01 X-2.6567 Y21.0391
G01 X-2.6070 Y21.1061
G01 X-2.6032 Y21.1118
G01 X-2.5603 Y21.1833
G01 X-2.5571 Y21.1894
G01 X-2.5214 Y21.2648
G01 X-2.5188 Y21.2711
G01 X-2.4907 Y21.3497
G01 X-2.4887 Y21.3562
G01 X-2.4684 Y21.4372
G01 X-2.4671 Y21.4439
G01 X-2.4549 Y21.5264
G01 X-2.4542 Y21.5333
G01 X-2.4501 Y21.6166
G01 X-2.4501 Y21.6234
G01 X-2.4542 Y21.7067
G01 X-2.4549 Y21.7136
G01 X-2.4671 Y21.7961
G01 X-2.4684 Y21.8028
G01 X-2.4887 Y21.8838
G01 X-2.4907 Y21.8903
G01 X-2.5188 Y21.9689
G01 X-2.5214 Y21.9752
G01 X-2.5571 Y22.0506
G01 X-2.5603 Y22.0567
G01 X-2.6032 Y22.1282
G01 X-2.6070 Y22.1339
G01 X-2.6567 Y22.2009
G01 X-2.6611 Y22.2062
G01 X-2.7171 Y22.2680
G01 X-2.7220 Y22.2729
G01 X-2.7838 Y22.3289
G01 X-2.7891 Y22.3333
G01 X-2.8561 Y22.3830
G01 X-2.8618 Y22.3868
G01 X-2.9333 Y22.4297
G01 X-2.9394 Y22.4329
G01 X-3.0148 Y22.4686
G01 X-3.0211 Y22.4712
G01 X-3.0997 Y22.4993
G01 X-3.1062 Y22.5013
G01 X-3.1872 Y22.5216
G01 X-3.1939 Y22.5229
G01 X-3.2764 Y22.5351
G01 X-3.2833 Y22.5358
G01 X-3.3666 Y22.5399
G01 X-3.6700 Y22.5400
G01 X-3.7567 Y22.5358
G01 X-3.7636 Y22.5351
G01 X-3.8461 Y22.5229
G01 X-3.8528 Y22.5216
G01 X-3.9338 Y22.5013
G01 X-3.9403 Y22.4993
G01 X-4.0189 Y22.4712
G01 X-4.0252 Y22.4686
G01 X-4.1006 Y22.4329
G01 X-4.1067 Y22.4297
G01 X-4.1782 Y22.3868
G01 X-4.1839 Y22.3830
G01 X-4.2509 Y22.3333
G01 X-4.2562 Y22.3289
G01 X-4.3180 Y22.2729
G01 X-4.3229 Y22.2680
G01 X-4.3789 Y22.2062
G01 X-4.3833 Y22.2009
G01 X-4.4330 Y22.1339
G01 X-4.4368 Y22.1282
G01 X-4.4797 Y22.0567
G01 X-4.4829 Y22.0506
G01 X-4.5186 Y21.9752
G01 X-4.5212 Y21.9689
G01 X-4.5493 Y21.8903
G01 X-4.5513 Y21.8838
G01 X-4.5716 Y21.8028
G01 X-4.5729 Y21.7961
G01 X-4.5851 Y21.7136
G01 X-4.5858 Y21.7067
G01 X-4.5899 Y21.6234
G01 X-4.5899 Y21.6166
G01 X-4.5858 Y21.5333
G01 X-4.5851 Y21.5264
G01 X-4.5729 Y21.4439
G01 X-4.5716 Y21.4372
G01 X-4.5513 Y21.3562
G01 X-4.5493 Y21.3497
G01 X-4.5212 Y21.2711
G01 X-4.5186 Y21.2648
G01 X-4.4829 Y21.1894
G01 X-4.4797 Y21.1833
G01 X-4.4368 Y21.1118
G01 X-4.4330 Y21.1061
G01 X-4.3833 Y21.0391
G01 X-4.3789 Y21.0338
G01 X-4.3229 Y20.9720
G01 X-4.3180 Y20.9671
G01 X-4.2562 Y20.9111
G01 X-4.2509 Y20.9067
G01 X-4.1839 Y20.8570
G01 X-4.1782 Y20.8532
G01 X-4.1067 Y20.8103
G01 X-4.1006 Y20.8071
G01 X-4.0252 Y20.7714
G01 X-4.0189 Y20.7688
G01 X-3.9403 Y20.7407
G01 X-3.9338 Y20.7387
G01 X-3.8528 Y20.7184
G01 X-3.8461 Y20.7171
G01 X-3.7636 Y20.7049
G01 X-3.7567 Y20.7042
G01 X-3.6734 Y20.7001
G01 X-3.3700 Y20.7000
G00 Z1.5000
G00 X-3.3700 Y23.0160
G01 F100.00
G01 Z-0.0746
G01 F600.00
G01 X-3.3556 Y23.0164
G01 X-3.2723 Y23.0204
G01 X-3.2435 Y23.0233
G01 X-3.1610 Y23.0355
G01 X-3.1327 Y23.0411
G01 X-3.0518 Y23.0614
G01 X-3.0242 Y23.0698
G01 X-2.9457 Y23.0979
G01 X-2.9190 Y23.1089
G01 X-2.8436 Y23.1446
G01 X-2.8182 Y23.1582
G01 X-2.7466 Y23.2011
G01 X-2.7226 Y23.2171
G01 X-2.6556 Y23.2668
G01 X-2.6333 Y23.2851
G01 X-2.5715 Y23.3411
G01 X-2.5511 Y23.3615
G01 X-2.4951 Y23.4233
G01 X-2.4768 Y23.4456
G01 X-2.4271 Y23.5126
G01 X-2.4111 Y23.5366
G01 X-2.3682 Y23.6082
G01 X-2.3546 Y23.6336
G01 X-2.3189 Y23.7090
G01 X-2.3079 Y23.7357
G01 X-2.2798 Y23.8142
G01 X-2.2714 Y23.8418
G01 X-2.2511 Y23.9227
G01 X-2.2455 Y23.9510
G01 X-2.2333 Y24.0335
G01 X-2.2304 Y24.0623
G01 X-2.2264 Y24.1456
G01 X-2.2264 Y24.1744
G01 X-2.2304 Y24.2577
G01 X-2.2333 Y24.2865
G01 X-2.2455 Y24.3690
G01 X-2.2511 Y24.3973
G01 X-2.2714 Y24.4782
G01 X-2.2798 Y24.5058
G01 X-2.3079 Y24.5843
G01 X-2.3189 Y24.6110
G01 X-2.3546 Y24.6864
G01 X-2.3682 Y24.7118
G01 X-2.4111 Y24.7834
G01 X-2.4271 Y24.8074
G01 X-2.4768 Y24.8744
G01 X-2.4951 Y24.8967
G01 X-2.5511 Y24.9585
G01 X-2.5715 Y24.9789
G01 X-2.6333 Y25.0349
G01 X-2.6556 Y25.0532
G01 X-2.7226 Y25.1029
G01 X-2.7466 Y25.1189
G01 X-2.8182 Y25.1618
G01 X-2.8436 Y25.1754
G01 X-2.9190 Y25.2111
G01 X-2.9457 Y25.2221
G01 X-3.0242 Y25.2502
G01 X-3.0518 Y25.2586
G01 X-3.1327 Y25.2789
G01 X-3.1610 Y25.2845
G01 X-3.2435 Y25.2967
G01 X-3.2723 Y25.2996
G01 X-3.3556 Y25.3036
G01 X-3.3700 Y25.3040
G01 X-3.6700 Y25.3040
G01 X-3.6844 Y25.3036
G01 X-3.7677 Y25.2996
G01 X-3.7965 Y25.2967
G01 X-3.8790 Y25.2845
G01 X-3.9073 Y25.2789
G01 X-3.9882 Y25.2586
G01 X-4.0158 Y25.2502
G01 X-4.0943 Y25.2221
G01 X-4.1210 Y25.2111
G01 X-4.1964 Y25.1754
G01 X-4.2218 Y25.1618
G01 X-4.2934 Y25.1189
G01 X-4.3174 Y25.1029
G01 X-4.3844 Y25.0532
G01 X-4.4067 Y25.0349
G01 X-4.4685 Y24.9789
G01 X-4.4889 Y24.9585
G01 X-4.5449 Y24.8967
G01 X-4.5632 Y24.8744
G01 X-4.6129 Y24.8074
G01 X-4.6289 Y24.7834
G01 X-4.6718 Y24.7118
G01 X-4.6854 Y24.6864
G01 X-4.7211 Y24.6110
G01 X-4.7321 Y24.5843
G01 X-4.7602 Y24.5058
G01 X-4.7686 Y24.4782
G01 X-4.7889 Y24.3973
G01 X-4.7945 Y24.3690
G01 X-4.8067 Y24.2865
G01 X-4.8096 Y24.2577
G01 X-4.8136 Y24.1744
G01 X-4.8136 Y24.1456
G01 X-4.8096 Y24.0623
G01 X-4.8067 Y24.0335
G01 X-4.7945 Y23.9510
G01 X-4.7889 Y23.9227
G01 X-4.7686 Y23.8418
G01 X-4.7602 Y23.8142
G01 X-4.7321 Y23.7357
G01 X-4.7211 Y23.7090
G01 X-4.6854 Y23.6336
G01 X-4.6718 Y23.6082
G01 X-4.6289 Y23.5366
G01 X-4.6129 Y23.5126
G01 X-4.5632 Y23.4456
G01 X-4.5449 Y23.4233
G01 X-4.4889 Y23.3615
G01 X-4.4685 Y23.3411
G01 X-4.4067 Y23.2851
G01 X-4.3844 Y23.2668
G01 X-4.3174 Y23.2171
G01 X-4.2934 Y23.2011
G01 X-4.2218 Y23.1582
G01 X-4.1964 Y23.1446
G01 X-4.1210 Y23.1089
G01 X-4.0943 Y23.0979
G01 X-4.0158 Y23.0698
G01 X-3.9882 Y23.0614
G01 X-3.9073 Y23.0411
G01 X-3.8790 Y23.0355
G01 X-3.7965 Y23.0233
G01 X-3.7677 Y23.0204
G01 X-3.6844 Y23.0164
G01 X-3.6700 Y23.0160
G01 X-3.3700 Y23.0160
G00 Z1.5000
G00 X-3.3700 Y23.1280
G01 F100.00
G01 Z-0.0746
G01 F600.00
G01 X-3.2778 Y23.1323
G01 X-3.2600 Y23.1341
G01 X-3.1775 Y23.1463
G01 X-3.1600 Y23.1498
G01 X-3.0790 Y23.1701
G01 X-3.0619 Y23.1752
G01 X-2.9834 Y23.2033
G01 X-2.9669 Y23.2102
G01 X-2.8915 Y23.2458
G01 X-2.8757 Y23.2543
G01 X-2.8042 Y23.2971
G01 X-2.7893 Y23.3071
G01 X-2.7223 Y23.3568
G01 X-2.7085 Y23.3681
G01 X-2.6467 Y23.4241
G01 X-2.6341 Y23.4367
G01 X-2.5781 Y23.4985
G01 X-2.5668 Y23.5123
G01 X-2.5171 Y23.5793
G01 X-2.5071 Y23.5942
G01 X-2.4643 Y23.6657
G01 X-2.4558 Y23.6815
G01 X-2.4202 Y23.7569
G01 X-2.4133 Y23.7734
G01 X-2.3852 Y23.8519
G01 X-2.3801 Y23.8690
G01 X-2.3598 Y23.9500
G01 X-2.3563 Y23.9675
G01 X-2.3441 Y24.0500
G01 X-2.3423 Y24.0678
G01 X-2.3382 Y24.1511
G01 X-2.3382 Y24.1689
G01 X-2.3423 Y24.2522
G01 X-2.3441 Y24.2700
G01 X-2.3563 Y24.3525
G01 X-2.3598 Y24.3700
G01 X-2.3801 Y24.4510
G01 X-2.3852 Y24.4681
G01 X-2.4133 Y24.5466
G01 X-2.4202 Y24.5631
G01 X-2.4558 Y24.6385
G01 X-2.4643 Y24.6543
G01 X-2.5071 Y24.7258
G01 X-2.5171 Y24.7407
G01 X-2.5668 Y24.8077
G01 X-2.5781 Y24.8215
G01 X-2.6341 Y24.8833
G01 X-2.6467 Y24.8959
G01 X-2.7085 Y24.9519
G01 X-2.7223 Y24.9632
G01 X-2.7893 Y25.0129
G01 X-2.8042 Y25.0229
G01 X-2.8757 Y25.0657
G01 X-2.8915 Y25.0742
G01 X-2.9669 Y25.1098
G01 X-2.9834 Y25.1167
G01 X-3.0619 Y25.1448
G01 X-3.0790 Y25.1499
G01 X-3.1600 Y25.1702
G01 X-3.1775 Y25.1737
G01 X-3.2600 Y25.1859
G01 X-3.2778 Y25.1877
G01 X-3.3611 Y25.1918
G01 X-3.6700 Y25.1920
G01 X-3.7622 Y25.1877
G01 X-3.7800 Y25.1859
G01 X-3.8625 Y25.1737
G01 X-3.8800 Y25.1702
G01 X-3.9610 Y25.1499
G01 X-3.9781 Y25.1448
G01 X-4.0566 Y25.1167
G01 X-4.0731 Y25.1098
G01 X-4.1485 Y25.0742
G01 X-4.1643 Y25.0657
G01 X-4.2358 Y25.0229
G01 X-4.2507 Y25.0129
G01 X-4.3177 Y24.9632
G01 X-4.3315 Y24.9519
G01 X-4.3933 Y24.8959
G01 X-4.4059 Y24.8833
G01 X-4.4619 Y24.8215
G01 X-4.4732 Y24.8077
G01 X-4.5229 Y24.7407
G01 X-4.5329 Y24.7258
G01 X-4.5757 Y24.6543
G01 X-4.5842 Y24.6385
G01 X-4.6198 Y24.5631
G01 X-4.6267 Y24.5466
G01 X-4.6548 Y24.4681
G01 X-4.6599 Y24.4510
G01 X-4.6802 Y24.3700
G01 X-4.6837 Y24.3525
G01 X-4.6959 Y24.2700
G01 X-4.6977 Y24.2522
G01 X-4.7018 Y24.1689
G01 X-4.7018 Y24.1511
G01 X-4.6977 Y24.0678
G01 X-4.6959 Y24.0500
G01 X-4.6837 Y23.9675
G01 X-4.6802 Y23.9500
G01 X-4.6599 Y23.8690
G01 X-4.6548 Y23.8519
G01 X-4.6267 Y23.7734
G01 X-4.6198 Y23.7569
G01 X-4.5842 Y23.6815
G01 X-4.5757 Y23.6657
G01 X-4.5329 Y23.5942
G01 X-4.5229 Y23.5793
G01 X-4.4732 Y23.5123
G01 X-4.4619 Y23.4985
G01 X-4.4059 Y23.4367
G01 X-4.3933 Y23.4241
G01 X-4.3315 Y23.3681
G01 X-4.3177 Y23.3568
G01 X-4.2507 Y23.3071
G01 X-4.2358 Y23.2971
G01 X-4.1643 Y23.2543
G01 X-4.1485 Y23.2458
G01 X-4.0731 Y23.2102
G01 X-4.0566 Y23.2033
G01 X-3.9781 Y23.1752
G01 X-3.9610 Y23.1701
G01 X-3.8800 Y23.1498
G01 X-3.8625 Y23.1463
G01 X-3.7800 Y23.1341
G01 X-3.7622 Y23.1323
G01 X-3.6789 Y23.1282
G01 X-3.3700 Y23.1280
G00 Z1.5000
G00 X-3.3700 Y23.2400
G01 F100.00
G01 Z-0.0746
G01 F600.00
G01 X-3.2833 Y23.2442
G01 X-3.2764 Y23.2449
G01 X-3.1939 Y23.2571
G01 X-3.1872 Y23.2584
G01 X-3.1062 Y23.2787
G01 X-3.0997 Y23.2807
G01 X-3.0211 Y23.3088
G01 X-3.0148 Y23.3114
G01 X-2.9394 Y23.3471
G01 X-2.9333 Y23.3503
G01 X-2.8618 Y23.3932
G01 X-2.8561 Y23.3970
G01 X-2.7891 Y23.4467
G01 X-2.7838 Y23.4511
G01 X-2.7220 Y23.5071
G01 X-2.7171 Y23.5120
G01 X-2.6611 Y23.5738
G01 X-2.6567 Y23.5791
G01 X-2.6070 Y23.6461
G01 X-2.6032 Y23.6518
G01 X-2.5603 Y23.7233
G01 X-2.5571 Y23.7294
G01 X-2.5214 Y23.8048
G01 X-2.5188 Y23.8111
G01 X-2.4907 Y23.8897
G01 X-2.4887 Y23.8962
G01 X-2.4684 Y23.9772
G01 X-2.4671 Y23.9839
G01 X-2.4549 Y24.0664
G01 X-2.4542 Y24.0733
G01 X-2.4501 Y24.1566
G01 X-2.4501 Y24.1634
G01 X-2.4542 Y24.2467
G01 X-2.4549 Y24.2536
G01 X-2.4671 Y24.3361
G01 X-2.4684 Y24.3428
G01 X-2.4887 Y24.4238
G01 X-2.4907 Y24.4303
G01 X-2.5188 Y24.5089
G01 X-2.5214 Y24.5152
G01 X-2.5571 Y24.5906
G01 X-2.5603 Y24.5967
G01 X-2.6032 Y24.6682
G01 X-2.6070 Y24.6739
G01 X-2.6567 Y24.7409
G01 X-2.6611 Y24.7462
G01 X-2.7171 Y24.8080
G01 X-2.7220 Y24.8129
G01 X-2.7838 Y24.8689
G01 X-2.7891 Y24.8733
G01 X-2.8561 Y24.9230
G01 X-2.8618 Y24.9268
G01 X-2.9333 Y24.9697
G01 X-2.9394 Y24.9729
G01 X-3.0148 Y25.0086
G01 X-3.0211 Y25.0112
G01 X-3.0997 Y25.0393
G01 X-3.1062 Y25.0413
G01 X-3.1872 Y25.0616
G01 X-3.1939 Y25.0629
G01 X-3.2764 Y25.0751
G01 X-3.2833 Y25.0758
G01 X-3.3666 Y25.0799
G01 X-3.6700 Y25.0800
G01 X-3.7567 Y25.0758
G01 X-3.7636 Y25.0751
G01 X-3.8461 Y25.0629
G01 X-3.8528 Y25.0616
G01 X-3.9338 Y25.0413
G01 X-3.9403 Y25.0393
G01 X-4.0189 Y25.0112
G01 X-4.0252 Y25.0086
G01 X-4.1006 Y24.9729
G01 X-4.1067 Y24.9697
G01 X-4.1782 Y24.9268
G01 X-4.1839 Y24.9230
G01 X-4.2509 Y24.8733
G01 X-4.2562 Y24.8689
G01 X-4.3180 Y24.8129
G01 X-4.3229 Y24.8080
G01 X-4.3789 Y24.7462
G01 X-4.3833 Y24.7409
G01 X-4.4330 Y24.6739
G01 X-4.4368 Y24.6682
G01 X-4.4797 Y24.5967
G01 X-4.4829 Y24.5906
G01 X-4.5186 Y24.5152
G01 X-4.5212 Y24.5089
G01 X-4.5493 Y24.4303
G01 X-4.5513 Y24.4238
G01 X-4.5716 Y24.3428
G01 X-4.5729 Y24.3361
G01 X-4.5851 Y24.2536
G01 X-4.5858 Y24.2467
G01 X-4.5899 Y24.1634
G01 X-4.5899 Y24.1566
G01 X-4.5858 Y24.0733
G01 X-4.5851 Y24.0664
G01 X-4.5729 Y23.9839
G01 X-4.5716 Y23.9772
G01 X-4.5513 Y23.8962
G01 X-4.5493 Y23.8897
G01 X-4.5212 Y23.8111
G01 X-4.5186 Y23.8048
G01 X-4.4829 Y23.7294
G01 X-4.4797 Y23.7233
G01 X-4.4368 Y23.6518
G01 X-4.4330 Y23.6461
G01 X-4.3833 Y23.5791
G01 X-4.3789 Y23.5738
G01 X-4.3229 Y23.5120
G01 X-4.3180 Y23.5071
G01 X-4.2562 Y23.4511
G01 X-4.2509 Y23.4467
G01 X-4.1839 Y23.3970
G01 X-4.1782 Y23.3932
G01 X-4.1067 Y23.3503
G01 X-4.1006 Y23.3471
G01 X-4.0252 Y23.3114
G01 X-4.0189 Y23.3088
G01 X-3.9403 Y23.2807
G01 X-3.9338 Y23.2787
G01 X-3.8528 Y23.2584
G01 X-3.8461 Y23.2571
G01 X-3.7636 Y23.2449
G01 X-3.7567 Y23.2442
G01 X-3.6734 Y23.2401
G01 X-3.3700 Y23.2400
G00 Z1.5000
G00 X-3.3700 Y33.1760
G01 F100.00
G01 Z-0.0746
G01 F600.00
G01 X-3.3556 Y33.1764
G01 X-3.2723 Y33.1804
G01 X-3.2435 Y33.1833
G01 X-3.1610 Y33.1955
G01 X-3.1327 Y33.2011
G01 X-3.0518 Y33.2214
G01 X-3.0242 Y33.2298
G01 X-2.9457 Y33.2579
G01 X-2.9190 Y33.2689
G01 X-2.8436 Y33.3046
G01 X-2.8182 Y33.3182
G01 X-2.7466 Y33.3611
G01 X-2.7226 Y33.3771
G01 X-2.6556 Y33.4268
G01 X-2.6333 Y33.4451
G01 X-2.5715 Y33.5011
G01 X-2.5511 Y33.5215
G01 X-2.4951 Y33.5833
G01 X-2.4768 Y33.6056
G01 X-2.4271 Y33.6726
G01 X-2.4111 Y33.6966
G01 X-2.3682 Y33.7682
G01 X-2.3546 Y33.7936
G01 X-2.3189 Y33.8690
G01 X-2.3079 Y33.8957
G01 X-2.2798 Y33.9742
G01 X-2.2714 Y34.0018
G01 X-2.2511 Y34.0827
G01 X-2.2455 Y34.1110
G01 X-2.2333 Y34.1935
G01 X-2.2304 Y34.2223
G01 X-2.2264 Y34.3056
G01 X-2.2264 Y34.3344
G01 X-2.2304 Y34.4177
G01 X-2.2333 Y34.4465
G01 X-2.2455 Y34.5290
G01 X-2.2511 Y34.5573
G01 X-2.2714 Y34.6382
G01 X-2.2798 Y34.6658
G01 X-2.3079 Y34.7443
G01 X-2.3189 Y34.7710
G01 X-2.3546 Y34.8464
G01 X-2.3682 Y34.8718
G01 X-2.4111 Y34.9434
G01 X-2.4271 Y34.9674
G01 X-2.4768 Y35.0344
G01 X-2.4951 Y35.0567
G01 X-2.5511 Y35.1185
G01 X-2.5715 Y35.1389
G01 X-2.6333 Y35.1949
G01 X-2.6556 Y35.2132
G01 X-2.7226 Y35.2629
G01 X-2.7466 Y35.2789
G01 X-2.8182 Y35.3218
G01 X-2.8436 Y35.3354
G01 X-2.9190 Y35.3711
G01 X-2.9457 Y35.3821
G01 X-3.0242 Y35.4102
G01 X-3.0518 Y35.4186
G01 X-3.1327 Y35.4389
G01 X-3.1610 Y35.4445
G01 X-3.2435 Y35.4567
G01 X-3.2723 Y35.4596
G01 X-3.3556 Y35.4636
G01 X-3.3700 Y35.4640
G01 X-3.6700 Y35.4640
G01 X-3.6844 Y35.4636
G01 X-3.7677 Y35.4596
G01 X-3.7965 Y35.4567
G01 X-3.8790 Y35.4445
G01 X-3.9073 Y35.4389
G01 X-3.9882 Y35.4186
G01 X-4.0158 Y35.4102
G01 X-4.0943 Y35.3821
G01 X-4.1210 Y35.3711
G01 X-4.1964 Y35.3354
G01 X-4.2218 Y35.3218
G01 X-4.2934 Y35.2789
G01 X-4.3174 Y35.2629
G01 X-4.3844 Y35.2132
G01 X-4.4067 Y35.1949
G01 X-4.4685 Y35.1389
G01 X-4.4889 Y35.1185
G01 X-4.5449 Y35.0567
G01 X-4.5632 Y35.0344
G01 X-4.6129 Y34.9674
G01 X-4.6289 Y34.9434
G01 X-4.6718 Y34.8718
G01 X-4.6854 Y34.8464
G01 X-4.7211 Y34.7710
G01 X-4.7321 Y34.7443
G01 X-4.7602 Y34.6658
G01 X-4.7686 Y34.6382
G01 X-4.7889 Y34.5573
G01 X-4.7945 Y34.5290
G01 X-4.8067 Y34.4465
G01 X-4.8096 Y34.4177
G01 X-4.8136 Y34.3344
G01 X-4.8136 Y34.3056
G01 X-4.8096 Y34.2223
G01 X-4.8067 Y34.1935
G01 X-4.7945 Y34.1110
G01 X-4.7889 Y34.0827
G01 X-4.7686 Y34.0018
G01 X-4.7602 Y33.9742
G01 X-4.7321 Y33.8957
G01 X-4.7211 Y33.8690
G01 X-4.6854 Y33.7936
G01 X-4.6718 Y33.7682
G01 X-4.6289 Y33.6966
G01 X-4.6129 Y33.6726
G01 X-4.5632 Y33.6056
G01 X-4.5449 Y33.5833
G01 X-4.4889 Y33.5215
G01 X-4.4685 Y33.5011
G01 X-4.4067 Y33.4451
G01 X-4.3844 Y33.4268
G01 X-4.3174 Y33.3771
G01 X-4.2934 Y33.3611
G01 X-4.2218 Y33.3182
G01 X-4.1964 Y33.3046
G01 X-4.1210 Y33.2689
G01 X-4.0943 Y33.2579
G01 X-4.0158 Y33.2298
G01 X-3.9882 Y33.2214
G01 X-3.9073 Y33.2011
G01 X-3.8790 Y33.1955
G01 X-3.7965 Y33.1833
G01 X-3.7677 Y33.1804
G01 X-3.6844 Y33.1764
G01 X-3.6700 Y33.1760
G01 X-3.3700 Y33.1760
G00 Z1.5000
G00 X-3.3700 Y33.2880
G01 F100.00
G01 Z-0.0746
G01 F600.00
G01 X-3.2778 Y33.2923
G01 X-3.2600 Y33.2941
G01 X-3.1775 Y33.3063
G01 X-3.1600 Y33.3098
G01 X-3.0790 Y33.3301
G01 X-3.0619 Y33.3352
G01 X-2.9834 Y33.3633
G01 X-2.9669 Y33.3702
G01 X-2.8915 Y33.4058
G01 X-2.8757 Y33.4143
G01 X-2.8042 Y33.4571
G01 X-2.7893 Y33.4671
G01 X-2.7223 Y33.5168
G01 X-2.7085 Y33.5281
G01 X-2.6467 Y33.5841
G01 X-2.6341 Y33.5967
G01 X-2.5781 Y33.6585
G01 X-2.5668 Y33.6723
G01 X-2.5171 Y33.7393
G01 X-2.5071 Y33.7542
G01 X-2.4643 Y33.8257
G01 X-2.4558 Y33.8415
G01 X-2.4202 Y33.9169
G01 X-2.4133 Y33.9334
G01 X-2.3852 Y34.0119
G01 X-2.3801 Y34.0290
G01 X-2.3598 Y34.1100
G01 X-2.3563 Y34.1275
G01 X-2.3441 Y34.2100
G01 X-2.3423 Y34.2278
G01 X-2.3382 Y34.3111
G01 X-2.3382 Y34.3289
G01 X-2.3423 Y34.4122
G01 X-2.3441 Y34.4300
G01 X-2.3563 Y34.5125
G01 X-2.3598 Y34.5300
G01 X-2.3801 Y34.6110
G01 X-2.3852 Y34.6281
G01 X-2.4133 Y34.7066
G01 X-2.4202 Y34.7231
G01 X-2.4558 Y34.7985
G01 X-2.4643 Y34.8143
G01 X-2.5071 Y34.8858
G01 X-2.5171 Y34.9007
G01 X-2.5668 Y34.9677
G01 X-2.5781 Y34.9815
G01 X-2.6341 Y35.0433
G01 X-2.6467 Y35.0559
G01 X-2.7085 Y35.1119
G01 X-2.7223 Y35.1232
G01 X-2.7893 Y35.1729
G01 X-2.8042 Y35.1829
G01 X-2.8757 Y35.2257
G01 X-2.8915 Y35.2342
G01 X-2.9669 Y35.2698
G01 X-2.9834 Y35.2767
G01 X-3.0619 Y35.3048
G01 X-3.0790 Y35.3099
G01 X-3.1600 Y35.3302
G01 X-3.1775 Y35.3337
G01 X-3.2600 Y35.3459
G01 X-3.2778 Y35.3477
G01 X-3.3611 Y35.3518
G01 X-3.6700 Y35.3520
G01 X-3.7622 Y35.3477
G01 X-3.7800 Y35.3459
G01 X-3.8625 Y35.3337
G01 X-3.8800 Y35.3302
G01 X-3.9610 Y35.3099
G01 X-3.9781 Y35.3048
G01 X-4.0566 Y35.2767
G01 X-4.0731 Y35.2698
G01 X-4.1485 Y35.2342
G01 X-4.1643 Y35.2257
G01 X-4.2358 Y35.1829
G01 X-4.2507 Y35.1729
G01 X-4.3177 Y35.1232
G01 X-4.3315 Y35.1119
G01 X-4.3933 Y35.0559
G01 X-4.4059 Y35.0433
G01 X-4.4619 Y34.9815
G01 X-4.4732 Y34.9677
G01 X-4.5229 Y34.9007
G01 X-4.5329 Y34.8858
G01 X-4.5757 Y34.8143
G01 X-4.5842 Y34.7985
G01 X-4.6198 Y34.7231
G01 X-4.6267 Y34.7066
G01 X-4.6548 Y34.6281
G01 X-4.6599 Y34.6110
G01 X-4.6802 Y34.5300
G01 X-4.6837 Y34.5125
G01 X-4.6959 Y34.4300
G01 X-4.6977 Y34.4122
G01 X-4.7018 Y34.3289
G01 X-4.7018 Y34.3111
G01 X-4.6977 Y34.2278
G01 X-4.6959 Y34.2100
G01 X-4.6837 Y34.1275
G01 X-4.6802 Y34.1100
G01 X-4.6599 Y34.0290
G01 X-4.6548 Y34.0119
G01 X-4.6267 Y33.9334
G01 X-4.6198 Y33.9169
G01 X-4.5842 Y33.8415
G01 X-4.5757 Y33.8257
G01 X-4.5329 Y33.7542
G01 X-4.5229 Y33.7393
G01 X-4.4732 Y33.6723
G01 X-4.4619 Y33.6585
G01 X-4.4059 Y33.5967
G01 X-4.3933 Y33.5841
G01 X-4.3315 Y33.5281
G01 X-4.3177 Y33.5168
G01 X-4.2507 Y33.4671
G01 X-4.2358 Y33.4571
G01 X-4.1643 Y33.4143
G01 X-4.1485 Y33.4058
G01 X-4.0731 Y33.3702
G01 X-4.0566 Y33.3633
G01 X-3.9781 Y33.3352
G01 X-3.9610 Y33.3301
G01 X-3.8800 Y33.3098
G01 X-3.8625 Y33.3063
G01 X-3.7800 Y33.2941
G01 X-3.7622 Y33.2923
G01 X-3.6789 Y33.2882
G01 X-3.3700 Y33.2880
G00 Z1.5000
G00 X-3.3700 Y33.4000
G01 F100.00
G01 Z-0.0746
G01 F600.00
G01 X-3.2833 Y33.4042
G01 X-3.2764 Y33.4049
G01 X-3.1939 Y33.4171
G01 X-3.1872 Y33.4184
G01 X-3.1062 Y33.4387
G01 X-3.0997 Y33.4407
G01 X-3.0211 Y33.4688
G01 X-3.0148 Y33.4714
G01 X-2.9394 Y33.5071
G01 X-2.9333 Y33.5103
G01 X-2.8618 Y33.5532
G01 X-2.8561 Y33.5570
G01 X-2.7891 Y33.6067
G01 X-2.7838 Y33.6111
G01 X-2.7220 Y33.6671
G01 X-2.7171 Y33.6720
G01 X-2.6611 Y33.7338
G01 X-2.6567 Y33.7391
G01 X-2.6070 Y33.8061
G01 X-2.6032 Y33.8118
G01 X-2.5603 Y33.8833
G01 X-2.5571 Y33.8894
G01 X-2.5214 Y33.9648
G01 X-2.5188 Y33.9711
G01 X-2.4907 Y34.0497
G01 X-2.4887 Y34.0562
G01 X-2.4684 Y34.1372
G01 X-2.4671 Y34.1439
G01 X-2.4549 Y34.2264
G01 X-2.4542 Y34.2333
G01 X-2.4501 Y34.3166
G01 X-2.4501 Y34.3234
G01 X-2.4542 Y34.4067
G01 X-2.4549 Y34.4136
G01 X-2.4671 Y34.4961
G01 X-2.4684 Y34.5028
G01 X-2.4887 Y34.5838
G01 X-2.4907 Y34.5903
G01 X-2.5188 Y34.6689
G01 X-2.5214 Y34.6752
G01 X-2.5571 Y34.7506
G01 X-2.5603 Y34.7567
G01 X-2.6032 Y34.8282
G01 X-2.6070 Y34.8339
G01 X-2.6567 Y34.9009
G01 X-2.6611 Y34.9062
G01 X-2.7171 Y34.9680
G01 X-2.7220 Y34.9729
G01 X-2.7838 Y35.0289
G01 X-2.7891 Y35.0333
G01 X-2.8561 Y35.0830
G01 X-2.8618 Y35.0868
G01 X-2.9333 Y35.1297
G01 X-2.9394 Y35.1329
G01 X-3.0148 Y35.1686
G01 X-3.0211 Y35.1712
G01 X-3.0997 Y35.1993
G01 X-3.1062 Y35.2013
G01 X-3.1872 Y35.2216
G01 X-3.1939 Y35.2229
G01 X-3.2764 Y35.2351
G01 X-3.2833 Y35.2358
G01 X-3.3666 Y35.2399
G01 X-3.6700 Y35.2400
G01 X-3.7567 Y35.2358
G01 X-3.7636 Y35.2351
G01 X-3.8461 Y35.2229
G01 X-3.8528 Y35.2216
G01 X-3.9338 Y35.2013
G01 X-3.9403 Y35.1993
G01 X-4.0189 Y35.1712
G01 X-4.0252 Y35.1686
G01 X-4.1006 Y35.1329
G01 X-4.1067 Y35.1297
G01 X-4.1782 Y35.0868
G01 X-4.1839 Y35.0830
G01 X-4.2509 Y35.0333
G01 X-4.2562 Y35.0289
G01 X-4.3180 Y34.9729
G01 X-4.3229 Y34.9680
G01 X-4.3789 Y34.9062
G01 X-4.3833 Y34.9009
G01 X-4.4330 Y34.8339
G01 X-4.4368 Y34.8282
G01 X-4.4797 Y34.7567
G01 X-4.4829 Y34.7506
G01 X-4.5186 Y34.6752
G01 X-4.5212 Y34.6689
G01 X-4.5493 Y34.5903
G01 X-4.5513 Y34.5838
G01 X-4.5716 Y34.5028
G01 X-4.5729 Y34.4961
G01 X-4.5851 Y34.4136
G01 X-4.5858 Y34.4067
G01 X-4.5899 Y34.3234
G01 X-4.5899 Y34.3166
G01 X-4.5858 Y34.2333
G01 X-4.5851 Y34.2264
G01 X-4.5729 Y34.1439
G01 X-4.5716 Y34.1372
G01 X-4.5513 Y34.0562
G01 X-4.5493 Y34.0497
G01 X-4.5212 Y33.9711
G01 X-4.5186 Y33.9648
G01 X-4.4829 Y33.8894
G01 X-4.4797 Y33.8833
G01 X-4.4368 Y33.8118
G01 X-4.4330 Y33.8061
G01 X-4.3833 Y33.7391
G01 X-4.3789 Y33.7338
G01 X-4.3229 Y33.6720
G01 X-4.3180 Y33.6671
G01 X-4.2562 Y33.6111
G01 X-4.2509 Y33.6067
G01 X-4.1839 Y33.5570
G01 X-4.1782 Y33.5532
G01 X-4.1067 Y33.5103
G01 X-4.1006 Y33.5071
G01 X-4.0252 Y33.4714
G01 X-4.0189 Y33.4688
G01 X-3.9403 Y33.4407
G01 X-3.9338 Y33.4387
G01 X-3.8528 Y33.4184
G01 X-3.8461 Y33.4171
G01 X-3.7636 Y33.4049
G01 X-3.7567 Y33.4042
G01 X-3.6734 Y33.4001
G01 X-3.3700 Y33.4000
G00 Z1.5000
G00 X-3.3700 Y35.7160
G01 F100.00
G01 Z-0.0746
G01 F600.00
G01 X-3.3556 Y35.7164
G01 X-3.2723 Y35.7204
G01 X-3.2435 Y35.7233
G01 X-3.1610 Y35.7355
G01 X-3.1327 Y35.7411
G01 X-3.0518 Y35.7614
G01 X-3.0242 Y35.7698
G01 X-2.9457 Y35.7979
G01 X-2.9190 Y35.8089
G01 X-2.8436 Y35.8446
G01 X-2.8182 Y35.8582
G01 X-2.7466 Y35.9011
G01 X-2.7226 Y35.9171
G01 X-2.6556 Y35.9668
G01 X-2.6333 Y35.9851
G01 X-2.5715 Y36.0411
G01 X-2.5511 Y36.0615
G01 X-2.4951 Y36.1233
G01 X-2.4768 Y36.1456
G01 X-2.4271 Y36.2126
G01 X-2.4111 Y36.2366
G01 X-2.3682 Y36.3082
G01 X-2.3546 Y36.3336
G01 X-2.3189 Y36.4090
G01 X-2.3079 Y36.4357
G01 X-2.2798 Y36.5142
G01 X-2.2714 Y36.5418
G01 X-2.2511 Y36.6227
G01 X-2.2455 Y36.6510
G01 X-2.2333 Y36.7335
G01 X-2.2304 Y36.7623
G01 X-2.2264 Y36.8456
G01 X-2.2264 Y36.8744
G01 X-2.2304 Y36.9577
G01 X-2.2333 Y36.9865
G01 X-2.2455 Y37.0690
G01 X-2.2511 Y37.0973
G01 X-2.2714 Y37.1782
G01 X-2.2798 Y37.2058
G01 X-2.3079 Y37.2843
G01 X-2.3189 Y37.3110
G01 X-2.3546 Y37.3864
G01 X-2.3682 Y37.4118
G01 X-2.4111 Y37.4834
G01 X-2.4271 Y37.5074
G01 X-2.4768 Y37.5744
G01 X-2.4951 Y37.5967
G01 X-2.5511 Y37.6585
G01 X-2.5715 Y37.6789
G01 X-2.6333 Y37.7349
G01 X-2.6556 Y37.7532
G01 X-2.7226 Y37.8029
G01 X-2.7466 Y37.8189
G01 X-2.8182 Y37.8618
G01 X-2.8436 Y37.8754
G01 X-2.9190 Y37.9111
G01 X-2.9457 Y37.9221
G01 X-3.0242 Y37.9502
G01 X-3.0518 Y37.9586
G01 X-3.1327 Y37.9789
G01 X-3.1610 Y37.9845
G01 X-3.2435 Y37.9967
G01 X-3.2723 Y37.9996
G01 X-3.3556 Y38.0036
G01 X-3.3700 Y38.0040
G01 X-3.6700 Y38.0040
G01 X-3.6844 Y38.0036
G01 X-3.7677 Y37.9996
G01 X-3.7965 Y37.9967
G01 X-3.8790 Y37.9845
G01 X-3.9073 Y37.9789
G01 X-3.9882 Y37.9586
G01 X-4.0158 Y37.9502
G01 X-4.0943 Y37.9221
G01 X-4.1210 Y37.9111
G01 X-4.1964 Y37.8754
G01 X-4.2218 Y37.8618
G01 X-4.2934 Y37.8189
G01 X-4.3174 Y37.8029
G01 X-4.3844 Y37.7532
G01 X-4.4067 Y37.7349
G01 X-4.4685 Y37.6789
G01 X-4.4889 Y37.6585
G01 X-4.5449 Y37.5967
G01 X-4.5632 Y37.5744
G01 X-4.6129 Y37.5074
G01 X-4.6289 Y37.4834
G01 X-4.6718 Y37.4118
G01 X-4.6854 Y37.3864
G01 X-4.7211 Y37.3110
G01 X-4.7321 Y37.2843
G01 X-4.7602 Y37.2058
G01 X-4.7686 Y37.1782
G01 X-4.7889 Y37.0973
G01 X-4.7945 Y37.0690
G01 X-4.8067 Y36.9865
G01 X-4.8096 Y36.9577
G01 X-4.8136 Y36.8744
G01 X-4.8136 Y36.8456
G01 X-4.8096 Y36.7623
G01 X-4.8067 Y36.7335
G01 X-4.7945 Y36.6510
G01 X-4.7889 Y36.6227
G01 X-4.7686 Y36.5418
G01 X-4.7602 Y36.5142
G01 X-4.7321 Y36.4357
G01 X-4.7211 Y36.4090
G01 X-4.6854 Y36.3336
G01 X-4.6718 Y36.3082
G01 X-4.6289 Y36.2366
G01 X-4.6129 Y36.2126
G01 X-4.5632 Y36.1456
G01 X-4.5449 Y36.1233
G01 X-4.4889 Y36.0615
G01 X-4.4685 Y36.0411
G01 X-4.4067 Y35.9851
G01 X-4.3844 Y35.9668
G01 X-4.3174 Y35.9171
G01 X-4.2934 Y35.9011
G01 X-4.2218 Y35.8582
G01 X-4.1964 Y35.8446
G01 X-4.1210 Y35.8089
G01 X-4.0943 Y35.7979
G01 X-4.0158 Y35.7698
G01 X-3.9882 Y35.7614
G01 X-3.9073 Y35.7411
G01 X-3.8790 Y35.7355
G01 X-3.7965 Y35.7233
G01 X-3.7677 Y35.7204
G01 X-3.6844 Y35.7164
G01 X-3.6700 Y35.7160
G01 X-3.3700 Y35.7160
G00 Z1.5000
G00 X-3.3700 Y35.8280
G01 F100.00
G01 Z-0.0746
G01 F600.00
G01 X-3.2778 Y35.8323
G01 X-3.2600 Y35.8341
G01 X-3.1775 Y35.8463
G01 X-3.1600 Y35.8498
G01 X-3.0790 Y35.8701
G01 X-3.0619 Y35.8752
G01 X-2.9834 Y35.9033
G01 X-2.9669 Y35.9102
G01 X-2.8915 Y35.9458
G01 X-2.8757 Y35.9543
G01 X-2.8042 Y35.9971
G01 X-2.7893 Y36.0071
G01 X-2.7223 Y36.0568
G01 X-2.7085 Y36.0681
G01 X-2.6467 Y36.1241
G01 X-2.6341 Y36.1367
G01 X-2.5781 Y36.1985
G01 X-2.5668 Y36.2123
G01 X-2.5171 Y36.2793
G01 X-2.5071 Y36.2942
G01 X-2.4643 Y36.3657
G01 X-2.4558 Y36.3815
G01 X-2.4202 Y36.4569
G01 X-2.4133 Y36.4734
G01 X-2.3852 Y36.5519
G01 X-2.3801 Y36.5690
G01 X-2.3598 Y36.6500
G01 X-2.3563 Y36.6675
G01 X-2.3441 Y36.7500
G01 X-2.3423 Y36.7678
G01 X-2.3382 Y36.8511
G01 X-2.3382 Y36.8689
G01 X-2.3423 Y36.9522
G01 X-2.3441 Y36.9700
G01 X-2.3563 Y37.0525
G01 X-2.3598 Y37.0700
G01 X-2.3801 Y37.1510
G01 X-2.3852 Y37.1681
G01 X-2.4133 Y37.2466
G01 X-2.4202 Y37.2631
G01 X-2.4558 Y37.3385
G01 X-2.4643 Y37.3543
G01 X-2.5071 Y37.4258
G01 X-2.5171 Y37.4407
G01 X-2.5668 Y37.5077
G01 X-2.5781 Y37.5215
G01 X-2.6341 Y37.5833
G01 X-2.6467 Y37.5959
G01 X-2.7085 Y37.6519
G01 X-2.7223 Y37.6632
G01 X-2.7893 Y37.7129
G01 X-2.8042 Y37.7229
G01 X-2.8757 Y37.7657
G01 X-2.8915 Y37.7742
G01 X-2.9669 Y37.8098
G01 X-2.9834 Y37.8167
G01 X-3.0619 Y37.8448
G01 X-3.0790 Y37.8499
G01 X-3.1600 Y37.8702
G01 X-3.1775 Y37.8737
G01 X-3.2600 Y37.8859
G01 X-3.2778 Y37.8877
G01 X-3.3611 Y37.8918
G01 X-3.6700 Y37.8920
G01 X-3.7622 Y37.8877
G01 X-3.7800 Y37.8859
G01 X-3.8625 Y37.8737
G01 X-3.8800 Y37.8702
G01 X-3.9610 Y37.8499
G01 X-3.9781 Y37.8448
G01 X-4.0566 Y37.8167
G01 X-4.0731 Y37.8098
G01 X-4.1485 Y37.7742
G01 X-4.1643 Y37.7657
G01 X-4.2358 Y37.7229
G01 X-4.2507 Y37.7129
G01 X-4.3177 Y37.6632
G01 X-4.3315 Y37.6519
G01 X-4.3933 Y37.5959
G01 X-4.4059 Y37.5833
G01 X-4.4619 Y37.5215
G01 X-4.4732 Y37.5077
G01 X-4.5229 Y37.4407
G01 X-4.5329 Y37.4258
G01 X-4.5757 Y37.3543
G01 X-4.5842 Y37.3385
G01 X-4.6198 Y37.2631
G01 X-4.6267 Y37.2466
G01 X-4.6548 Y37.1681
G01 X-4.6599 Y37.1510
G01 X-4.6802 Y37.0700
G01 X-4.6837 Y37.0525
G01 X-4.6959 Y36.9700
G01 X-4.6977 Y36.9522
G01 X-4.7018 Y36.8689
G01 X-4.7018 Y36.8511
G01 X-4.6977 Y36.7678
G01 X-4.6959 Y36.7500
G01 X-4.6837 Y36.6675
G01 X-4.6802 Y36.6500
G01 X-4.6599 Y36.5690
G01 X-4.6548 Y36.5519
G01 X-4.6267 Y36.4734
G01 X-4.6198 Y36.4569
G01 X-4.5842 Y36.3815
G01 X-4.5757 Y36.3657
G01 X-4.5329 Y36.2942
G01 X-4.5229 Y36.2793
G01 X-4.4732 Y36.2123
G01 X-4.4619 Y36.1985
G01 X-4.4059 Y36.1367
G01 X-4.3933 Y36.1241
G01 X-4.3315 Y36.0681
G01 X-4.3177 Y36.0568
G01 X-4.2507 Y36.0071
G01 X-4.2358 Y35.9971
G01 X-4.1643 Y35.9543
G01 X-4.1485 Y35.9458
G01 X-4.0731 Y35.9102
G01 X-4.0566 Y35.9033
G01 X-3.9781 Y35.8752
G01 X-3.9610 Y35.8701
G01 X-3.8800 Y35.8498
G01 X-3.8625 Y35.8463
G01 X-3.7800 Y35.8341
G01 X-3.7622 Y35.8323
G01 X-3.6789 Y35.8282
G01 X-3.3700 Y35.8280
G00 Z1.5000
G00 X-3.3700 Y35.9400
G01 F100.00
G01 Z-0.0746
G01 F600.00
G01 X-3.2833 Y35.9442
G01 X-3.2764 Y35.9449
G01 X-3.1939 Y35.9571
G01 X-3.1872 Y35.9584
G01 X-3.1062 Y35.9787
G01 X-3.0997 Y35.9807
G01 X-3.0211 Y36.0088
G01 X-3.0148 Y36.0114
G01 X-2.9394 Y36.0471
G01 X-2.9333 Y36.0503
G01 X-2.8618 Y36.0932
G01 X-2.8561 Y36.0970
G01 X-2.7891 Y36.1467
G01 X-2.7838 Y36.1511
G01 X-2.7220 Y36.2071
G01 X-2.7171 Y36.2120
G01 X-2.6611 Y36.2738
G01 X-2.6567 Y36.2791
G01 X-2.6070 Y36.3461
G01 X-2.6032 Y36.3518
G01 X-2.5603 Y36.4233
G01 X-2.5571 Y36.4294
G01 X-2.5214 Y36.5048
G01 X-2.5188 Y36.5111
G01 X-2.4907 Y36.5897
G01 X-2.4887 Y36.5962
G01 X-2.4684 Y36.6772
G01 X-2.4671 Y36.6839
G01 X-2.4549 Y36.7664
G01 X-2.4542 Y36.7733
G01 X-2.4501 Y36.8566
G01 X-2.4501 Y36.8634
G01 X-2.4542 Y36.9467
G01 X-2.4549 Y36.9536
G01 X-2.4671 Y37.0361
G01 X-2.4684 Y37.0428
G01 X-2.4887 Y37.1238
G01 X-2.4907 Y37.1303
G01 X-2.5188 Y37.2089
G01 X-2.5214 Y37.2152
G01 X-2.5571 Y37.2906
G01 X-2.5603 Y37.2967
G01 X-2.6032 Y37.3682
G01 X-2.6070 Y37.3739
G01 X-2.6567 Y37.4409
G01 X-2.6611 Y37.4462
G01 X-2.7171 Y37.5080
G01 X-2.7220 Y37.5129
G01 X-2.7838 Y37.5689
G01 X-2.7891 Y37.5733
G01 X-2.8561 Y37.6230
G01 X-2.8618 Y37.6268
G01 X-2.9333 Y37.6697
G01 X-2.9394 Y37.6729
G01 X-3.0148 Y37.7086
G01 X-3.0211 Y37.7112
G01 X-3.0997 Y37.7393
G01 X-3.1062 Y37.7413
G01 X-3.1872 Y37.7616
G01 X-3.1939 Y37.7629
G01 X-3.2764 Y37.7751
G01 X-3.2833 Y37.7758
G01 X-3.3666 Y37.7799
G01 X-3.6700 Y37.7800
G01 X-3.7567 Y37.7758
G01 X-3.7636 Y37.7751
G01 X-3.8461 Y37.7629
G01 X-3.8528 Y37.7616
G01 X-3.9338 Y37.7413
G01 X-3.9403 Y37.7393
G01 X-4.0189 Y37.7112
G01 X-4.0252 Y37.7086
G01 X-4.1006 Y37.6729
G01 X-4.1067 Y37.6697
G01 X-4.1782 Y37.6268
G01 X-4.1839 Y37.6230
G01 X-4.2509 Y37.5733
G01 X-4.2562 Y37.5689
G01 X-4.3180 Y37.5129
G01 X-4.3229 Y37.5080
G01 X-4.3789 Y37.4462
G01 X-4.3833 Y37.4409
G01 X-4.4330 Y37.3739
G01 X-4.4368 Y37.3682
G01 X-4.4797 Y37.2967
G01 X-4.4829 Y37.2906
G01 X-4.5186 Y37.2152
G01 X-4.5212 Y37.2089
G01 X-4.5493 Y37.1303
G01 X-4.5513 Y37.1238
G01 X-4.5716 Y37.0428
G01 X-4.5729 Y37.0361
G01 X-4.5851 Y36.9536
G01 X-4.5858 Y36.9467
G01 X-4.5899 Y36.8634
G01 X-4.5899 Y36.8566
G01 X-4.5858 Y36.7733
G01 X-4.5851 Y36.7664
G01 X-4.5729 Y36.6839
G01 X-4.5716 Y36.6772
G01 X-4.5513 Y36.5962
G01 X-4.5493 Y36.5897
G01 X-4.5212 Y36.5111
G01 X-4.5186 Y36.5048
G01 X-4.4829 Y36.4294
G01 X-4.4797 Y36.4233
G01 X-4.4368 Y36.3518
G01 X-4.4330 Y36.3461
G01 X-4.3833 Y36.2791
G01 X-4.3789 Y36.2738
G01 X-4.3229 Y36.2120
G01 X-4.3180 Y36.2071
G01 X-4.2562 Y36.1511
G01 X-4.2509 Y36.1467
G01 X-4.1839 Y36.0970
G01 X-4.1782 Y36.0932
G01 X-4.1067 Y36.0503
G01 X-4.1006 Y36.0471
G01 X-4.0252 Y36.0114
G01 X-4.0189 Y36.0088
G01 X-3.9403 Y35.9807
G01 X-3.9338 Y35.9787
G01 X-3.8528 Y35.9584
G01 X-3.8461 Y35.9571
G01 X-3.7636 Y35.9449
G01 X-3.7567 Y35.9442
G01 X-3.6734 Y35.9401
G01 X-3.3700 Y35.9400
G00 Z1.5000
G00 X-3.3700 Y38.2560
G01 F100.00
G01 Z-0.0746
G01 F600.00
G01 X-3.3556 Y38.2564
G01 X-3.2723 Y38.2604
G01 X-3.2435 Y38.2633
G01 X-3.1610 Y38.2755
G01 X-3.1327 Y38.2811
G01 X-3.0518 Y38.3014
G01 X-3.0242 Y38.3098
G01 X-2.9457 Y38.3379
G01 X-2.9190 Y38.3489
G01 X-2.8436 Y38.3846
G01 X-2.8182 Y38.3982
G01 X-2.7466 Y38.4411
G01 X-2.7226 Y38.4571
G01 X-2.6556 Y38.5068
G01 X-2.6333 Y38.5251
G01 X-2.5715 Y38.5811
G01 X-2.5511 Y38.6015
G01 X-2.4951 Y38.6633
G01 X-2.4768 Y38.6856
G01 X-2.4271 Y38.7526
G01 X-2.4111 Y38.7766
G01 X-2.3682 Y38.8482
G01 X-2.3546 Y38.8736
G01 X-2.3189 Y38.9490
G01 X-2.3079 Y38.9757
G01 X-2.2798 Y39.0542
G01 X-2.2714 Y39.0818
G01 X-2.2511 Y39.1627
G01 X-2.2455 Y39.1910
G01 X-2.2333 Y39.2735
G01 X-2.2304 Y39.3023
G01 X-2.2264 Y39.3856
G01 X-2.2264 Y39.4144
G01 X-2.2304 Y39.4977
G01 X-2.2333 Y39.5265
G01 X-2.2455 Y39.6090
G01 X-2.2511 Y39.6373
G01 X-2.2714 Y39.7182
G01 X-2.2798 Y39.7458
G01 X-2.3079 Y39.8243
G01 X-2.3189 Y39.8510
G01 X-2.3546 Y39.9264
G01 X-2.3682 Y39.9518
G01 X-2.4111 Y40.0234
G01 X-2.4271 Y40.0474
G01 X-2.4768 Y40.1144
G01 X-2.4951 Y40.1367
G01 X-2.5511 Y40.1985
G01 X-2.5715 Y40.2189
G01 X-2.6333 Y40.2749
G01 X-2.6556 Y40.2932
G01 X-2.7226 Y40.3429
G01 X-2.7466 Y40.3589
G01 X-2.8182 Y40.4018
G01 X-2.8436 Y40.4154
G01 X-2.9190 Y40.4511
G01 X-2.9457 Y40.4621
G01 X-3.0242 Y40.4902
G01 X-3.0518 Y40.4986
G01 X-3.1327 Y40.5189
G01 X-3.1610 Y40.5245
G01 X-3.2435 Y40.5367
G01 X-3.2723 Y40.5396
G01 X-3.3556 Y40.5436
G01 X-3.3700 Y40.5440
G01 X-3.6700 Y40.5440
G01 X-3.6844 Y40.5436
G01 X-3.7677 Y40.5396
G01 X-3.7965 Y40.5367
G01 X-3.8790 Y40.5245
G01 X-3.9073 Y40.5189
G01 X-3.9882 Y40.4986
G01 X-4.0158 Y40.4902
G01 X-4.0943 Y40.4621
G01 X-4.1210 Y40.4511
G01 X-4.1964 Y40.4154
G01 X-4.2218 Y40.4018
G01 X-4.2934 Y40.3589
G01 X-4.3174 Y40.3429
G01 X-4.3844 Y40.2932
G01 X-4.4067 Y40.2749
G01 X-4.4685 Y40.2189
G01 X-4.4889 Y40.1985
G01 X-4.5449 Y40.1367
G01 X-4.5632 Y40.1144
G01 X-4.6129 Y40.0474
G01 X-4.6289 Y40.0234
G01 X-4.6718 Y39.9518
G01 X-4.6854 Y39.9264
G01 X-4.7211 Y39.8510
G01 X-4.7321 Y39.8243
G01 X-4.7602 Y39.7458
G01 X-4.7686 Y39.7182
G01 X-4.7889 Y39.6373
G01 X-4.7945 Y39.6090
G01 X-4.8067 Y39.5265
G01 X-4.8096 Y39.4977
G01 X-4.8136 Y39.4144
G01 X-4.8136 Y39.3856
G01 X-4.8096 Y39.3023
G01 X-4.8067 Y39.2735
G01 X-4.7945 Y39.1910
G01 X-4.7889 Y39.1627
G01 X-4.7686 Y39.0818
G01 X-4.7602 Y39.0542
G01 X-4.7321 Y38.9757
G01 X-4.7211 Y38.9490
G01 X-4.6854 Y38.8736
G01 X-4.6718 Y38.8482
G01 X-4.6289 Y38.7766
G01 X-4.6129 Y38.7526
G01 X-4.5632 Y38.6856
G01 X-4.5449 Y38.6633
G01 X-4.4889 Y38.6015
G01 X-4.4685 Y38.5811
G01 X-4.4067 Y38.5251
G01 X-4.3844 Y38.5068
G01 X-4.3174 Y38.4571
G01 X-4.2934 Y38.4411
G01 X-4.2218 Y38.3982
G01 X-4.1964 Y38.3846
G01 X-4.1210 Y38.3489
G01 X-4.0943 Y38.3379
G01 X-4.0158 Y38.3098
G01 X-3.9882 Y38.3014
G01 X-3.9073 Y38.2811
G01 X-3.8790 Y38.2755
G01 X-3.7965 Y38.2633
G01 X-3.7677 Y38.2604
G01 X-3.6844 Y38.2564
G01 X-3.6700 Y38.2560
G01 X-3.3700 Y38.2560
G00 Z1.5000
G00 X-3.3700 Y38.3680
G01 F100.00
G01 Z-0.0746
G01 F600.00
G01 X-3.2778 Y38.3723
G01 X-3.2600 Y38.3741
G01 X-3.1775 Y38.3863
G01 X-3.1600 Y38.3898
G01 X-3.0790 Y38.4101
G01 X-3.0619 Y38.4152
G01 X-2.9834 Y38.4433
G01 X-2.9669 Y38.4502
G01 X-2.8915 Y38.4858
G01 X-2.8757 Y38.4943
G01 X-2.8042 Y38.5371
G01 X-2.7893 Y38.5471
G01 X-2.7223 Y38.5968
G01 X-2.7085 Y38.6081
G01 X-2.6467 Y38.6641
G01 X-2.6341 Y38.6767
G01 X-2.5781 Y38.7385
G01 X-2.5668 Y38.7523
G01 X-2.5171 Y38.8193
G01 X-2.5071 Y38.8342
G01 X-2.4643 Y38.9057
G01 X-2.4558 Y38.9215
G01 X-2.4202 Y38.9969
G01 X-2.4133 Y39.0134
G01 X-2.3852 Y39.0919
G01 X-2.3801 Y39.1090
G01 X-2.3598 Y39.1900
G01 X-2.3563 Y39.2075
G01 X-2.3441 Y39.2900
G01 X-2.3423 Y39.3078
G01 X-2.3382 Y39.3911
G01 X-2.3382 Y39.4089
G01 X-2.3423 Y39.4922
G01 X-2.3441 Y39.5100
G01 X-2.3563 Y39.5925
G01 X-2.3598 Y39.6100
G01 X-2.3801 Y39.6910
G01 X-2.3852 Y39.7081
G01 X-2.4133 Y39.7866
G01 X-2.4202 Y39.8031
G01 X-2.4558 Y39.8785
G01 X-2.4643 Y39.8943
G01 X-2.5071 Y39.9658
G01 X-2.5171 Y39.9807
G01 X-2.5668 Y40.0477
G01 X-2.5781 Y40.0615
G01 X-2.6341 Y40.1233
G01 X-2.6467 Y40.1359
G01 X-2.7085 Y40.1919
G01 X-2.7223 Y40.2032
G01 X-2.7893 Y40.2529
G01 X-2.8042 Y40.2629
G01 X-2.8757 Y40.3057
G01 X-2.8915 Y40.3142
G01 X-2.9669 Y40.3498
G01 X-2.9834 Y40.3567
G01 X-3.0619 Y40.3848
G01 X-3.0790 Y40.3899
G01 X-3.1600 Y40.4102
G01 X-3.1775 Y40.4137
G01 X-3.2600 Y40.4259
G01 X-3.2778 Y40.4277
G01 X-3.3611 Y40.4318
G01 X-3.6700 Y40.4320
G01 X-3.7622 Y40.4277
G01 X-3.7800 Y40.4259
G01 X-3.8625 Y40.4137
G01 X-3.8800 Y40.4102
G01 X-3.9610 Y40.3899
G01 X-3.9781 Y40.3848
G01 X-4.0566 Y40.3567
G01 X-4.0731 Y40.3498
G01 X-4.1485 Y40.3142
G01 X-4.1643 Y40.3057
G01 X-4.2358 Y40.2629
G01 X-4.2507 Y40.2529
G01 X-4.3177 Y40.2032
G01 X-4.3315 Y40.1919
G01 X-4.3933 Y40.1359
G01 X-4.4059 Y40.1233
G01 X-4.4619 Y40.0615
G01 X-4.4732 Y40.0477
G01 X-4.5229 Y39.9807
G01 X-4.5329 Y39.9658
G01 X-4.5757 Y39.8943
G01 X-4.5842 Y39.8785
G01 X-4.6198 Y39.8031
G01 X-4.6267 Y39.7866
G01 X-4.6548 Y39.7081
G01 X-4.6599 Y39.6910
G01 X-4.6802 Y39.6100
G01 X-4.6837 Y39.5925
G01 X-4.6959 Y39.5100
G01 X-4.6977 Y39.4922
G01 X-4.7018 Y39.4089
G01 X-4.7018 Y39.3911
G01 X-4.6977 Y39.3078
G01 X-4.6959 Y39.2900
G01 X-4.6837 Y39.2075
G01 X-4.6802 Y39.1900
G01 X-4.6599 Y39.1090
G01 X-4.6548 Y39.0919
G01 X-4.6267 Y39.0134
G01 X-4.6198 Y38.9969
G01 X-4.5842 Y38.9215
G01 X-4.5757 Y38.9057
G01 X-4.5329 Y38.8342
G01 X-4.5229 Y38.8193
G01 X-4.4732 Y38.7523
G01 X-4.4619 Y38.7385
G01 X-4.4059 Y38.6767
G01 X-4.3933 Y38.6641
G01 X-4.3315 Y38.6081
G01 X-4.3177 Y38.5968
G01 X-4.2507 Y38.5471
G01 X-4.2358 Y38.5371
G01 X-4.1643 Y38.4943
G01 X-4.1485 Y38.4858
G01 X-4.0731 Y38.4502
G01 X-4.0566 Y38.4433
G01 X-3.9781 Y38.4152
G01 X-3.9610 Y38.4101
G01 X-3.8800 Y38.3898
G01 X-3.8625 Y38.3863
G01 X-3.7800 Y38.3741
G01 X-3.7622 Y38.3723
G01 X-3.6789 Y38.3682
G01 X-3.3700 Y38.3680
G00 Z1.5000
G00 X-3.3700 Y38.4800
G01 F100.00
G01 Z-0.0746
G01 F600.00
G01 X-3.2833 Y38.4842
G01 X-3.2764 Y38.4849
G01 X-3.1939 Y38.4971
G01 X-3.1872 Y38.4984
G01 X-3.1062 Y38.5187
G01 X-3.0997 Y38.5207
G01 X-3.0211 Y38.5488
G01 X-3.0148 Y38.5514
G01 X-2.9394 Y38.5871
G01 X-2.9333 Y38.5903
G01 X-2.8618 Y38.6332
G01 X-2.8561 Y38.6370
G01 X-2.7891 Y38.6867
G01 X-2.7838 Y38.6911
G01 X-2.7220 Y38.7471
G01 X-2.7171 Y38.7520
G01 X-2.6611 Y38.8138
G01 X-2.6567 Y38.8191
G01 X-2.6070 Y38.8861
G01 X-2.6032 Y38.8918
G01 X-2.5603 Y38.9633
G01 X-2.5571 Y38.9694
G01 X-2.5214 Y39.0448
G01 X-2.5188 Y39.0511
G01 X-2.4907 Y39.1297
G01 X-2.4887 Y39.1362
G01 X-2.4684 Y39.2172
G01 X-2.4671 Y39.2239
G01 X-2.4549 Y39.3064
G01 X-2.4542 Y39.3133
G01 X-2.4501 Y39.3966
G01 X-2.4501 Y39.4034
G01 X-2.4542 Y39.4867
G01 X-2.4549 Y39.4936
G01 X-2.4671 Y39.5761
G01 X-2.4684 Y39.5828
G01 X-2.4887 Y39.6638
G01 X-2.4907 Y39.6703
G01 X-2.5188 Y39.7489
G01 X-2.5214 Y39.7552
G01 X-2.5571 Y39.8306
G01 X-2.5603 Y39.8367
G01 X-2.6032 Y39.9082
G01 X-2.6070 Y39.9139
G01 X-2.6567 Y39.9809
G01 X-2.6611 Y39.9862
G01 X-2.7171 Y40.0480
G01 X-2.7220 Y40.0529
G01 X-2.7838 Y40.1089
G01 X-2.7891 Y40.1133
G01 X-2.8561 Y40.1630
G01 X-2.8618 Y40.1668
G01 X-2.9333 Y40.2097
G01 X-2.9394 Y40.2129
G01 X-3.0148 Y40.2486
G01 X-3.0211 Y40.2512
G01 X-3.0997 Y40.2793
G01 X-3.1062 Y40.2813
G01 X-3.1872 Y40.3016
G01 X-3.1939 Y40.3029
G01 X-3.2764 Y40.3151
G01 X-3.2833 Y40.3158
G01 X-3.3666 Y40.3199
G01 X-3.6700 Y40.3200
G01 X-3.7567 Y40.3158
G01 X-3.7636 Y40.3151
G01 X-3.8461 Y40.3029
G01 X-3.8528 Y40.3016
G01 X-3.9338 Y40.2813
G01 X-3.9403 Y40.2793
G01 X-4.0189 Y40.2512
G01 X-4.0252 Y40.2486
G01 X-4.1006 Y40.2129
G01 X-4.1067 Y40.2097
G01 X-4.1782 Y40.1668
G01 X-4.1839 Y40.1630
G01 X-4.2509 Y40.1133
G01 X-4.2562 Y40.1089
G01 X-4.3180 Y40.0529
G01 X-4.3229 Y40.0480
G01 X-4.3789 Y39.9862
G01 X-4.3833 Y39.9809
G01 X-4.4330 Y39.9139
G01 X-4.4368 Y39.9082
G01 X-4.4797 Y39.8367
G01 X-4.4829 Y39.8306
G01 X-4.5186 Y39.7552
G01 X-4.5212 Y39.7489
G01 X-4.5493 Y39.6703
G01 X-4.5513 Y39.6638
G01 X-4.5716 Y39.5828
G01 X-4.5729 Y39.5761
G01 X-4.5851 Y39.4936
G01 X-4.5858 Y39.4867
G01 X-4.5899 Y39.4034
G01 X-4.5899 Y39.3966
G01 X-4.5858 Y39.3133
G01 X-4.5851 Y39.3064
G01 X-4.5729 Y39.2239
G01 X-4.5716 Y39.2172
G01 X-4.5513 Y39.1362
G01 X-4.5493 Y39.1297
G01 X-4.5212 Y39.0511
G01 X-4.5186 Y39.0448
G01 X-4.4829 Y38.9694
G01 X-4.4797 Y38.9633
G01 X-4.4368 Y38.8918
G01 X-4.4330 Y38.8861
G01 X-4.3833 Y38.8191
G01 X-4.3789 Y38.8138
G01 X-4.3229 Y38.7520
G01 X-4.3180 Y38.7471
G01 X-4.2562 Y38.6911
G01 X-4.2509 Y38.6867
G01 X-4.1839 Y38.6370
G01 X-4.1782 Y38.6332
G01 X-4.1067 Y38.5903
G01 X-4.1006 Y38.5871
G01 X-4.0252 Y38.5514
G01 X-4.0189 Y38.5488
G01 X-3.9403 Y38.5207
G01 X-3.9338 Y38.5187
G01 X-3.8528 Y38.4984
G01 X-3.8461 Y38.4971
G01 X-3.7636 Y38.4849
G01 X-3.7567 Y38.4842
G01 X-3.6734 Y38.4801
G01 X-3.3700 Y38.4800
G00 Z1.5000
G00 X-3.3700 Y40.7960
G01 F100.00
G01 Z-0.0746
G01 F600.00
G01 X-3.3556 Y40.7964
G01 X-3.2723 Y40.8004
G01 X-3.2435 Y40.8033
G01 X-3.1610 Y40.8155
G01 X-3.1327 Y40.8211
G01 X-3.0518 Y40.8414
G01 X-3.0242 Y40.8498
G01 X-2.9457 Y40.8779
G01 X-2.9190 Y40.8889
G01 X-2.8436 Y40.9246
G01 X-2.8182 Y40.9382
G01 X-2.7466 Y40.9811
G01 X-2.7226 Y40.9971
G01 X-2.6556 Y41.0468
G01 X-2.6333 Y41.0651
G01 X-2.5715 Y41.1211
G01 X-2.5511 Y41.1415
G01 X-2.4951 Y41.2033
G01 X-2.4768 Y41.2256
G01 X-2.4271 Y41.2926
G01 X-2.4111 Y41.3166
G01 X-2.3682 Y41.3882
G01 X-2.3546 Y41.4136
G01 X-2.3189 Y41.4890
G01 X-2.3079 Y41.5157
G01 X-2.2798 Y41.5942
G01 X-2.2714 Y41.6218
G01 X-2.2511 Y41.7027
G01 X-2.2455 Y41.7310
G01 X-2.2333 Y41.8135
G01 X-2.2304 Y41.8423
G01 X-2.2264 Y41.9256
G01 X-2.2264 Y41.9544
G01 X-2.2304 Y42.0377
G01 X-2.2333 Y42.0665
G01 X-2.2455 Y42.1490
G01 X-2.2511 Y42.1773
G01 X-2.2714 Y42.2582
G01 X-2.2798 Y42.2858
G01 X-2.3079 Y42.3643
G01 X-2.3189 Y42.3910
G01 X-2.3546 Y42.4664
G01 X-2.3682 Y42.4918
G01 X-2.4111 Y42.5634
G01 X-2.4271 Y42.5874
G01 X-2.4768 Y42.6544
G01 X-2.4951 Y42.6767
G01 X-2.5511 Y42.7385
G01 X-2.5715 Y42.7589
G01 X-2.6333 Y42.8149
G01 X-2.6556 Y42.8332
G01 X-2.7226 Y42.8829
G01 X-2.7466 Y42.8989
G01 X-2.8182 Y42.9418
G01 X-2.8436 Y42.9554
G01 X-2.9190 Y42.9911
G01 X-2.9457 Y43.0021
G01 X-3.0242 Y43.0302
G01 X-3.0518 Y43.0386
G01 X-3.1327 Y43.0589
G01 X-3.1610 Y43.0645
G01 X-3.2435 Y43.0767
G01 X-3.2723 Y43.0796
G01 X-3.3556 Y43.0836
G01 X-3.3700 Y43.0840
G01 X-3.6700 Y43.0840
G01 X-3.6844 Y43.0836
G01 X-3.7677 Y43.0796
G01 X-3.7965 Y43.0767
G01 X-3.8790 Y43.0645
G01 X-3.9073 Y43.0589
G01 X-3.9882 Y43.0386
G01 X-4.0158 Y43.0302
G01 X-4.0943 Y43.0021
G01 X-4.1210 Y42.9911
G01 X-4.1964 Y42.9554
G01 X-4.2218 Y42.9418
G01 X-4.2934 Y42.8989
G01 X-4.3174 Y42.8829
G01 X-4.3844 Y42.8332
G01 X-4.4067 Y42.8149
G01 X-4.4685 Y42.7589
G01 X-4.4889 Y42.7385
G01 X-4.5449 Y42.6767
G01 X-4.5632 Y42.6544
G01 X-4.6129 Y42.5874
G01 X-4.6289 Y42.5634
G01 X-4.6718 Y42.4918
G01 X-4.6854 Y42.4664
G01 X-4.7211 Y42.3910
G01 X-4.7321 Y42.3643
G01 X-4.7602 Y42.2858
G01 X-4.7686 Y42.2582
G01 X-4.7889 Y42.1773
G01 X-4.7945 Y42.1490
G01 X-4.8067 Y42.0665
G01 X-4.8096 Y42.0377
G01 X-4.8136 Y41.9544
G01 X-4.8136 Y41.9256
G01 X-4.8096 Y41.8423
G01 X-4.8067 Y41.8135
G01 X-4.7945 Y41.7310
G01 X-4.7889 Y41.7027
G01 X-4.7686 Y41.6218
G01 X-4.7602 Y41.5942
G01 X-4.7321 Y41.5157
G01 X-4.7211 Y41.4890
G01 X-4.6854 Y41.4136
G01 X-4.6718 Y41.3882
G01 X-4.6289 Y41.3166
G01 X-4.6129 Y41.2926
G01 X-4.5632 Y41.2256
G01 X-4.5449 Y41.2033
G01 X-4.4889 Y41.1415
G01 X-4.4685 Y41.1211
G01 X-4.4067 Y41.0651
G01 X-4.3844 Y41.0468
G01 X-4.3174 Y40.9971
G01 X-4.2934 Y40.9811
G01 X-4.2218 Y40.9382
G01 X-4.1964 Y40.9246
G01 X-4.1210 Y40.8889
G01 X-4.0943 Y40.8779
G01 X-4.0158 Y40.8498
G01 X-3.9882 Y40.8414
G01 X-3.9073 Y40.8211
G01 X-3.8790 Y40.8155
G01 X-3.7965 Y40.8033
G01 X-3.7677 Y40.8004
G01 X-3.6844 Y40.7964
G01 X-3.6700 Y40.7960
G01 X-3.3700 Y40.7960
G00 Z1.5000
G00 X-3.3700 Y40.9080
G01 F100.00
G01 Z-0.0746
G01 F600.00
G01 X-3.2778 Y40.9123
G01 X-3.2600 Y40.9141
G01 X-3.1775 Y40.9263
G01 X-3.1600 Y40.9298
G01 X-3.0790 Y40.9501
G01 X-3.0619 Y40.9552
G01 X-2.9834 Y40.9833
G01 X-2.9669 Y40.9902
G01 X-2.8915 Y41.0258
G01 X-2.8757 Y41.0343
G01 X-2.8042 Y41.0771
G01 X-2.7893 Y41.0871
G01 X-2.7223 Y41.1368
G01 X-2.7085 Y41.1481
G01 X-2.6467 Y41.2041
G01 X-2.6341 Y41.2167
G01 X-2.5781 Y41.2785
G01 X-2.5668 Y41.2923
G01 X-2.5171 Y41.3593
G01 X-2.5071 Y41.3742
G01 X-2.4643 Y41.4457
G01 X-2.4558 Y41.4615
G01 X-2.4202 Y41.5369
G01 X-2.4133 Y41.5534
G01 X-2.3852 Y41.6319
G01 X-2.3801 Y41.6490
G01 X-2.3598 Y41.7300
G01 X-2.3563 Y41.7475
G01 X-2.3441 Y41.8300
G01 X-2.3423 Y41.8478
G01 X-2.3382 Y41.9311
G01 X-2.3382 Y41.9489
G01 X-2.3423 Y42.0322
G01 X-2.3441 Y42.0500
G01 X-2.3563 Y42.1325
G01 X-2.3598 Y42.1500
G01 X-2.3801 Y42.2310
G01 X-2.3852 Y42.2481
G01 X-2.4133 Y42.3266
G01 X-2.4202 Y42.3431
G01 X-2.4558 Y42.4185
G01 X-2.4643 Y42.4343
G01 X-2.5071 Y42.5058
G01 X-2.5171 Y42.5207
G01 X-2.5668 Y42.5877
G01 X-2.5781 Y42.6015
G01 X-2.6341 Y42.6633
G01 X-2.6467 Y42.6759
G01 X-2.7085 Y42.7319
G01 X-2.7223 Y42.7432
G01 X-2.7893 Y42.7929
G01 X-2.8042 Y42.8029
G01 X-2.8757 Y42.8457
G01 X-2.8915 Y42.8542
G01 X-2.9669 Y42.8898
G01 X-2.9834 Y42.8967
G01 X-3.0619 Y42.9248
G01 X-3.0790 Y42.9299
G01 X-3.1600 Y42.9502
G01 X-3.1775 Y42.9537
G01 X-3.2600 Y42.9659
G01 X-3.2778 Y42.9677
G01 X-3.3611 Y42.9718
G01 X-3.6700 Y42.9720
G01 X-3.7622 Y42.9677
G01 X-3.7800 Y42.9659
G01 X-3.8625 Y42.9537
G01 X-3.8800 Y42.9502
G01 X-3.9610 Y42.9299
G01 X-3.9781 Y42.9248
G01 X-4.0566 Y42.8967
G01 X-4.0731 Y42.8898
G01 X-4.1485 Y42.8542
G01 X-4.1643 Y42.8457
G01 X-4.2358 Y42.8029
G01 X-4.2507 Y42.7929
G01 X-4.3177 Y42.7432
G01 X-4.3315 Y42.7319
G01 X-4.3933 Y42.6759
G01 X-4.4059 Y42.6633
G01 X-4.4619 Y42.6015
G01 X-4.4732 Y42.5877
G01 X-4.5229 Y42.5207
G01 X-4.5329 Y42.5058
G01 X-4.5757 Y42.4343
G01 X-4.5842 Y42.4185
G01 X-4.6198 Y42.3431
G01 X-4.6267 Y42.3266
G01 X-4.6548 Y42.2481
G01 X-4.6599 Y42.2310
G01 X-4.6802 Y42.1500
G01 X-4.6837 Y42.1325
G01 X-4.6959 Y42.0500
G01 X-4.6977 Y42.0322
G01 X-4.7018 Y41.9489
G01 X-4.7018 Y41.9311
G01 X-4.6977 Y41.8478
G01 X-4.6959 Y41.8300
G01 X-4.6837 Y41.7475
G01 X-4.6802 Y41.7300
G01 X-4.6599 Y41.6490
G01 X-4.6548 Y41.6319
G01 X-4.6267 Y41.5534
G01 X-4.6198 Y41.5369
G01 X-4.5842 Y41.4615
G01 X-4.5757 Y41.4457
G01 X-4.5329 Y41.3742
G01 X-4.5229 Y41.3593
G01 X-4.4732 Y41.2923
G01 X-4.4619 Y41.2785
G01 X-4.4059 Y41.2167
G01 X-4.3933 Y41.2041
G01 X-4.3315 Y41.1481
G01 X-4.3177 Y41.1368
G01 X-4.2507 Y41.0871
G01 X-4.2358 Y41.0771
G01 X-4.1643 Y41.0343
G01 X-4.1485 Y41.0258
G01 X-4.0731 Y40.9902
G01 X-4.0566 Y40.9833
G01 X-3.9781 Y40.9552
G01 X-3.9610 Y40.9501
G01 X-3.8800 Y40.9298
G01 X-3.8625 Y40.9263
G01 X-3.7800 Y40.9141
G01 X-3.7622 Y40.9123
G01 X-3.6789 Y40.9082
G01 X-3.3700 Y40.9080
G00 Z1.5000
G00 X-3.3700 Y41.0200
G01 F100.00
G01 Z-0.0746
G01 F600.00
G01 X-3.2833 Y41.0242
G01 X-3.2764 Y41.0249
G01 X-3.1939 Y41.0371
G01 X-3.1872 Y41.0384
G01 X-3.1062 Y41.0587
G01 X-3.0997 Y41.0607
G01 X-3.0211 Y41.0888
G01 X-3.0148 Y41.0914
G01 X-2.9394 Y41.1271
G01 X-2.9333 Y41.1303
G01 X-2.8618 Y41.1732
G01 X-2.8561 Y41.1770
G01 X-2.7891 Y41.2267
G01 X-2.7838 Y41.2311
G01 X-2.7220 Y41.2871
G01 X-2.7171 Y41.2920
G01 X-2.6611 Y41.3538
G01 X-2.6567 Y41.3591
G01 X-2.6070 Y41.4261
G01 X-2.6032 Y41.4318
G01 X-2.5603 Y41.5033
G01 X-2.5571 Y41.5094
G01 X-2.5214 Y41.5848
G01 X-2.5188 Y41.5911
G01 X-2.4907 Y41.6697
G01 X-2.4887 Y41.6762
G01 X-2.4684 Y41.7572
G01 X-2.4671 Y41.7639
G01 X-2.4549 Y41.8464
G01 X-2.4542 Y41.8533
G01 X-2.4501 Y41.9366
G01 X-2.4501 Y41.9434
G01 X-2.4542 Y42.0267
G01 X-2.4549 Y42.0336
G01 X-2.4671 Y42.1161
G01 X-2.4684 Y42.1228
G01 X-2.4887 Y42.2038
G01 X-2.4907 Y42.2103
G01 X-2.5188 Y42.2889
G01 X-2.5214 Y42.2952
G01 X-2.5571 Y42.3706
G01 X-2.5603 Y42.3767
G01 X-2.6032 Y42.4482
G01 X-2.6070 Y42.4539
G01 X-2.6567 Y42.5209
G01 X-2.6611 Y42.5262
G01 X-2.7171 Y42.5880
G01 X-2.7220 Y42.5929
G01 X-2.7838 Y42.6489
G01 X-2.7891 Y42.6533
G01 X-2.8561 Y42.7030
G01 X-2.8618 Y42.7068
G01 X-2.9333 Y42.7497
G01 X-2.9394 Y42.7529
G01 X-3.0148 Y42.7886
G01 X-3.0211 Y42.7912
G01 X-3.0997 Y42.8193
G01 X-3.1062 Y42.8213
G01 X-3.1872 Y42.8416
G01 X-3.1939 Y42.8429
G01 X-3.2764 Y42.8551
G01 X-3.2833 Y42.8558
G01 X-3.3666 Y42.8599
G01 X-3.6700 Y42.8600
G01 X-3.7567 Y42.8558
G01 X-3.7636 Y42.8551
G01 X-3.8461 Y42.8429
G01 X-3.8528 Y42.8416
G01 X-3.9338 Y42.8213
G01 X-3.9403 Y42.8193
G01 X-4.0189 Y42.7912
G01 X-4.0252 Y42.7886
G01 X-4.1006 Y42.7529
G01 X-4.1067 Y42.7497
G01 X-4.1782 Y42.7068
G01 X-4.1839 Y42.7030
G01 X-4.2509 Y42.6533
G01 X-4.2562 Y42.6489
G01 X-4.3180 Y42.5929
G01 X-4.3229 Y42.5880
G01 X-4.3789 Y42.5262
G01 X-4.3833 Y42.5209
G01 X-4.4330 Y42.4539
G01 X-4.4368 Y42.4482
G01 X-4.4797 Y42.3767
G01 X-4.4829 Y42.3706
G01 X-4.5186 Y42.2952
G01 X-4.5212 Y42.2889
G01 X-4.5493 Y42.2103
G01 X-4.5513 Y42.2038
G01 X-4.5716 Y42.1228
G01 X-4.5729 Y42.1161
G01 X-4.5851 Y42.0336
G01 X-4.5858 Y42.0267
G01 X-4.5899 Y41.9434
G01 X-4.5899 Y41.9366
G01 X-4.5858 Y41.8533
G01 X-4.5851 Y41.8464
G01 X-4.5729 Y41.7639
G01 X-4.5716 Y41.7572
G01 X-4.5513 Y41.6762
G01 X-4.5493 Y41.6697
G01 X-4.5212 Y41.5911
G01 X-4.5186 Y41.5848
G01 X-4.4829 Y41.5094
G01 X-4.4797 Y41.5033
G01 X-4.4368 Y41.4318
G01 X-4.4330 Y41.4261
G01 X-4.3833 Y41.3591
G01 X-4.3789 Y41.3538
G01 X-4.3229 Y41.2920
G01 X-4.3180 Y41.2871
G01 X-4.2562 Y41.2311
G01 X-4.2509 Y41.2267
G01 X-4.1839 Y41.1770
G01 X-4.1782 Y41.1732
G01 X-4.1067 Y41.1303
G01 X-4.1006 Y41.1271
G01 X-4.0252 Y41.0914
G01 X-4.0189 Y41.0888
G01 X-3.9403 Y41.0607
G01 X-3.9338 Y41.0587
G01 X-3.8528 Y41.0384
G01 X-3.8461 Y41.0371
G01 X-3.7636 Y41.0249
G01 X-3.7567 Y41.0242
G01 X-3.6734 Y41.0201
G01 X-3.3700 Y41.0200
G00 Z1.5000
G00 X-3.3700 Y43.3360
G01 F100.00
G01 Z-0.0746
G01 F600.00
G01 X-3.3556 Y43.3364
G01 X-3.2723 Y43.3404
G01 X-3.2435 Y43.3433
G01 X-3.1610 Y43.3555
G01 X-3.1327 Y43.3611
G01 X-3.0518 Y43.3814
G01 X-3.0242 Y43.3898
G01 X-2.9457 Y43.4179
G01 X-2.9190 Y43.4289
G01 X-2.8436 Y43.4646
G01 X-2.8182 Y43.4782
G01 X-2.7466 Y43.5211
G01 X-2.7226 Y43.5371
G01 X-2.6556 Y43.5868
G01 X-2.6333 Y43.6051
G01 X-2.5715 Y43.6611
G01 X-2.5511 Y43.6815
G01 X-2.4951 Y43.7433
G01 X-2.4768 Y43.7656
G01 X-2.4271 Y43.8326
G01 X-2.4111 Y43.8566
G01 X-2.3682 Y43.9282
G01 X-2.3546 Y43.9536
G01 X-2.3189 Y44.0290
G01 X-2.3079 Y44.0557
G01 X-2.2798 Y44.1342
G01 X-2.2714 Y44.1618
G01 X-2.2511 Y44.2427
G01 X-2.2455 Y44.2710
G01 X-2.2333 Y44.3535
G01 X-2.2304 Y44.3823
G01 X-2.2264 Y44.4656
G01 X-2.2264 Y44.4944
G01 X-2.2304 Y44.5777
G01 X-2.2333 Y44.6065
G01 X-2.2455 Y44.6890
G01 X-2.2511 Y44.7173
G01 X-2.2714 Y44.7982
G01 X-2.2798 Y44.8258
G01 X-2.3079 Y44.9043
G01 X-2.3189 Y44.9310
G01 X-2.3546 Y45.0064
G01 X-2.3682 Y45.0318
G01 X-2.4111 Y45.1034
G01 X-2.4271 Y45.1274
G01 X-2.4768 Y45.1944
G01 X-2.4951 Y45.2167
G01 X-2.5511 Y45.2785
G01 X-2.5715 Y45.2989
G01 X-2.6333 Y45.3549
G01 X-2.6556 Y45.3732
G01 X-2.7226 Y45.4229
G01 X-2.7466 Y45.4389
G01 X-2.8182 Y45.4818
G01 X-2.8436 Y45.4954
G01 X-2.9190 Y45.5311
G01 X-2.9457 Y45.5421
G01 X-3.0242 Y45.5702
G01 X-3.0518 Y45.5786
G01 X-3.1327 Y45.5989
G01 X-3.1610 Y45.6045
G01 X-3.2435 Y45.6167
G01 X-3.2723 Y45.6196
G01 X-3.3556 Y45.6236
G01 X-3.3700 Y45.6240
G01 X-3.6700 Y45.6240
G01 X-3.6844 Y45.6236
G01 X-3.7677 Y45.6196
G01 X-3.7965 Y45.6167
G01 X-3.8790 Y45.6045
G01 X-3.9073 Y45.5989
G01 X-3.9882 Y45.5786
G01 X-4.0158 Y45.5702
G01 X-4.0943 Y45.5421
G01 X-4.1210 Y45.5311
G01 X-4.1964 Y45.4954
G01 X-4.2218 Y45.4818
G01 X-4.2934 Y45.4389
G01 X-4.3174 Y45.4229
G01 X-4.3844 Y45.3732
G01 X-4.4067 Y45.3549
G01 X-4.4685 Y45.2989
G01 X-4.4889 Y45.2785
G01 X-4.5449 Y45.2167
G01 X-4.5632 Y45.1944
G01 X-4.6129 Y45.1274
G01 X-4.6289 Y45.1034
G01 X-4.6718 Y45.0318
G01 X-4.6854 Y45.0064
G01 X-4.7211 Y44.9310
G01 X-4.7321 Y44.9043
G01 X-4.7602 Y44.8258
G01 X-4.7686 Y44.7982
G01 X-4.7889 Y44.7173
G01 X-4.7945 Y44.6890
G01 X-4.8067 Y44.6065
G01 X-4.8096 Y44.5777
G01 X-4.8136 Y44.4944
G01 X-4.8136 Y44.4656
G01 X-4.8096 Y44.3823
G01 X-4.8067 Y44.3535
G01 X-4.7945 Y44.2710
G01 X-4.7889 Y44.2427
G01 X-4.7686 Y44.1618
G01 X-4.7602 Y44.1342
G01 X-4.7321 Y44.0557
G01 X-4.7211 Y44.0290
G01 X-4.6854 Y43.9536
G01 X-4.6718 Y43.9282
G01 X-4.6289 Y43.8566
G01 X-4.6129 Y43.8326
G01 X-4.5632 Y43.7656
G01 X-4.5449 Y43.7433
G01 X-4.4889 Y43.6815
G01 X-4.4685 Y43.6611
G01 X-4.4067 Y43.6051
G01 X-4.3844 Y43.5868
G01 X-4.3174 Y43.5371
G01 X-4.2934 Y43.5211
G01 X-4.2218 Y43.4782
G01 X-4.1964 Y43.4646
G01 X-4.1210 Y43.4289
G01 X-4.0943 Y43.4179
G01 X-4.0158 Y43.3898
G01 X-3.9882 Y43.3814
G01 X-3.9073 Y43.3611
G01 X-3.8790 Y43.3555
G01 X-3.7965 Y43.3433
G01 X-3.7677 Y43.3404
G01 X-3.6844 Y43.3364
G01 X-3.6700 Y43.3360
G01 X-3.3700 Y43.3360
G00 Z1.5000
G00 X-3.3700 Y43.4480
G01 F100.00
G01 Z-0.0746
G01 F600.00
G01 X-3.2778 Y43.4523
G01 X-3.2600 Y43.4541
G01 X-3.1775 Y43.4663
G01 X-3.1600 Y43.4698
G01 X-3.0790 Y43.4901
G01 X-3.0619 Y43.4952
G01 X-2.9834 Y43.5233
G01 X-2.9669 Y43.5302
G01 X-2.8915 Y43.5658
G01 X-2.8757 Y43.5743
G01 X-2.8042 Y43.6171
G01 X-2.7893 Y43.6271
G01 X-2.7223 Y43.6768
G01 X-2.7085 Y43.6881
G01 X-2.6467 Y43.7441
G01 X-2.6341 Y43.7567
G01 X-2.5781 Y43.8185
G01 X-2.5668 Y43.8323
G01 X-2.5171 Y43.8993
G01 X-2.5071 Y43.9142
G01 X-2.4643 Y43.9857
G01 X-2.4558 Y44.0015
G01 X-2.4202 Y44.0769
G01 X-2.4133 Y44.0934
G01 X-2.3852 Y44.1719
G01 X-2.3801 Y44.1890
G01 X-2.3598 Y44.2700
G01 X-2.3563 Y44.2875
G01 X-2.3441 Y44.3700
G01 X-2.3423 Y44.3878
G01 X-2.3382 Y44.4711
G01 X-2.3382 Y44.4889
G01 X-2.3423 Y44.5722
G01 X-2.3441 Y44.5900
G01 X-2.3563 Y44.6725
G01 X-2.3598 Y44.6900
G01 X-2.3801 Y44.7710
G01 X-2.3852 Y44.7881
G01 X-2.4133 Y44.8666
G01 X-2.4202 Y44.8831
G01 X-2.4558 Y44.9585
G01 X-2.4643 Y44.9743
G01 X-2.5071 Y45.0458
G01 X-2.5171 Y45.0607
G01 X-2.5668 Y45.1277
G01 X-2.5781 Y45.1415
G01 X-2.6341 Y45.2033
G01 X-2.6467 Y45.2159
G01 X-2.7085 Y45.2719
G01 X-2.7223 Y45.2832
G01 X-2.7893 Y45.3329
G01 X-2.8042 Y45.3429
G01 X-2.8757 Y45.3857
G01 X-2.8915 Y45.3942
G01 X-2.9669 Y45.4298
G01 X-2.9834 Y45.4367
G01 X-3.0619 Y45.4648
G01 X-3.0790 Y45.4699
G01 X-3.1600 Y45.4902
G01 X-3.1775 Y45.4937
G01 X-3.2600 Y45.5059
G01 X-3.2778 Y45.5077
G01 X-3.3611 Y45.5118
G01 X-3.6700 Y45.5120
G01 X-3.7622 Y45.5077
G01 X-3.7800 Y45.5059
G01 X-3.8625 Y45.4937
G01 X-3.8800 Y45.4902
G01 X-3.9610 Y45.4699
G01 X-3.9781 Y45.4648
G01 X-4.0566 Y45.4367
G01 X-4.0731 Y45.4298
G01 X-4.1485 Y45.3942
G01 X-4.1643 Y45.3857
G01 X-4.2358 Y45.3429
G01 X-4.2507 Y45.3329
G01 X-4.3177 Y45.2832
G01 X-4.3315 Y45.2719
G01 X-4.3933 Y45.2159
G01 X-4.4059 Y45.2033
G01 X-4.4619 Y45.1415
G01 X-4.4732 Y45.1277
G01 X-4.5229 Y45.0607
G01 X-4.5329 Y45.0458
G01 X-4.5757 Y44.9743
G01 X-4.5842 Y44.9585
G01 X-4.6198 Y44.8831
G01 X-4.6267 Y44.8666
G01 X-4.6548 Y44.7881
G01 X-4.6599 Y44.7710
G01 X-4.6802 Y44.6900
G01 X-4.6837 Y44.6725
G01 X-4.6959 Y44.5900
G01 X-4.6977 Y44.5722
G01 X-4.7018 Y44.4889
G01 X-4.7018 Y44.4711
G01 X-4.6977 Y44.3878
G01 X-4.6959 Y44.3700
G01 X-4.6837 Y44.2875
G01 X-4.6802 Y44.2700
G01 X-4.6599 Y44.1890
G01 X-4.6548 Y44.1719
G01 X-4.6267 Y44.0934
G01 X-4.6198 Y44.0769
G01 X-4.5842 Y44.0015
G01 X-4.5757 Y43.9857
G01 X-4.5329 Y43.9142
G01 X-4.5229 Y43.8993
G01 X-4.4732 Y43.8323
G01 X-4.4619 Y43.8185
G01 X-4.4059 Y43.7567
G01 X-4.3933 Y43.7441
G01 X-4.3315 Y43.6881
G01 X-4.3177 Y43.6768
G01 X-4.2507 Y43.6271
G01 X-4.2358 Y43.6171
G01 X-4.1643 Y43.5743
G01 X-4.1485 Y43.5658
G01 X-4.0731 Y43.5302
G01 X-4.0566 Y43.5233
G01 X-3.9781 Y43.4952
G01 X-3.9610 Y43.4901
G01 X-3.8800 Y43.4698
G01 X-3.8625 Y43.4663
G01 X-3.7800 Y43.4541
G01 X-3.7622 Y43.4523
G01 X-3.6789 Y43.4482
G01 X-3.3700 Y43.4480
G00 Z1.5000
G00 X-3.3700 Y43.5600
G01 F100.00
G01 Z-0.0746
G01 F600.00
G01 X-3.2833 Y43.5642
G01 X-3.2764 Y43.5649
G01 X-3.1939 Y43.5771
G01 X-3.1872 Y43.5784
G01 X-3.1062 Y43.5987
G01 X-3.0997 Y43.6007
G01 X-3.0211 Y43.6288
G01 X-3.0148 Y43.6314
G01 X-2.9394 Y43.6671
G01 X-2.9333 Y43.6703
G01 X-2.8618 Y43.7132
G01 X-2.8561 Y43.7170
G01 X-2.7891 Y43.7667
G01 X-2.7838 Y43.7711
G01 X-2.7220 Y43.8271
G01 X-2.7171 Y43.8320
G01 X-2.6611 Y43.8938
G01 X-2.6567 Y43.8991
G01 X-2.6070 Y43.9661
G01 X-2.6032 Y43.9718
G01 X-2.5603 Y44.0433
G01 X-2.5571 Y44.0494
G01 X-2.5214 Y44.1248
G01 X-2.5188 Y44.1311
G01 X-2.4907 Y44.2097
G01 X-2.4887 Y44.2162
G01 X-2.4684 Y44.2972
G01 X-2.4671 Y44.3039
G01 X-2.4549 Y44.3864
G01 X-2.4542 Y44.3933
G01 X-2.4501 Y44.4766
G01 X-2.4501 Y44.4834
G01 X-2.4542 Y44.5667
G01 X-2.4549 Y44.5736
G01 X-2.4671 Y44.6561
G01 X-2.4684 Y44.6628
G01 X-2.4887 Y44.7438
G01 X-2.4907 Y44.7503
G01 X-2.5188 Y44.8289
G01 X-2.5214 Y44.8352
G01 X-2.5571 Y44.9106
G01 X-2.5603 Y44.9167
G01 X-2.6032 Y44.9882
G01 X-2.6070 Y44.9939
G01 X-2.6567 Y45.0609
G01 X-2.6611 Y45.0662
G01 X-2.7171 Y45.1280
G01 X-2.7220 Y45.1329
G01 X-2.7838 Y45.1889
G01 X-2.7891 Y45.1933
G01 X-2.8561 Y45.2430
G01 X-2.8618 Y45.2468
G01 X-2.9333 Y45.2897
G01 X-2.9394 Y45.2929
G01 X-3.0148 Y45.3286
G01 X-3.0211 Y45.3312
G01 X-3.0997 Y45.3593
G01 X-3.1062 Y45.3613
G01 X-3.1872 Y45.3816
G01 X-3.1939 Y45.3829
G01 X-3.2764 Y45.3951
G01 X-3.2833 Y45.3958
G01 X-3.3666 Y45.3999
G01 X-3.6700 Y45.4000
G01 X-3.7567 Y45.3958
G01 X-3.7636 Y45.3951
G01 X-3.8461 Y45.3829
G01 X-3.8528 Y45.3816
G01 X-3.9338 Y45.3613
G01 X-3.9403 Y45.3593
G01 X-4.0189 Y45.3312
G01 X-4.0252 Y45.3286
G01 X-4.1006 Y45.2929
G01 X-4.1067 Y45.2897
G01 X-4.1782 Y45.2468
G01 X-4.1839 Y45.2430
G01 X-4.2509 Y45.1933
G01 X-4.2562 Y45.1889
G01 X-4.3180 Y45.1329
G01 X-4.3229 Y45.1280
G01 X-4.3789 Y45.0662
G01 X-4.3833 Y45.0609
G01 X-4.4330 Y44.9939
G01 X-4.4368 Y44.9882
G01 X-4.4797 Y44.9167
G01 X-4.4829 Y44.9106
G01 X-4.5186 Y44.8352
G01 X-4.5212 Y44.8289
G01 X-4.5493 Y44.7503
G01 X-4.5513 Y44.7438
G01 X-4.5716 Y44.6628
G01 X-4.5729 Y44.6561
G01 X-4.5851 Y44.5736
G01 X-4.5858 Y44.5667
G01 X-4.5899 Y44.4834
G01 X-4.5899 Y44.4766
G01 X-4.5858 Y44.3933
G01 X-4.5851 Y44.3864
G01 X-4.5729 Y44.3039
G01 X-4.5716 Y44.2972
G01 X-4.5513 Y44.2162
G01 X-4.5493 Y44.2097
G01 X-4.5212 Y44.1311
G01 X-4.5186 Y44.1248
G01 X-4.4829 Y44.0494
G01 X-4.4797 Y44.0433
G01 X-4.4368 Y43.9718
G01 X-4.4330 Y43.9661
G01 X-4.3833 Y43.8991
G01 X-4.3789 Y43.8938
G01 X-4.3229 Y43.8320
G01 X-4.3180 Y43.8271
G01 X-4.2562 Y43.7711
G01 X-4.2509 Y43.7667
G01 X-4.1839 Y43.7170
G01 X-4.1782 Y43.7132
G01 X-4.1067 Y43.6703
G01 X-4.1006 Y43.6671
G01 X-4.0252 Y43.6314
G01 X-4.0189 Y43.6288
G01 X-3.9403 Y43.6007
G01 X-3.9338 Y43.5987
G01 X-3.8528 Y43.5784
G01 X-3.8461 Y43.5771
G01 X-3.7636 Y43.5649
G01 X-3.7567 Y43.5642
G01 X-3.6734 Y43.5601
G01 X-3.3700 Y43.5600
G00 Z1.5000
G00 X-11.9739 Y52.2831
G01 F100.00
G01 Z-0.0746
G01 F600.00
G01 X-11.8035 Y52.3643
G01 X-11.7722 Y52.3876
G01 X-11.9739 Y52.3876
G01 X-11.9739 Y52.2831
G00 Z1.5000
G00 X-12.0859 Y52.4996
G01 F100.00
G01 Z-0.0746
G01 F600.00
G01 X-12.0859 Y52.1687
G01 X-12.0328 Y52.1406
G01 X-11.9773 Y52.1575
G01 X-11.7453 Y52.2679
G01 X-11.5431 Y52.4188
G01 X-11.4703 Y52.4996
G01 X-12.0859 Y52.4996
G00 Z1.5000
G00 X-14.1677 Y52.6979
G01 F100.00
G01 Z-0.0746
G01 F600.00
G01 X-14.1581 Y52.7085
G01 X-14.1468 Y52.7223
G01 X-14.0971 Y52.7893
G01 X-14.0871 Y52.8042
G01 X-14.0443 Y52.8757
G01 X-14.0358 Y52.8915
G01 X-14.0002 Y52.9669
G01 X-13.9933 Y52.9834
G01 X-13.9652 Y53.0619
