(G-CODE GENERATED BY FLATCAM v8.991 - www.flatcam.org - Version Date: 2019/12/27)

(Name: raceMini1-PTH.drl_mill_cnc)
(Type: G-code from Geometry)
(Units: MM)

(Created on Friday, 10 April 2020 at 09:36)

(TOOL DIAMETER: 1.5 mm)
(Feedrate: 600.0 mm/min)
(Feedrate_Z: 100.0 mm/min)
(Feedrate rapids 1200.0 mm/min)

(Z_Cut: -1.7 mm)
(DepthPerCut: 0.6 mm <=>3 passes)
(Z_Move: 1.5 mm)
(Z Toolchange: 15.0 mm)
(X,Y Toolchange: 0.0000, 0.0000 mm)
(Z Start: None mm)
(Z End: 15.0 mm)
(Steps per circle: 64)
(Preprocessor Geometry: default)

(X range:  -62.1895 ...   -4.5405  mm)
(Y range:    1.0505 ...    7.8995  mm)

(Spindle Speed: 12000 RPM)
G21
G90
G94




G01 F600.00
G00 Z1.5000

M03 S12000
G00 X-4.5405 Y1.3000
G01 F100.00
G01 Z-0.6000
G01 F600.00
G01 X-4.5417 Y1.2755
G01 X-4.5453 Y1.2513
G01 X-4.5513 Y1.2276
G01 X-4.5595 Y1.2045
G01 X-4.5700 Y1.1824
G01 X-4.5826 Y1.1614
G01 X-4.5971 Y1.1417
G01 X-4.6136 Y1.1236
G01 X-4.6317 Y1.1071
G01 X-4.6514 Y1.0926
G01 X-4.6724 Y1.0800
G01 X-4.6945 Y1.0695
G01 X-4.7176 Y1.0613
G01 X-4.7413 Y1.0553
G01 X-4.7655 Y1.0517
G01 X-4.7900 Y1.0505
G01 X-4.8145 Y1.0517
G01 X-4.8387 Y1.0553
G01 X-4.8624 Y1.0613
G01 X-4.8855 Y1.0695
G01 X-4.9076 Y1.0800
G01 X-4.9286 Y1.0926
G01 X-4.9483 Y1.1071
G01 X-4.9664 Y1.1236
G01 X-4.9829 Y1.1417
G01 X-4.9974 Y1.1614
G01 X-5.0100 Y1.1824
G01 X-5.0205 Y1.2045
G01 X-5.0287 Y1.2276
G01 X-5.0347 Y1.2513
G01 X-5.0383 Y1.2755
G01 X-5.0395 Y1.3000
G01 X-5.0383 Y1.3245
G01 X-5.0347 Y1.3487
G01 X-5.0287 Y1.3724
G01 X-5.0205 Y1.3955
G01 X-5.0100 Y1.4176
G01 X-4.9974 Y1.4386
G01 X-4.9829 Y1.4583
G01 X-4.9664 Y1.4764
G01 X-4.9483 Y1.4929
G01 X-4.9286 Y1.5074
G01 X-4.9076 Y1.5200
G01 X-4.8855 Y1.5305
G01 X-4.8624 Y1.5387
G01 X-4.8387 Y1.5447
G01 X-4.8145 Y1.5483
G01 X-4.7900 Y1.5495
G01 X-4.7655 Y1.5483
G01 X-4.7413 Y1.5447
G01 X-4.7176 Y1.5387
G01 X-4.6945 Y1.5305
G01 X-4.6724 Y1.5200
G01 X-4.6514 Y1.5074
G01 X-4.6317 Y1.4929
G01 X-4.6136 Y1.4764
G01 X-4.5971 Y1.4583
G01 X-4.5826 Y1.4386
G01 X-4.5700 Y1.4176
G01 X-4.5595 Y1.3955
G01 X-4.5513 Y1.3724
G01 X-4.5453 Y1.3487
G01 X-4.5417 Y1.3245
G01 X-4.5405 Y1.3000
G00 X-4.5405 Y1.3000
G01 F100.00
G01 Z-1.2000
G01 F600.00
G01 X-4.5417 Y1.2755
G01 X-4.5453 Y1.2513
G01 X-4.5513 Y1.2276
G01 X-4.5595 Y1.2045
G01 X-4.5700 Y1.1824
G01 X-4.5826 Y1.1614
G01 X-4.5971 Y1.1417
G01 X-4.6136 Y1.1236
G01 X-4.6317 Y1.1071
G01 X-4.6514 Y1.0926
G01 X-4.6724 Y1.0800
G01 X-4.6945 Y1.0695
G01 X-4.7176 Y1.0613
G01 X-4.7413 Y1.0553
G01 X-4.7655 Y1.0517
G01 X-4.7900 Y1.0505
G01 X-4.8145 Y1.0517
G01 X-4.8387 Y1.0553
G01 X-4.8624 Y1.0613
G01 X-4.8855 Y1.0695
G01 X-4.9076 Y1.0800
G01 X-4.9286 Y1.0926
G01 X-4.9483 Y1.1071
G01 X-4.9664 Y1.1236
G01 X-4.9829 Y1.1417
G01 X-4.9974 Y1.1614
G01 X-5.0100 Y1.1824
G01 X-5.0205 Y1.2045
G01 X-5.0287 Y1.2276
G01 X-5.0347 Y1.2513
G01 X-5.0383 Y1.2755
G01 X-5.0395 Y1.3000
G01 X-5.0383 Y1.3245
G01 X-5.0347 Y1.3487
G01 X-5.0287 Y1.3724
G01 X-5.0205 Y1.3955
G01 X-5.0100 Y1.4176
G01 X-4.9974 Y1.4386
G01 X-4.9829 Y1.4583
G01 X-4.9664 Y1.4764
G01 X-4.9483 Y1.4929
G01 X-4.9286 Y1.5074
G01 X-4.9076 Y1.5200
G01 X-4.8855 Y1.5305
G01 X-4.8624 Y1.5387
G01 X-4.8387 Y1.5447
G01 X-4.8145 Y1.5483
G01 X-4.7900 Y1.5495
G01 X-4.7655 Y1.5483
G01 X-4.7413 Y1.5447
G01 X-4.7176 Y1.5387
G01 X-4.6945 Y1.5305
G01 X-4.6724 Y1.5200
G01 X-4.6514 Y1.5074
G01 X-4.6317 Y1.4929
G01 X-4.6136 Y1.4764
G01 X-4.5971 Y1.4583
G01 X-4.5826 Y1.4386
G01 X-4.5700 Y1.4176
G01 X-4.5595 Y1.3955
G01 X-4.5513 Y1.3724
G01 X-4.5453 Y1.3487
G01 X-4.5417 Y1.3245
G01 X-4.5405 Y1.3000
G00 X-4.5405 Y1.3000
G01 F100.00
G01 Z-1.7000
G01 F600.00
G01 X-4.5417 Y1.2755
G01 X-4.5453 Y1.2513
G01 X-4.5513 Y1.2276
G01 X-4.5595 Y1.2045
G01 X-4.5700 Y1.1824
G01 X-4.5826 Y1.1614
G01 X-4.5971 Y1.1417
G01 X-4.6136 Y1.1236
G01 X-4.6317 Y1.1071
G01 X-4.6514 Y1.0926
G01 X-4.6724 Y1.0800
G01 X-4.6945 Y1.0695
G01 X-4.7176 Y1.0613
G01 X-4.7413 Y1.0553
G01 X-4.7655 Y1.0517
G01 X-4.7900 Y1.0505
G01 X-4.8145 Y1.0517
G01 X-4.8387 Y1.0553
G01 X-4.8624 Y1.0613
G01 X-4.8855 Y1.0695
G01 X-4.9076 Y1.0800
G01 X-4.9286 Y1.0926
G01 X-4.9483 Y1.1071
G01 X-4.9664 Y1.1236
G01 X-4.9829 Y1.1417
G01 X-4.9974 Y1.1614
G01 X-5.0100 Y1.1824
G01 X-5.0205 Y1.2045
G01 X-5.0287 Y1.2276
G01 X-5.0347 Y1.2513
G01 X-5.0383 Y1.2755
G01 X-5.0395 Y1.3000
G01 X-5.0383 Y1.3245
G01 X-5.0347 Y1.3487
G01 X-5.0287 Y1.3724
G01 X-5.0205 Y1.3955
G01 X-5.0100 Y1.4176
G01 X-4.9974 Y1.4386
G01 X-4.9829 Y1.4583
G01 X-4.9664 Y1.4764
G01 X-4.9483 Y1.4929
G01 X-4.9286 Y1.5074
G01 X-4.9076 Y1.5200
G01 X-4.8855 Y1.5305
G01 X-4.8624 Y1.5387
G01 X-4.8387 Y1.5447
G01 X-4.8145 Y1.5483
G01 X-4.7900 Y1.5495
G01 X-4.7655 Y1.5483
G01 X-4.7413 Y1.5447
G01 X-4.7176 Y1.5387
G01 X-4.6945 Y1.5305
G01 X-4.6724 Y1.5200
G01 X-4.6514 Y1.5074
G01 X-4.6317 Y1.4929
G01 X-4.6136 Y1.4764
G01 X-4.5971 Y1.4583
G01 X-4.5826 Y1.4386
G01 X-4.5700 Y1.4176
G01 X-4.5595 Y1.3955
G01 X-4.5513 Y1.3724
G01 X-4.5453 Y1.3487
G01 X-4.5417 Y1.3245
G01 X-4.5405 Y1.3000
G00 Z1.5000
G00 X-27.4005 Y1.3000
G01 F100.00
G01 Z-0.6000
G01 F600.00
G01 X-27.4017 Y1.2755
G01 X-27.4053 Y1.2513
G01 X-27.4113 Y1.2276
G01 X-27.4195 Y1.2045
G01 X-27.4300 Y1.1824
G01 X-27.4426 Y1.1614
G01 X-27.4571 Y1.1417
G01 X-27.4736 Y1.1236
G01 X-27.4917 Y1.1071
G01 X-27.5114 Y1.0926
G01 X-27.5324 Y1.0800
G01 X-27.5545 Y1.0695
G01 X-27.5776 Y1.0613
G01 X-27.6013 Y1.0553
G01 X-27.6255 Y1.0517
G01 X-27.6500 Y1.0505
G01 X-27.6745 Y1.0517
G01 X-27.6987 Y1.0553
G01 X-27.7224 Y1.0613
G01 X-27.7455 Y1.0695
G01 X-27.7676 Y1.0800
G01 X-27.7886 Y1.0926
G01 X-27.8083 Y1.1071
G01 X-27.8264 Y1.1236
G01 X-27.8429 Y1.1417
G01 X-27.8574 Y1.1614
G01 X-27.8700 Y1.1824
G01 X-27.8805 Y1.2045
G01 X-27.8887 Y1.2276
G01 X-27.8947 Y1.2513
G01 X-27.8983 Y1.2755
G01 X-27.8995 Y1.3000
G01 X-27.8983 Y1.3245
G01 X-27.8947 Y1.3487
G01 X-27.8887 Y1.3724
G01 X-27.8805 Y1.3955
G01 X-27.8700 Y1.4176
G01 X-27.8574 Y1.4386
G01 X-27.8429 Y1.4583
G01 X-27.8264 Y1.4764
G01 X-27.8083 Y1.4929
G01 X-27.7886 Y1.5074
G01 X-27.7676 Y1.5200
G01 X-27.7455 Y1.5305
G01 X-27.7224 Y1.5387
G01 X-27.6987 Y1.5447
G01 X-27.6745 Y1.5483
G01 X-27.6500 Y1.5495
G01 X-27.6255 Y1.5483
G01 X-27.6013 Y1.5447
G01 X-27.5776 Y1.5387
G01 X-27.5545 Y1.5305
G01 X-27.5324 Y1.5200
G01 X-27.5114 Y1.5074
G01 X-27.4917 Y1.4929
G01 X-27.4736 Y1.4764
G01 X-27.4571 Y1.4583
G01 X-27.4426 Y1.4386
G01 X-27.4300 Y1.4176
G01 X-27.4195 Y1.3955
G01 X-27.4113 Y1.3724
G01 X-27.4053 Y1.3487
G01 X-27.4017 Y1.3245
G01 X-27.4005 Y1.3000
G00 X-27.4005 Y1.3000
G01 F100.00
G01 Z-1.2000
G01 F600.00
G01 X-27.4017 Y1.2755
G01 X-27.4053 Y1.2513
G01 X-27.4113 Y1.2276
G01 X-27.4195 Y1.2045
G01 X-27.4300 Y1.1824
G01 X-27.4426 Y1.1614
G01 X-27.4571 Y1.1417
G01 X-27.4736 Y1.1236
G01 X-27.4917 Y1.1071
G01 X-27.5114 Y1.0926
G01 X-27.5324 Y1.0800
G01 X-27.5545 Y1.0695
G01 X-27.5776 Y1.0613
G01 X-27.6013 Y1.0553
G01 X-27.6255 Y1.0517
G01 X-27.6500 Y1.0505
G01 X-27.6745 Y1.0517
G01 X-27.6987 Y1.0553
G01 X-27.7224 Y1.0613
G01 X-27.7455 Y1.0695
G01 X-27.7676 Y1.0800
G01 X-27.7886 Y1.0926
G01 X-27.8083 Y1.1071
G01 X-27.8264 Y1.1236
G01 X-27.8429 Y1.1417
G01 X-27.8574 Y1.1614
G01 X-27.8700 Y1.1824
G01 X-27.8805 Y1.2045
G01 X-27.8887 Y1.2276
G01 X-27.8947 Y1.2513
G01 X-27.8983 Y1.2755
G01 X-27.8995 Y1.3000
G01 X-27.8983 Y1.3245
G01 X-27.8947 Y1.3487
G01 X-27.8887 Y1.3724
G01 X-27.8805 Y1.3955
G01 X-27.8700 Y1.4176
G01 X-27.8574 Y1.4386
G01 X-27.8429 Y1.4583
G01 X-27.8264 Y1.4764
G01 X-27.8083 Y1.4929
G01 X-27.7886 Y1.5074
G01 X-27.7676 Y1.5200
G01 X-27.7455 Y1.5305
G01 X-27.7224 Y1.5387
G01 X-27.6987 Y1.5447
G01 X-27.6745 Y1.5483
G01 X-27.6500 Y1.5495
G01 X-27.6255 Y1.5483
G01 X-27.6013 Y1.5447
G01 X-27.5776 Y1.5387
G01 X-27.5545 Y1.5305
G01 X-27.5324 Y1.5200
G01 X-27.5114 Y1.5074
G01 X-27.4917 Y1.4929
G01 X-27.4736 Y1.4764
G01 X-27.4571 Y1.4583
G01 X-27.4426 Y1.4386
G01 X-27.4300 Y1.4176
G01 X-27.4195 Y1.3955
G01 X-27.4113 Y1.3724
G01 X-27.4053 Y1.3487
G01 X-27.4017 Y1.3245
G01 X-27.4005 Y1.3000
G00 X-27.4005 Y1.3000
G01 F100.00
G01 Z-1.7000
G01 F600.00
G01 X-27.4017 Y1.2755
G01 X-27.4053 Y1.2513
G01 X-27.4113 Y1.2276
G01 X-27.4195 Y1.2045
G01 X-27.4300 Y1.1824
G01 X-27.4426 Y1.1614
G01 X-27.4571 Y1.1417
G01 X-27.4736 Y1.1236
G01 X-27.4917 Y1.1071
G01 X-27.5114 Y1.0926
G01 X-27.5324 Y1.0800
G01 X-27.5545 Y1.0695
G01 X-27.5776 Y1.0613
G01 X-27.6013 Y1.0553
G01 X-27.6255 Y1.0517
G01 X-27.6500 Y1.0505
G01 X-27.6745 Y1.0517
G01 X-27.6987 Y1.0553
G01 X-27.7224 Y1.0613
G01 X-27.7455 Y1.0695
G01 X-27.7676 Y1.0800
G01 X-27.7886 Y1.0926
G01 X-27.8083 Y1.1071
G01 X-27.8264 Y1.1236
G01 X-27.8429 Y1.1417
G01 X-27.8574 Y1.1614
G01 X-27.8700 Y1.1824
G01 X-27.8805 Y1.2045
G01 X-27.8887 Y1.2276
G01 X-27.8947 Y1.2513
G01 X-27.8983 Y1.2755
G01 X-27.8995 Y1.3000
G01 X-27.8983 Y1.3245
G01 X-27.8947 Y1.3487
G01 X-27.8887 Y1.3724
G01 X-27.8805 Y1.3955
G01 X-27.8700 Y1.4176
G01 X-27.8574 Y1.4386
G01 X-27.8429 Y1.4583
G01 X-27.8264 Y1.4764
G01 X-27.8083 Y1.4929
G01 X-27.7886 Y1.5074
G01 X-27.7676 Y1.5200
G01 X-27.7455 Y1.5305
G01 X-27.7224 Y1.5387
G01 X-27.6987 Y1.5447
G01 X-27.6745 Y1.5483
G01 X-27.6500 Y1.5495
G01 X-27.6255 Y1.5483
G01 X-27.6013 Y1.5447
G01 X-27.5776 Y1.5387
G01 X-27.5545 Y1.5305
G01 X-27.5324 Y1.5200
G01 X-27.5114 Y1.5074
G01 X-27.4917 Y1.4929
G01 X-27.4736 Y1.4764
G01 X-27.4571 Y1.4583
G01 X-27.4426 Y1.4386
G01 X-27.4300 Y1.4176
G01 X-27.4195 Y1.3955
G01 X-27.4113 Y1.3724
G01 X-27.4053 Y1.3487
G01 X-27.4017 Y1.3245
G01 X-27.4005 Y1.3000
G00 Z1.5000
G00 X-61.6905 Y7.6500
G01 F100.00
G01 Z-0.6000
G01 F600.00
G01 X-61.6917 Y7.6255
G01 X-61.6953 Y7.6013
G01 X-61.7013 Y7.5776
G01 X-61.7095 Y7.5545
G01 X-61.7200 Y7.5324
G01 X-61.7326 Y7.5114
G01 X-61.7471 Y7.4917
G01 X-61.7636 Y7.4736
G01 X-61.7817 Y7.4571
G01 X-61.8014 Y7.4426
G01 X-61.8224 Y7.4300
G01 X-61.8445 Y7.4195
G01 X-61.8676 Y7.4113
G01 X-61.8913 Y7.4053
G01 X-61.9155 Y7.4017
G01 X-61.9400 Y7.4005
G01 X-61.9645 Y7.4017
G01 X-61.9887 Y7.4053
G01 X-62.0124 Y7.4113
G01 X-62.0355 Y7.4195
G01 X-62.0576 Y7.4300
G01 X-62.0786 Y7.4426
G01 X-62.0983 Y7.4571
G01 X-62.1164 Y7.4736
G01 X-62.1329 Y7.4917
G01 X-62.1474 Y7.5114
G01 X-62.1600 Y7.5324
G01 X-62.1705 Y7.5545
G01 X-62.1787 Y7.5776
G01 X-62.1847 Y7.6013
G01 X-62.1883 Y7.6255
G01 X-62.1895 Y7.6500
G01 X-62.1883 Y7.6745
G01 X-62.1847 Y7.6987
G01 X-62.1787 Y7.7224
G01 X-62.1705 Y7.7455
G01 X-62.1600 Y7.7676
G01 X-62.1474 Y7.7886
G01 X-62.1329 Y7.8083
G01 X-62.1164 Y7.8264
G01 X-62.0983 Y7.8429
G01 X-62.0786 Y7.8574
G01 X-62.0576 Y7.8700
G01 X-62.0355 Y7.8805
G01 X-62.0124 Y7.8887
G01 X-61.9887 Y7.8947
G01 X-61.9645 Y7.8983
G01 X-61.9400 Y7.8995
G01 X-61.9155 Y7.8983
G01 X-61.8913 Y7.8947
G01 X-61.8676 Y7.8887
G01 X-61.8445 Y7.8805
G01 X-61.8224 Y7.8700
G01 X-61.8014 Y7.8574
G01 X-61.7817 Y7.8429
G01 X-61.7636 Y7.8264
G01 X-61.7471 Y7.8083
G01 X-61.7326 Y7.7886
G01 X-61.7200 Y7.7676
G01 X-61.7095 Y7.7455
G01 X-61.7013 Y7.7224
G01 X-61.6953 Y7.6987
G01 X-61.6917 Y7.6745
G01 X-61.6905 Y7.6500
G00 X-61.6905 Y7.6500
G01 F100.00
G01 Z-1.2000
G01 F600.00
G01 X-61.6917 Y7.6255
G01 X-61.6953 Y7.6013
G01 X-61.7013 Y7.5776
G01 X-61.7095 Y7.5545
G01 X-61.7200 Y7.5324
G01 X-61.7326 Y7.5114
G01 X-61.7471 Y7.4917
G01 X-61.7636 Y7.4736
G01 X-61.7817 Y7.4571
G01 X-61.8014 Y7.4426
G01 X-61.8224 Y7.4300
G01 X-61.8445 Y7.4195
G01 X-61.8676 Y7.4113
G01 X-61.8913 Y7.4053
G01 X-61.9155 Y7.4017
G01 X-61.9400 Y7.4005
G01 X-61.9645 Y7.4017
G01 X-61.9887 Y7.4053
G01 X-62.0124 Y7.4113
G01 X-62.0355 Y7.4195
G01 X-62.0576 Y7.4300
G01 X-62.0786 Y7.4426
G01 X-62.0983 Y7.4571
G01 X-62.1164 Y7.4736
G01 X-62.1329 Y7.4917
G01 X-62.1474 Y7.5114
G01 X-62.1600 Y7.5324
G01 X-62.1705 Y7.5545
G01 X-62.1787 Y7.5776
G01 X-62.1847 Y7.6013
G01 X-62.1883 Y7.6255
G01 X-62.1895 Y7.6500
G01 X-62.1883 Y7.6745
G01 X-62.1847 Y7.6987
G01 X-62.1787 Y7.7224
G01 X-62.1705 Y7.7455
G01 X-62.1600 Y7.7676
G01 X-62.1474 Y7.7886
G01 X-62.1329 Y7.8083
G01 X-62.1164 Y7.8264
G01 X-62.0983 Y7.8429
G01 X-62.0786 Y7.8574
G01 X-62.0576 Y7.8700
G01 X-62.0355 Y7.8805
G01 X-62.0124 Y7.8887
G01 X-61.9887 Y7.8947
G01 X-61.9645 Y7.8983
G01 X-61.9400 Y7.8995
G01 X-61.9155 Y7.8983
G01 X-61.8913 Y7.8947
G01 X-61.8676 Y7.8887
G01 X-61.8445 Y7.8805
G01 X-61.8224 Y7.8700
G01 X-61.8014 Y7.8574
G01 X-61.7817 Y7.8429
G01 X-61.7636 Y7.8264
G01 X-61.7471 Y7.8083
G01 X-61.7326 Y7.7886
G01 X-61.7200 Y7.7676
G01 X-61.7095 Y7.7455
G01 X-61.7013 Y7.7224
G01 X-61.6953 Y7.6987
G01 X-61.6917 Y7.6745
G01 X-61.6905 Y7.6500
G00 X-61.6905 Y7.6500
G01 F100.00
G01 Z-1.7000
G01 F600.00
G01 X-61.6917 Y7.6255
G01 X-61.6953 Y7.6013
G01 X-61.7013 Y7.5776
G01 X-61.7095 Y7.5545
G01 X-61.7200 Y7.5324
G01 X-61.7326 Y7.5114
G01 X-61.7471 Y7.4917
G01 X-61.7636 Y7.4736
G01 X-61.7817 Y7.4571
G01 X-61.8014 Y7.4426
G01 X-61.8224 Y7.4300
G01 X-61.8445 Y7.4195
G01 X-61.8676 Y7.4113
G01 X-61.8913 Y7.4053
G01 X-61.9155 Y7.4017
G01 X-61.9400 Y7.4005
G01 X-61.9645 Y7.4017
G01 X-61.9887 Y7.4053
G01 X-62.0124 Y7.4113
G01 X-62.0355 Y7.4195
G01 X-62.0576 Y7.4300
G01 X-62.0786 Y7.4426
G01 X-62.0983 Y7.4571
G01 X-62.1164 Y7.4736
G01 X-62.1329 Y7.4917
G01 X-62.1474 Y7.5114
G01 X-62.1600 Y7.5324
G01 X-62.1705 Y7.5545
G01 X-62.1787 Y7.5776
G01 X-62.1847 Y7.6013
G01 X-62.1883 Y7.6255
G01 X-62.1895 Y7.6500
G01 X-62.1883 Y7.6745
G01 X-62.1847 Y7.6987
G01 X-62.1787 Y7.7224
G01 X-62.1705 Y7.7455
G01 X-62.1600 Y7.7676
G01 X-62.1474 Y7.7886
G01 X-62.1329 Y7.8083
G01 X-62.1164 Y7.8264
G01 X-62.0983 Y7.8429
G01 X-62.0786 Y7.8574
G01 X-62.0576 Y7.8700
G01 X-62.0355 Y7.8805
G01 X-62.0124 Y7.8887
G01 X-61.9887 Y7.8947
G01 X-61.9645 Y7.8983
G01 X-61.9400 Y7.8995
G01 X-61.9155 Y7.8983
G01 X-61.8913 Y7.8947
G01 X-61.8676 Y7.8887
G01 X-61.8445 Y7.8805
G01 X-61.8224 Y7.8700
G01 X-61.8014 Y7.8574
G01 X-61.7817 Y7.8429
G01 X-61.7636 Y7.8264
G01 X-61.7471 Y7.8083
G01 X-61.7326 Y7.7886
G01 X-61.7200 Y7.7676
G01 X-61.7095 Y7.7455
G01 X-61.7013 Y7.7224
G01 X-61.6953 Y7.6987
G01 X-61.6917 Y7.6745
G01 X-61.6905 Y7.6500
G00 Z1.5000
M05
G00 Z1.5000
G00 Z15.00
G00 X0.0 Y0.0

