(G-CODE GENERATED BY FLATCAM v8.991 - www.flatcam.org - Version Date: 2019/12/27)

(Name: raceMini1-Edge_Cuts.gbr_cutout_cnc)
(Type: G-code from Geometry)
(Units: MM)

(Created on Friday, 10 April 2020 at 09:35)

(TOOL DIAMETER: 1.5 mm)
(Feedrate: 600.0 mm/min)
(Feedrate_Z: 100.0 mm/min)
(Feedrate rapids 1200.0 mm/min)

(Z_Cut: -1.7 mm)
(DepthPerCut: 0.6 mm <=>3 passes)
(Z_Move: 1.5 mm)
(Z Toolchange: 15.0 mm)
(X,Y Toolchange: 0.0000, 0.0000 mm)
(Z Start: None mm)
(Z End: 15.0 mm)
(Steps per circle: 64)
(Preprocessor Geometry: default)

(X range:  -71.7050 ...    2.4350  mm)
(Y range:   -2.1150 ...   58.0550  mm)

(Spindle Speed: 12000 RPM)
G21
G90
G94




G01 F600.00
G00 Z1.5000

M03 S12000
G00 X-65.3550 Y28.6476
G01 F100.00
G01 Z-0.6000
G01 F600.00
G01 X-71.1550 Y30.9676
G01 X-71.1983 Y30.9863
G01 X-71.2379 Y31.0059
G01 X-71.2762 Y31.0273
G01 X-71.3118 Y31.0496
G01 X-71.3478 Y31.0747
G01 X-71.3811 Y31.1003
G01 X-71.4144 Y31.1288
G01 X-71.4451 Y31.1576
G01 X-71.4755 Y31.1892
G01 X-71.5031 Y31.2209
G01 X-71.5303 Y31.2554
G01 X-71.5547 Y31.2896
G01 X-71.5783 Y31.3265
G01 X-71.5992 Y31.3630
G01 X-71.6192 Y31.4020
G01 X-71.6364 Y31.4404
G01 X-71.6524 Y31.4812
G01 X-71.6658 Y31.5210
G01 X-71.6777 Y31.5633
G01 X-71.6872 Y31.6042
G01 X-71.6949 Y31.6474
G01 X-71.7003 Y31.6891
G01 X-71.7037 Y31.7328
G01 X-71.7050 Y31.7748
G01 X-71.7050 Y43.2183
G01 X-71.7034 Y43.2620
G01 X-71.6999 Y43.3040
G01 X-71.6942 Y43.3473
G01 X-71.6865 Y43.3888
G01 X-71.6765 Y43.4314
G01 X-71.6649 Y43.4719
G01 X-71.6508 Y43.5133
G01 X-71.6352 Y43.5525
G01 X-71.6180 Y43.5905
G01 X-71.5980 Y43.6293
G01 X-71.5769 Y43.6659
G01 X-71.5532 Y43.7026
G01 X-71.5286 Y43.7369
G01 X-71.5014 Y43.7711
G01 X-71.4736 Y43.8028
G01 X-71.4432 Y43.8342
G01 X-71.4124 Y43.8630
G01 X-71.3787 Y43.8916
G01 X-71.3439 Y43.9181
G01 X-71.3092 Y43.9421
G01 X-71.2721 Y43.9651
G01 X-71.2352 Y43.9856
G01 X-71.1959 Y44.0048
G01 X-71.1500 Y44.0244
G01 X-35.5900 Y57.9944
G01 X-35.5581 Y58.0062
G01 X-35.5161 Y58.0197
G01 X-35.4738 Y58.0309
G01 X-35.4326 Y58.0398
G01 X-35.3894 Y58.0468
G01 X-35.3480 Y58.0515
G01 X-35.3059 Y58.0543
G01 X-35.2700 Y58.0550
G01 X-9.8700 Y58.0550
G01 X-9.8585 Y58.0549
G01 X-9.8168 Y58.0534
G01 X-9.7728 Y58.0496
G01 X-9.7315 Y58.0440
G01 X-9.6887 Y58.0360
G01 X-9.6457 Y58.0258
G01 X-9.6056 Y58.0141
G01 X-9.5656 Y58.0003
G01 X-9.5252 Y57.9842
G01 X-9.5146 Y57.9796
G01 X1.9154 Y52.8996
G01 X1.9450 Y52.8857
G01 X1.9820 Y52.8665
G01 X2.0202 Y52.8442
G01 X2.0556 Y52.8211
G01 X2.0894 Y52.7966
G01 X2.1239 Y52.7690
G01 X2.1565 Y52.7402
G01 X2.1863 Y52.7110
G01 X2.2164 Y52.6786
G01 X2.2432 Y52.6467
G01 X2.2689 Y52.6130
G01 X2.2935 Y52.5771
G01 X2.3166 Y52.5394
G01 X2.3370 Y52.5023
G01 X2.3553 Y52.4648
G01 X2.3727 Y52.4242
G01 X2.3872 Y52.3851
G01 X2.4004 Y52.3436
G01 X2.4116 Y52.3009
G01 X2.4204 Y52.2594
G01 X2.4270 Y52.2182
G01 X2.4318 Y52.1743
G01 X2.4344 Y52.1327
G01 X2.4350 Y52.1000
G01 X2.4350 Y-1.2400
G01 X2.4339 Y-1.2842
G01 X2.4257 Y-1.3672
G01 X2.4091 Y-1.4514
G01 X2.3842 Y-1.5336
G01 X2.3515 Y-1.6130
G01 X2.3099 Y-1.6909
G01 X2.2635 Y-1.7602
G01 X2.2091 Y-1.8267
G01 X2.1467 Y-1.8891
G01 X2.0802 Y-1.9435
G01 X2.0109 Y-1.9899
G01 X1.9330 Y-2.0315
G01 X1.8559 Y-2.0634
G01 X1.7738 Y-2.0885
G01 X1.6872 Y-2.1057
G01 X1.6042 Y-2.1139
G01 X1.5600 Y-2.1150
G01 X-64.4800 Y-2.1150
G01 X-64.5242 Y-2.1139
G01 X-64.6072 Y-2.1057
G01 X-64.6914 Y-2.0891
G01 X-64.7736 Y-2.0642
G01 X-64.8530 Y-2.0315
G01 X-64.9309 Y-1.9899
G01 X-65.0002 Y-1.9435
G01 X-65.0667 Y-1.8891
G01 X-65.1291 Y-1.8267
G01 X-65.1835 Y-1.7602
G01 X-65.2299 Y-1.6909
G01 X-65.2715 Y-1.6130
G01 X-65.3034 Y-1.5359
G01 X-65.3285 Y-1.4538
G01 X-65.3457 Y-1.3672
G01 X-65.3539 Y-1.2842
G01 X-65.3550 Y-1.2400
G01 X-65.3550 Y28.6476
G00 X-65.3550 Y28.6476
G01 F100.00
G01 Z-1.2000
G01 F600.00
G01 X-71.1550 Y30.9676
G01 X-71.1983 Y30.9863
G01 X-71.2379 Y31.0059
G01 X-71.2762 Y31.0273
G01 X-71.3118 Y31.0496
G01 X-71.3478 Y31.0747
G01 X-71.3811 Y31.1003
G01 X-71.4144 Y31.1288
G01 X-71.4451 Y31.1576
G01 X-71.4755 Y31.1892
G01 X-71.5031 Y31.2209
G01 X-71.5303 Y31.2554
G01 X-71.5547 Y31.2896
G01 X-71.5783 Y31.3265
G01 X-71.5992 Y31.3630
G01 X-71.6192 Y31.4020
G01 X-71.6364 Y31.4404
G01 X-71.6524 Y31.4812
G01 X-71.6658 Y31.5210
G01 X-71.6777 Y31.5633
G01 X-71.6872 Y31.6042
G01 X-71.6949 Y31.6474
G01 X-71.7003 Y31.6891
G01 X-71.7037 Y31.7328
G01 X-71.7050 Y31.7748
G01 X-71.7050 Y43.2183
G01 X-71.7034 Y43.2620
G01 X-71.6999 Y43.3040
G01 X-71.6942 Y43.3473
G01 X-71.6865 Y43.3888
G01 X-71.6765 Y43.4314
G01 X-71.6649 Y43.4719
G01 X-71.6508 Y43.5133
G01 X-71.6352 Y43.5525
G01 X-71.6180 Y43.5905
G01 X-71.5980 Y43.6293
G01 X-71.5769 Y43.6659
G01 X-71.5532 Y43.7026
G01 X-71.5286 Y43.7369
G01 X-71.5014 Y43.7711
G01 X-71.4736 Y43.8028
G01 X-71.4432 Y43.8342
G01 X-71.4124 Y43.8630
G01 X-71.3787 Y43.8916
G01 X-71.3439 Y43.9181
G01 X-71.3092 Y43.9421
G01 X-71.2721 Y43.9651
G01 X-71.2352 Y43.9856
G01 X-71.1959 Y44.0048
G01 X-71.1500 Y44.0244
G01 X-35.5900 Y57.9944
G01 X-35.5581 Y58.0062
G01 X-35.5161 Y58.0197
G01 X-35.4738 Y58.0309
G01 X-35.4326 Y58.0398
G01 X-35.3894 Y58.0468
G01 X-35.3480 Y58.0515
G01 X-35.3059 Y58.0543
G01 X-35.2700 Y58.0550
G01 X-9.8700 Y58.0550
G01 X-9.8585 Y58.0549
G01 X-9.8168 Y58.0534
G01 X-9.7728 Y58.0496
G01 X-9.7315 Y58.0440
G01 X-9.6887 Y58.0360
G01 X-9.6457 Y58.0258
G01 X-9.6056 Y58.0141
G01 X-9.5656 Y58.0003
G01 X-9.5252 Y57.9842
G01 X-9.5146 Y57.9796
G01 X1.9154 Y52.8996
G01 X1.9450 Y52.8857
G01 X1.9820 Y52.8665
G01 X2.0202 Y52.8442
G01 X2.0556 Y52.8211
G01 X2.0894 Y52.7966
G01 X2.1239 Y52.7690
G01 X2.1565 Y52.7402
G01 X2.1863 Y52.7110
G01 X2.2164 Y52.6786
G01 X2.2432 Y52.6467
G01 X2.2689 Y52.6130
G01 X2.2935 Y52.5771
G01 X2.3166 Y52.5394
G01 X2.3370 Y52.5023
G01 X2.3553 Y52.4648
G01 X2.3727 Y52.4242
G01 X2.3872 Y52.3851
G01 X2.4004 Y52.3436
G01 X2.4116 Y52.3009
G01 X2.4204 Y52.2594
G01 X2.4270 Y52.2182
G01 X2.4318 Y52.1743
G01 X2.4344 Y52.1327
G01 X2.4350 Y52.1000
G01 X2.4350 Y-1.2400
G01 X2.4339 Y-1.2842
G01 X2.4257 Y-1.3672
G01 X2.4091 Y-1.4514
G01 X2.3842 Y-1.5336
G01 X2.3515 Y-1.6130
G01 X2.3099 Y-1.6909
G01 X2.2635 Y-1.7602
G01 X2.2091 Y-1.8267
G01 X2.1467 Y-1.8891
G01 X2.0802 Y-1.9435
G01 X2.0109 Y-1.9899
G01 X1.9330 Y-2.0315
G01 X1.8559 Y-2.0634
G01 X1.7738 Y-2.0885
G01 X1.6872 Y-2.1057
G01 X1.6042 Y-2.1139
G01 X1.5600 Y-2.1150
G01 X-64.4800 Y-2.1150
G01 X-64.5242 Y-2.1139
G01 X-64.6072 Y-2.1057
G01 X-64.6914 Y-2.0891
G01 X-64.7736 Y-2.0642
G01 X-64.8530 Y-2.0315
G01 X-64.9309 Y-1.9899
G01 X-65.0002 Y-1.9435
G01 X-65.0667 Y-1.8891
G01 X-65.1291 Y-1.8267
G01 X-65.1835 Y-1.7602
G01 X-65.2299 Y-1.6909
G01 X-65.2715 Y-1.6130
G01 X-65.3034 Y-1.5359
G01 X-65.3285 Y-1.4538
G01 X-65.3457 Y-1.3672
G01 X-65.3539 Y-1.2842
G01 X-65.3550 Y-1.2400
G01 X-65.3550 Y28.6476
G00 X-65.3550 Y28.6476
G01 F100.00
G01 Z-1.7000
G01 F600.00
G01 X-71.1550 Y30.9676
G01 X-71.1983 Y30.9863
G01 X-71.2379 Y31.0059
G01 X-71.2762 Y31.0273
G01 X-71.3118 Y31.0496
G01 X-71.3478 Y31.0747
G01 X-71.3811 Y31.1003
G01 X-71.4144 Y31.1288
G01 X-71.4451 Y31.1576
G01 X-71.4755 Y31.1892
G01 X-71.5031 Y31.2209
G01 X-71.5303 Y31.2554
G01 X-71.5547 Y31.2896
G01 X-71.5783 Y31.3265
G01 X-71.5992 Y31.3630
G01 X-71.6192 Y31.4020
G01 X-71.6364 Y31.4404
G01 X-71.6524 Y31.4812
G01 X-71.6658 Y31.5210
G01 X-71.6777 Y31.5633
G01 X-71.6872 Y31.6042
G01 X-71.6949 Y31.6474
G01 X-71.7003 Y31.6891
G01 X-71.7037 Y31.7328
G01 X-71.7050 Y31.7748
G01 X-71.7050 Y43.2183
G01 X-71.7034 Y43.2620
G01 X-71.6999 Y43.3040
G01 X-71.6942 Y43.3473
G01 X-71.6865 Y43.3888
G01 X-71.6765 Y43.4314
G01 X-71.6649 Y43.4719
G01 X-71.6508 Y43.5133
G01 X-71.6352 Y43.5525
G01 X-71.6180 Y43.5905
G01 X-71.5980 Y43.6293
G01 X-71.5769 Y43.6659
G01 X-71.5532 Y43.7026
G01 X-71.5286 Y43.7369
G01 X-71.5014 Y43.7711
G01 X-71.4736 Y43.8028
G01 X-71.4432 Y43.8342
G01 X-71.4124 Y43.8630
G01 X-71.3787 Y43.8916
G01 X-71.3439 Y43.9181
G01 X-71.3092 Y43.9421
G01 X-71.2721 Y43.9651
G01 X-71.2352 Y43.9856
G01 X-71.1959 Y44.0048
G01 X-71.1500 Y44.0244
G01 X-35.5900 Y57.9944
G01 X-35.5581 Y58.0062
G01 X-35.5161 Y58.0197
G01 X-35.4738 Y58.0309
G01 X-35.4326 Y58.0398
G01 X-35.3894 Y58.0468
G01 X-35.3480 Y58.0515
G01 X-35.3059 Y58.0543
G01 X-35.2700 Y58.0550
G01 X-9.8700 Y58.0550
G01 X-9.8585 Y58.0549
G01 X-9.8168 Y58.0534
G01 X-9.7728 Y58.0496
G01 X-9.7315 Y58.0440
G01 X-9.6887 Y58.0360
G01 X-9.6457 Y58.0258
G01 X-9.6056 Y58.0141
G01 X-9.5656 Y58.0003
G01 X-9.5252 Y57.9842
G01 X-9.5146 Y57.9796
G01 X1.9154 Y52.8996
G01 X1.9450 Y52.8857
G01 X1.9820 Y52.8665
G01 X2.0202 Y52.8442
G01 X2.0556 Y52.8211
G01 X2.0894 Y52.7966
G01 X2.1239 Y52.7690
G01 X2.1565 Y52.7402
G01 X2.1863 Y52.7110
G01 X2.2164 Y52.6786
G01 X2.2432 Y52.6467
G01 X2.2689 Y52.6130
G01 X2.2935 Y52.5771
G01 X2.3166 Y52.5394
G01 X2.3370 Y52.5023
G01 X2.3553 Y52.4648
G01 X2.3727 Y52.4242
G01 X2.3872 Y52.3851
G01 X2.4004 Y52.3436
G01 X2.4116 Y52.3009
G01 X2.4204 Y52.2594
G01 X2.4270 Y52.2182
G01 X2.4318 Y52.1743
G01 X2.4344 Y52.1327
G01 X2.4350 Y52.1000
G01 X2.4350 Y-1.2400
G01 X2.4339 Y-1.2842
G01 X2.4257 Y-1.3672
G01 X2.4091 Y-1.4514
G01 X2.3842 Y-1.5336
G01 X2.3515 Y-1.6130
G01 X2.3099 Y-1.6909
G01 X2.2635 Y-1.7602
G01 X2.2091 Y-1.8267
G01 X2.1467 Y-1.8891
G01 X2.0802 Y-1.9435
G01 X2.0109 Y-1.9899
G01 X1.9330 Y-2.0315
G01 X1.8559 Y-2.0634
G01 X1.7738 Y-2.0885
G01 X1.6872 Y-2.1057
G01 X1.6042 Y-2.1139
G01 X1.5600 Y-2.1150
G01 X-64.4800 Y-2.1150
G01 X-64.5242 Y-2.1139
G01 X-64.6072 Y-2.1057
G01 X-64.6914 Y-2.0891
G01 X-64.7736 Y-2.0642
G01 X-64.8530 Y-2.0315
G01 X-64.9309 Y-1.9899
G01 X-65.0002 Y-1.9435
G01 X-65.0667 Y-1.8891
G01 X-65.1291 Y-1.8267
G01 X-65.1835 Y-1.7602
G01 X-65.2299 Y-1.6909
G01 X-65.2715 Y-1.6130
G01 X-65.3034 Y-1.5359
G01 X-65.3285 Y-1.4538
G01 X-65.3457 Y-1.3672
G01 X-65.3539 Y-1.2842
G01 X-65.3550 Y-1.2400
G01 X-65.3550 Y28.6476
G00 Z1.5000
M05
G00 Z1.5000
G00 Z15.00
G00 X0.0 Y0.0

